;START_OF_HEADER
;HEADER_VERSION:0.1
;FLAVOR:Griffin
;GENERATOR.NAME:Cura_SteamEngine
;GENERATOR.VERSION:4.1.0
;GENERATOR.BUILD_DATE:2019-05-28
;TARGET_MACHINE.NAME:Ultimaker 3 Extended
;EXTRUDER_TRAIN.0.INITIAL_TEMPERATURE:210
;EXTRUDER_TRAIN.0.MATERIAL.VOLUME_USED:11218
;EXTRUDER_TRAIN.0.MATERIAL.GUID:e509f649-9fe6-4b14-ac45-d441438cb4ef
;EXTRUDER_TRAIN.0.NOZZLE.DIAMETER:0.4
;EXTRUDER_TRAIN.0.NOZZLE.NAME:AA 0.4
;BUILD_PLATE.TYPE:glass
;BUILD_PLATE.INITIAL_TEMPERATURE:60
;BUILD_VOLUME.TEMPERATURE:35
;PRINT.TIME:5077
;PRINT.GROUPS:1
;PRINT.SIZE.MIN.X:9
;PRINT.SIZE.MIN.Y:6
;PRINT.SIZE.MIN.Z:0.27
;PRINT.SIZE.MAX.X:159.71
;PRINT.SIZE.MAX.Y:150.71
;PRINT.SIZE.MAX.Z:11.47
;END_OF_HEADER
;Generated with Cura_SteamEngine 4.1.0
T0
M82 ;absolute extrusion mode

G92 E0
M109 S210
G0 F15000 X9 Y6 Z2
G280
G1 F1500 E-6.5
;LAYER_COUNT:47
;LAYER:0
M107
M204 S625
M205 X6 Y6
G0 F4285.7 X75.159 Y66.688 Z0.27
M204 S500
M205 X5 Y5
;TYPE:SKIRT
G1 F1500 E0
G1 F1200 X75.413 Y66.416 E0.00662
G1 X75.597 Y66.241 E0.01113
G1 X75.731 Y66.12 E0.01434
G1 X76.056 Y65.844 E0.02192
G1 X76.378 Y65.604 E0.02906
G1 X76.661 Y65.419 E0.03507
G1 X76.777 Y65.346 E0.0375
G1 X77.048 Y65.185 E0.04311
G1 X77.373 Y65.017 E0.04961
G1 X77.56 Y64.933 E0.05325
G1 X77.683 Y64.881 E0.05563
G1 X78.058 Y64.731 E0.06281
G1 X78.393 Y64.618 E0.06909
G1 X78.624 Y64.554 E0.07335
G1 X78.766 Y64.518 E0.07596
G1 X79.147 Y64.431 E0.0829
G1 X79.521 Y64.368 E0.08965
G1 X79.727 Y64.346 E0.09333
G1 X79.857 Y64.335 E0.09565
G1 X80.298 Y64.306 E0.1035
G1 X80.451 Y64.3 E0.10623
G1 X80.948 Y64.291 E0.11506
G1 X81.006 Y64.29 E0.11609
G1 X151.838 Y64.29 E1.3752
G1 X152.544 Y64.3 E1.38775
G1 X152.75 Y64.31 E1.39142
G1 X153.362 Y64.358 E1.40233
G1 X153.852 Y64.435 E1.41115
G1 X154.472 Y64.582 E1.42247
G1 X154.873 Y64.705 E1.42993
G1 X155.078 Y64.783 E1.43383
G1 X155.211 Y64.837 E1.43638
G1 X155.583 Y64.998 E1.44359
G1 X155.984 Y65.206 E1.45162
G1 X156.52 Y65.534 E1.46279
G1 X156.846 Y65.762 E1.46986
G1 X157.014 Y65.896 E1.47368
G1 X157.136 Y65.999 E1.47652
G1 X157.416 Y66.246 E1.48315
G1 X157.628 Y66.452 E1.48841
G1 X157.775 Y66.608 E1.49222
G1 X157.906 Y66.755 E1.49572
G1 X158.14 Y67.036 E1.50222
G1 X158.355 Y67.326 E1.50864
G1 X158.553 Y67.627 E1.51504
G1 X158.607 Y67.712 E1.51683
G1 X158.758 Y67.958 E1.52196
G1 X158.963 Y68.35 E1.52982
G1 X159.177 Y68.839 E1.53931
G1 X159.328 Y69.265 E1.54735
G1 X159.506 Y69.904 E1.55914
G1 X159.588 Y70.288 E1.56612
G1 X159.626 Y70.541 E1.57067
G1 X159.652 Y70.769 E1.57475
G1 X159.676 Y71.077 E1.58024
G1 X159.685 Y71.266 E1.5836
G1 X159.704 Y72.282 E1.60166
G1 X159.705 Y72.342 E1.60273
G1 X159.71 Y137.011 E2.75229
G1 X159.71 Y142.811 E2.85539
G1 X159.7 Y143.542 E2.86838
G1 X159.69 Y143.749 E2.87207
G1 X159.647 Y144.298 E2.88185
G1 X159.59 Y144.7 E2.88907
G1 X159.509 Y145.09 E2.89615
G1 X159.397 Y145.493 E2.90359
G1 X159.122 Y146.282 E2.91844
G1 X158.926 Y146.731 E2.92715
G1 X158.814 Y146.942 E2.9314
G1 X158.715 Y147.116 E2.93495
G1 X158.499 Y147.468 E2.9423
G1 X158.234 Y147.838 E2.95039
G1 X157.846 Y148.306 E2.96119
G1 X157.594 Y148.577 E2.96777
G1 X157.41 Y148.753 E2.9723
G1 X157.269 Y148.88 E2.97567
G1 X156.944 Y149.156 E2.98325
G1 X156.622 Y149.396 E2.99039
G1 X156.339 Y149.581 E2.9964
G1 X156.224 Y149.653 E2.99881
G1 X155.955 Y149.813 E3.00437
G1 X155.623 Y149.985 E3.01102
G1 X155.435 Y150.069 E3.01468
G1 X155.315 Y150.12 E3.017
G1 X154.939 Y150.27 E3.02419
G1 X154.619 Y150.378 E3.0302
G1 X154.388 Y150.443 E3.03446
G1 X154.234 Y150.482 E3.03729
G1 X153.853 Y150.569 E3.04423
G1 X153.479 Y150.632 E3.05098
G1 X153.273 Y150.654 E3.05466
G1 X153.143 Y150.665 E3.05698
G1 X152.702 Y150.694 E3.06483
G1 X152.549 Y150.7 E3.06756
G1 X152.052 Y150.709 E3.07639
G1 X151.994 Y150.71 E3.07742
G1 X81.161 Y150.71 E4.33655
G1 X80.456 Y150.7 E4.34908
G1 X80.251 Y150.69 E4.35273
G1 X79.638 Y150.642 E4.36366
G1 X79.148 Y150.565 E4.37248
G1 X78.528 Y150.418 E4.3838
G1 X78.127 Y150.295 E4.39126
G1 X77.922 Y150.217 E4.39516
G1 X77.788 Y150.163 E4.39773
G1 X77.414 Y150.001 E4.40497
G1 X77.014 Y149.793 E4.41299
G1 X76.48 Y149.466 E4.42412
G1 X76.154 Y149.238 E4.43119
G1 X75.986 Y149.104 E4.43501
G1 X75.863 Y149 E4.43787
G1 X75.58 Y148.75 E4.44458
G1 X75.367 Y148.544 E4.44985
G1 X75.223 Y148.391 E4.45359
G1 X75.092 Y148.242 E4.45711
G1 X74.847 Y147.947 E4.46393
G1 X74.629 Y147.653 E4.47044
G1 X74.44 Y147.364 E4.47657
G1 X74.385 Y147.276 E4.47842
G1 X74.234 Y147.028 E4.48358
G1 X74.034 Y146.643 E4.49129
G1 X73.821 Y146.155 E4.50076
G1 X73.671 Y145.732 E4.50874
G1 X73.494 Y145.096 E4.52047
G1 X73.41 Y144.701 E4.52765
G1 X73.372 Y144.442 E4.5323
G1 X73.348 Y144.23 E4.53609
G1 X73.324 Y143.928 E4.54148
G1 X73.315 Y143.733 E4.54495
G1 X73.296 Y142.692 E4.56346
G1 X73.295 Y142.633 E4.56451
G1 X73.29 Y77.989 E5.71362
G1 X73.29 Y72.141 E5.81757
G1 X73.3 Y71.454 E5.82978
G1 X73.31 Y71.25 E5.83342
G1 X73.353 Y70.702 E5.84319
G1 X73.41 Y70.3 E5.8504
G1 X73.491 Y69.91 E5.85748
G1 X73.603 Y69.507 E5.86492
G1 X73.879 Y68.715 E5.87983
G1 X74.078 Y68.26 E5.88866
G1 X74.189 Y68.052 E5.89285
G1 X74.282 Y67.889 E5.89618
G1 X74.502 Y67.529 E5.90368
G1 X74.775 Y67.149 E5.912
G1 X75.159 Y66.688 E5.92267
M204 S625
M205 X6 Y6
G1 F1500 E-0.57733
;MESH:top_cover.stl
G0 F4285.7 X77.159 Y71.024
G0 X89.901 Y92.265
G0 X90.729 Y93.24
G0 X91.715 Y94.086
G0 X92.803 Y94.754
G0 X93.984 Y95.243
G0 X101.359 Y101.019
G0 X102.273 Y101.762
G0 X102.742 Y102.314
G0 X111.798 Y113.957
M204 S500
M205 X5 Y5
;TYPE:WALL-INNER
G1 F1500 E5.92267
G1 F1200 X112.873 Y114.618 E5.94189
G1 X114.032 Y115.097 E5.961
G1 X115.25 Y115.389 E5.98009
G1 X116.5 Y115.488 E5.99919
G1 X117.75 Y115.389 E6.0183
G1 X118.968 Y115.097 E6.03738
G1 X120.127 Y114.618 E6.05649
G1 X121.195 Y113.961 E6.07559
G1 X122.148 Y113.148 E6.09468
G1 X122.858 Y112.317 E6.11133
G1 X123.529 Y111.273 E6.13024
G1 X124.032 Y110.126 E6.14933
G1 X124.349 Y108.915 E6.1684
G1 X124.475 Y107.671 E6.18745
G1 X124.406 Y106.421 E6.20652
G1 X124.14 Y105.197 E6.22561
G1 X123.684 Y104.03 E6.2447
G1 X123.053 Y102.95 E6.26376
G1 X122.259 Y101.98 E6.28286
G1 X121.202 Y101.043 E6.30438
G1 X120.127 Y100.382 E6.32361
G1 X118.968 Y99.903 E6.34271
G1 X117.75 Y99.611 E6.3618
G1 X116.5 Y99.512 E6.3809
G1 X115.25 Y99.611 E6.40001
G1 X114.032 Y99.903 E6.41909
G1 X112.873 Y100.382 E6.4382
G1 X111.805 Y101.039 E6.45731
G1 X110.852 Y101.852 E6.47639
G1 X110.142 Y102.683 E6.49305
G1 X109.471 Y103.727 E6.51196
G1 X108.968 Y104.874 E6.53104
G1 X108.651 Y106.085 E6.55011
G1 X108.525 Y107.329 E6.56916
G1 X108.594 Y108.579 E6.58824
G1 X108.86 Y109.803 E6.60732
G1 X109.316 Y110.97 E6.62641
G1 X109.947 Y112.05 E6.64547
G1 X110.741 Y113.02 E6.66457
G1 X111.798 Y113.957 E6.68609
M204 S625
M205 X6 Y6
G0 F4285.7 X112.013 Y113.667
M204 S500
M205 X5 Y5
G1 F1200 X113.037 Y114.296 E6.7044
G1 X114.143 Y114.753 E6.72264
G1 X115.307 Y115.032 E6.74087
G1 X116.5 Y115.127 E6.75911
G1 X117.693 Y115.032 E6.77734
G1 X118.857 Y114.753 E6.79558
G1 X119.963 Y114.296 E6.81381
G1 X120.983 Y113.669 E6.83206
G1 X121.893 Y112.893 E6.85028
G1 X122.568 Y112.102 E6.86612
G1 X123.211 Y111.102 E6.88424
G1 X123.691 Y110.007 E6.90245
G1 X123.994 Y108.851 E6.92066
G1 X124.114 Y107.663 E6.93886
G1 X124.048 Y106.469 E6.95708
G1 X123.794 Y105.301 E6.97529
G1 X123.359 Y104.187 E6.99351
G1 X122.756 Y103.156 E7.01171
G1 X121.999 Y102.23 E7.02993
G1 X120.987 Y101.333 E7.05054
G1 X119.963 Y100.704 E7.06885
G1 X118.857 Y100.247 E7.08708
G1 X117.693 Y99.968 E7.10532
G1 X116.5 Y99.873 E7.12355
G1 X115.307 Y99.968 E7.14179
G1 X114.143 Y100.247 E7.16003
G1 X113.037 Y100.704 E7.17826
G1 X112.017 Y101.331 E7.1965
G1 X111.107 Y102.107 E7.21472
G1 X110.432 Y102.898 E7.23057
G1 X109.789 Y103.898 E7.24868
G1 X109.309 Y104.993 E7.2669
G1 X109.006 Y106.149 E7.28511
G1 X108.886 Y107.337 E7.3033
G1 X108.952 Y108.531 E7.32152
G1 X109.206 Y109.699 E7.33973
G1 X109.641 Y110.813 E7.35795
G1 X110.244 Y111.844 E7.37615
G1 X111.001 Y112.77 E7.39438
G1 X112.013 Y113.667 E7.41498
M204 S625
M205 X6 Y6
G0 F4285.7 X112.246 Y113.352
M204 S500
M205 X5 Y5
;TYPE:WALL-OUTER
G1 F1200 X113.215 Y113.947 E7.43519
G1 X114.264 Y114.381 E7.45537
G1 X115.368 Y114.646 E7.47556
G1 X116.5 Y114.736 E7.49574
G1 X117.632 Y114.646 E7.51593
G1 X118.736 Y114.381 E7.53611
G1 X119.785 Y113.947 E7.55629
G1 X120.753 Y113.353 E7.57648
G1 X121.616 Y112.616 E7.59665
G1 X122.254 Y111.869 E7.61411
G1 X122.866 Y110.917 E7.63423
G1 X123.322 Y109.878 E7.6544
G1 X123.609 Y108.782 E7.67454
G1 X123.723 Y107.654 E7.6947
G1 X123.66 Y106.522 E7.71485
G1 X123.419 Y105.414 E7.73501
G1 X123.007 Y104.357 E7.75517
G1 X122.435 Y103.379 E7.77531
G1 X121.717 Y102.501 E7.79547
G1 X120.754 Y101.648 E7.81834
G1 X119.785 Y101.053 E7.83855
G1 X118.736 Y100.619 E7.85873
G1 X117.632 Y100.354 E7.87892
G1 X116.5 Y100.264 E7.8991
G1 X115.368 Y100.354 E7.91929
G1 X114.264 Y100.619 E7.93947
G1 X113.215 Y101.053 E7.95965
G1 X112.247 Y101.647 E7.97984
G1 X111.384 Y102.384 E8.00001
G1 X110.746 Y103.131 E8.01747
G1 X110.134 Y104.083 E8.03759
G1 X109.678 Y105.122 E8.05776
G1 X109.391 Y106.218 E8.0779
G1 X109.277 Y107.346 E8.09805
G1 X109.34 Y108.478 E8.11821
G1 X109.581 Y109.586 E8.13836
G1 X109.993 Y110.643 E8.15853
G1 X110.565 Y111.621 E8.17867
G1 X111.283 Y112.499 E8.19883
G1 X112.246 Y113.352 E8.2217
M204 S625
M205 X6 Y6
G0 F4285.7 X112.416 Y113.456
G0 X112.174 Y113.849
G0 X112.158 Y113.873
G0 X110.973 Y112.797
G0 X110.212 Y111.866
G0 X109.605 Y110.83
G0 X109.168 Y109.71
G0 X108.913 Y108.536
G0 X108.847 Y107.337
G0 X108.944 Y106.37
G0 X111.915 Y93.795
M204 S500
M205 X5 Y5
;TYPE:WALL-INNER
G1 F1200 X112.964 Y94.44 E8.24046
G1 X114.094 Y94.906 E8.25909
G1 X115.281 Y95.192 E8.27769
G1 X116.5 Y95.288 E8.29632
G1 X117.719 Y95.192 E8.31495
G1 X118.906 Y94.906 E8.33356
G1 X120.036 Y94.44 E8.35218
G1 X121.078 Y93.799 E8.37082
G1 X122.006 Y93.008 E8.3894
G1 X122.7 Y92.197 E8.40566
G1 X123.354 Y91.178 E8.42411
G1 X123.844 Y90.061 E8.4427
G1 X124.153 Y88.88 E8.4613
G1 X124.276 Y87.667 E8.47987
G1 X124.208 Y86.447 E8.49849
G1 X123.949 Y85.255 E8.51708
G1 X123.504 Y84.118 E8.53568
G1 X122.889 Y83.063 E8.55429
G1 X122.115 Y82.118 E8.5729
G1 X121.085 Y81.205 E8.59387
G1 X120.036 Y80.56 E8.61263
G1 X118.906 Y80.094 E8.63126
G1 X117.719 Y79.808 E8.64986
G1 X116.5 Y79.712 E8.66849
G1 X115.281 Y79.808 E8.68712
G1 X114.094 Y80.094 E8.70572
G1 X112.964 Y80.56 E8.72435
G1 X111.922 Y81.201 E8.74299
G1 X110.994 Y81.992 E8.76157
G1 X110.3 Y82.803 E8.77783
G1 X109.646 Y83.822 E8.79628
G1 X109.156 Y84.939 E8.81486
G1 X108.847 Y86.12 E8.83346
G1 X108.724 Y87.333 E8.85204
G1 X108.792 Y88.553 E8.87066
G1 X109.051 Y89.745 E8.88924
G1 X109.496 Y90.882 E8.90785
G1 X110.111 Y91.937 E8.92645
G1 X110.885 Y92.882 E8.94507
G1 X111.915 Y93.795 E8.96604
M204 S625
M205 X6 Y6
G0 F4285.7 X112.13 Y93.505
M204 S500
M205 X5 Y5
G1 F1200 X113.128 Y94.118 E8.98388
G1 X114.205 Y94.563 E9.00164
G1 X115.338 Y94.835 E9.01939
G1 X116.5 Y94.927 E9.03715
G1 X117.662 Y94.835 E9.05491
G1 X118.795 Y94.563 E9.07267
G1 X119.872 Y94.118 E9.09042
G1 X120.866 Y93.507 E9.1082
G1 X121.751 Y92.752 E9.12592
G1 X122.41 Y91.982 E9.14136
G1 X123.036 Y91.007 E9.15902
G1 X123.503 Y89.942 E9.17674
G1 X123.798 Y88.816 E9.19447
G1 X123.915 Y87.659 E9.21219
G1 X123.85 Y86.496 E9.22994
G1 X123.603 Y85.359 E9.24767
G1 X123.179 Y84.275 E9.2654
G1 X122.592 Y83.269 E9.28315
G1 X121.855 Y82.368 E9.30088
G1 X120.87 Y81.495 E9.32094
G1 X119.872 Y80.882 E9.33878
G1 X118.795 Y80.437 E9.35654
G1 X117.662 Y80.165 E9.37429
G1 X116.5 Y80.073 E9.39205
G1 X115.338 Y80.165 E9.40981
G1 X114.205 Y80.437 E9.42757
G1 X113.128 Y80.882 E9.44532
G1 X112.134 Y81.493 E9.4631
G1 X111.249 Y82.248 E9.48082
G1 X110.59 Y83.018 E9.49627
G1 X109.964 Y83.993 E9.51392
G1 X109.497 Y85.058 E9.53164
G1 X109.202 Y86.184 E9.54937
G1 X109.085 Y87.341 E9.56709
G1 X109.15 Y88.504 E9.58484
G1 X109.397 Y89.641 E9.60257
G1 X109.821 Y90.725 E9.6203
G1 X110.408 Y91.731 E9.63805
G1 X111.145 Y92.632 E9.65579
G1 X112.13 Y93.505 E9.67584
M204 S625
M205 X6 Y6
G0 F4285.7 X112.363 Y93.19
M204 S500
M205 X5 Y5
;TYPE:WALL-OUTER
G1 F1200 X113.306 Y93.769 E9.69551
G1 X114.326 Y94.191 E9.71513
G1 X115.399 Y94.449 E9.73475
G1 X116.5 Y94.536 E9.75438
G1 X117.601 Y94.449 E9.77401
G1 X118.674 Y94.191 E9.79363
G1 X119.694 Y93.769 E9.81325
G1 X120.636 Y93.191 E9.8329
G1 X121.475 Y92.475 E9.85251
G1 X122.096 Y91.749 E9.86949
G1 X122.691 Y90.822 E9.88907
G1 X123.134 Y89.813 E9.90866
G1 X123.413 Y88.747 E9.92825
G1 X123.524 Y87.65 E9.94785
G1 X123.462 Y86.549 E9.96745
G1 X123.228 Y85.472 E9.98704
G1 X122.827 Y84.445 E10.00664
G1 X122.271 Y83.492 E10.02625
G1 X121.573 Y82.639 E10.04584
G1 X120.637 Y81.81 E10.06807
G1 X119.694 Y81.231 E10.08774
G1 X118.674 Y80.809 E10.10736
G1 X117.601 Y80.551 E10.12698
G1 X116.5 Y80.464 E10.14661
G1 X115.399 Y80.551 E10.16624
G1 X114.326 Y80.809 E10.18586
G1 X113.306 Y81.231 E10.20548
G1 X112.364 Y81.809 E10.22513
G1 X111.525 Y82.525 E10.24473
G1 X110.904 Y83.251 E10.26172
G1 X110.309 Y84.178 E10.2813
G1 X109.866 Y85.187 E10.30089
G1 X109.587 Y86.253 E10.32047
G1 X109.476 Y87.35 E10.34007
G1 X109.538 Y88.451 E10.35968
G1 X109.772 Y89.528 E10.37927
G1 X110.173 Y90.555 E10.39887
G1 X110.729 Y91.508 E10.41848
G1 X111.427 Y92.361 E10.43807
G1 X112.363 Y93.19 E10.4603
M204 S625
M205 X6 Y6
G0 F4285.7 X112.533 Y93.294
G0 X112.291 Y93.687
G0 X112.275 Y93.711
G0 X97.773 Y95.541
G0 X96.5 Y95.642
G0 X95.227 Y95.541
G0 X94.221 Y95.3
G0 X91.525 Y94.346
M204 S500
M205 X5 Y5
;TYPE:WALL-INNER
G1 F1200 X92.657 Y95.041 E10.48054
G1 X93.884 Y95.548 E10.50076
G1 X95.176 Y95.859 E10.52101
G1 X96.5 Y95.963 E10.54125
G1 X97.824 Y95.859 E10.56148
G1 X99.116 Y95.548 E10.58173
G1 X100.343 Y95.041 E10.60196
G1 X101.474 Y94.346 E10.62218
G1 X102.484 Y93.484 E10.64242
G1 X103.332 Y92.491 E10.66231
G1 X104.027 Y91.363 E10.6825
G1 X104.539 Y90.138 E10.70273
G1 X104.853 Y88.845 E10.723
G1 X104.96 Y87.524 E10.7432
G1 X104.863 Y86.201 E10.76341
G1 X104.555 Y84.906 E10.78369
G1 X104.05 Y83.679 E10.80391
G1 X103.36 Y82.546 E10.82412
G1 X102.499 Y81.533 E10.84438
G1 X101.476 Y80.654 E10.86493
G1 X100.343 Y79.958 E10.88519
G1 X99.115 Y79.452 E10.90542
G1 X97.824 Y79.141 E10.92566
G1 X96.5 Y79.037 E10.94589
G1 X95.176 Y79.141 E10.96613
G1 X93.885 Y79.452 E10.98636
G1 X92.657 Y79.958 E11.0066
G1 X91.526 Y80.654 E11.02683
G1 X90.516 Y81.516 E11.04706
G1 X89.668 Y82.509 E11.06696
G1 X88.972 Y83.637 E11.08715
G1 X88.461 Y84.863 E11.10739
G1 X88.147 Y86.155 E11.12765
G1 X88.04 Y87.476 E11.14784
G1 X88.137 Y88.799 E11.16806
G1 X88.444 Y90.094 E11.18833
G1 X88.949 Y91.321 E11.20855
G1 X89.64 Y92.454 E11.22877
G1 X90.501 Y93.467 E11.24903
G1 X91.525 Y94.346 E11.26959
M204 S625
M205 X6 Y6
G0 F4285.7 X91.738 Y94.054
M204 S500
M205 X5 Y5
G1 F1200 X92.821 Y94.719 E11.28895
G1 X93.996 Y95.205 E11.30833
G1 X95.233 Y95.502 E11.32771
G1 X96.5 Y95.602 E11.34707
G1 X97.767 Y95.502 E11.36644
G1 X99.004 Y95.205 E11.38582
G1 X100.179 Y94.719 E11.4052
G1 X101.262 Y94.054 E11.42456
G1 X102.229 Y93.229 E11.44393
G1 X103.04 Y92.278 E11.46297
G1 X103.706 Y91.198 E11.4823
G1 X104.196 Y90.025 E11.50167
G1 X104.496 Y88.788 E11.52107
G1 X104.599 Y87.523 E11.5404
G1 X104.506 Y86.256 E11.55976
G1 X104.211 Y85.017 E11.57917
G1 X103.728 Y83.842 E11.59852
G1 X103.067 Y82.758 E11.61787
G1 X102.243 Y81.788 E11.63726
G1 X101.263 Y80.946 E11.65695
G1 X100.179 Y80.28 E11.67633
G1 X99.004 Y79.795 E11.6957
G1 X97.767 Y79.498 E11.71508
G1 X96.5 Y79.398 E11.73445
G1 X95.233 Y79.498 E11.75381
G1 X93.996 Y79.795 E11.7732
G1 X92.821 Y80.28 E11.79256
G1 X91.738 Y80.946 E11.81194
G1 X90.771 Y81.771 E11.8313
G1 X89.96 Y82.722 E11.85035
G1 X89.293 Y83.802 E11.86969
G1 X88.804 Y84.975 E11.88905
G1 X88.504 Y86.212 E11.90844
G1 X88.401 Y87.477 E11.92778
G1 X88.494 Y88.744 E11.94714
G1 X88.788 Y89.983 E11.96654
G1 X89.271 Y91.158 E11.9859
G1 X89.933 Y92.242 E12.00525
G1 X90.757 Y93.212 E12.02464
G1 X91.738 Y94.054 E12.04434
M204 S625
M205 X6 Y6
G0 F4285.7 X91.968 Y93.738
M204 S500
M205 X5 Y5
;TYPE:WALL-OUTER
G1 F1200 X92.999 Y94.37 E12.06584
G1 X94.117 Y94.833 E12.08735
G1 X95.294 Y95.116 E12.10887
G1 X96.5 Y95.211 E12.13037
G1 X97.706 Y95.116 E12.15187
G1 X98.883 Y94.833 E12.17339
