;START_OF_HEADER
;HEADER_VERSION:0.1
;FLAVOR:Griffin
;GENERATOR.NAME:Cura_SteamEngine
;GENERATOR.VERSION:4.1.0
;GENERATOR.BUILD_DATE:2019-05-28
;TARGET_MACHINE.NAME:Ultimaker 3 Extended
;EXTRUDER_TRAIN.0.INITIAL_TEMPERATURE:210
;EXTRUDER_TRAIN.0.MATERIAL.VOLUME_USED:15001
;EXTRUDER_TRAIN.0.MATERIAL.GUID:e509f649-9fe6-4b14-ac45-d441438cb4ef
;EXTRUDER_TRAIN.0.NOZZLE.DIAMETER:0.4
;EXTRUDER_TRAIN.0.NOZZLE.NAME:AA 0.4
;BUILD_PLATE.TYPE:glass
;BUILD_PLATE.INITIAL_TEMPERATURE:60
;BUILD_VOLUME.TEMPERATURE:35
;PRINT.TIME:6396
;PRINT.GROUPS:1
;PRINT.SIZE.MIN.X:9
;PRINT.SIZE.MIN.Y:6
;PRINT.SIZE.MIN.Z:0.27
;PRINT.SIZE.MAX.X:163.43
;PRINT.SIZE.MAX.Y:154.43
;PRINT.SIZE.MAX.Z:10.87
;END_OF_HEADER
;Generated with Cura_SteamEngine 4.1.0
T0
M82 ;absolute extrusion mode

G92 E0
M109 S210
G0 F15000 X9 Y6 Z2
G280
G1 F1500 E-6.5
;LAYER_COUNT:54
;LAYER:0
M107
M204 S625
M205 X6 Y6
G0 F4285.7 X72.325 Y64.262 Z0.27
M204 S500
M205 X5 Y5
;TYPE:SKIRT
G1 F1500 E0
G1 F1200 X73.087 Y63.483 E0.01937
G1 X73.595 Y63.04 E0.03135
G1 X74.182 Y62.582 E0.04459
G1 X74.526 Y62.356 E0.0519
G1 X75.059 Y62.029 E0.06302
G1 X76.037 Y61.531 E0.08253
G1 X76.618 Y61.291 E0.0937
G1 X77.638 Y60.959 E0.11277
G1 X78.247 Y60.812 E0.12391
G1 X79.334 Y60.64 E0.14347
G1 X79.962 Y60.591 E0.15467
G1 X80.501 Y60.57 E0.16426
G1 X152.499 Y60.57 E1.44409
G1 X153.038 Y60.591 E1.45368
G1 X153.666 Y60.64 E1.46488
G1 X154.753 Y60.812 E1.48444
G1 X155.362 Y60.959 E1.49558
G1 X156.38 Y61.29 E1.5146
G1 X156.959 Y61.529 E1.52574
G1 X157.937 Y62.027 E1.54525
G1 X158.472 Y62.355 E1.5564
G1 X159.355 Y62.997 E1.57581
G1 X159.832 Y63.405 E1.58697
G1 X160.598 Y64.172 E1.60624
G1 X160.977 Y64.616 E1.61661
G1 X161.571 Y65.424 E1.63444
G1 X161.907 Y65.958 E1.64565
G1 X162.416 Y66.929 E1.66514
G1 X162.661 Y67.503 E1.67624
G1 X163.007 Y68.532 E1.69553
G1 X163.16 Y69.14 E1.70668
G1 X163.342 Y70.213 E1.72603
G1 X163.398 Y70.838 E1.73718
G1 X163.426 Y71.456 E1.74818
G1 X163.43 Y138.639 E2.94242
G1 X163.43 Y143.499 E3.02881
G1 X163.41 Y144.031 E3.03827
G1 X163.365 Y144.616 E3.0487
G1 X163.211 Y145.626 E3.06687
G1 X163.072 Y146.235 E3.07797
G1 X162.743 Y147.286 E3.09755
G1 X162.507 Y147.871 E3.10876
G1 X162.027 Y148.835 E3.1279
G1 X161.707 Y149.37 E3.13898
G1 X161.077 Y150.257 E3.15832
G1 X160.675 Y150.738 E3.16947
G1 X159.912 Y151.518 E3.18886
G1 X159.405 Y151.96 E3.20082
G1 X158.818 Y152.418 E3.21405
G1 X158.478 Y152.641 E3.22128
G1 X157.944 Y152.969 E3.23242
G1 X156.963 Y153.469 E3.25199
G1 X156.382 Y153.709 E3.26317
G1 X155.362 Y154.041 E3.28224
G1 X154.753 Y154.188 E3.29337
G1 X153.666 Y154.36 E3.31294
G1 X153.038 Y154.409 E3.32413
G1 X152.499 Y154.43 E3.33372
G1 X80.501 Y154.43 E4.61356
G1 X79.962 Y154.409 E4.62314
G1 X79.334 Y154.36 E4.63434
G1 X78.247 Y154.188 E4.6539
G1 X77.638 Y154.041 E4.66504
G1 X76.618 Y153.709 E4.68411
G1 X76.037 Y153.469 E4.69528
G1 X75.056 Y152.969 E4.71486
G1 X74.522 Y152.641 E4.726
G1 X73.644 Y152.002 E4.7453
G1 X73.166 Y151.593 E4.75648
G1 X72.398 Y150.824 E4.7758
G1 X72.021 Y150.382 E4.78613
G1 X71.429 Y149.576 E4.8039
G1 X71.093 Y149.042 E4.81512
G1 X70.583 Y148.069 E4.83465
G1 X70.337 Y147.492 E4.8458
G1 X69.991 Y146.463 E4.8651
G1 X69.839 Y145.858 E4.87618
G1 X69.658 Y144.787 E4.89549
G1 X69.602 Y144.162 E4.90665
G1 X69.574 Y143.544 E4.91764
G1 X69.57 Y76.361 E6.11189
G1 X69.57 Y71.501 E6.19828
G1 X69.59 Y70.969 E6.20774
G1 X69.635 Y70.384 E6.21817
G1 X69.789 Y69.374 E6.23633
G1 X69.928 Y68.765 E6.24744
G1 X70.257 Y67.714 E6.26701
G1 X70.493 Y67.129 E6.27823
G1 X70.973 Y66.165 E6.29737
G1 X71.293 Y65.63 E6.30845
G1 X71.923 Y64.743 E6.32779
G1 X72.325 Y64.262 E6.33893
M204 S625
M205 X6 Y6
G0 F4285.7 X72.647 Y64.531
M204 S500
M205 X5 Y5
G1 F1200 X73.363 Y63.8 E6.35712
G1 X73.871 Y63.357 E6.3691
G1 X74.44 Y62.913 E6.38193
G1 X74.746 Y62.714 E6.38842
G1 X75.279 Y62.387 E6.39954
G1 X76.198 Y61.919 E6.41787
G1 X76.779 Y61.679 E6.42904
G1 X77.736 Y61.368 E6.44693
G1 X78.345 Y61.221 E6.45807
G1 X79.367 Y61.059 E6.47646
G1 X79.995 Y61.01 E6.48766
G1 X80.501 Y60.99 E6.49666
G1 X152.499 Y60.99 E7.7765
G1 X153.005 Y61.01 E7.7855
G1 X153.633 Y61.059 E7.79669
G1 X154.655 Y61.221 E7.81509
G1 X155.264 Y61.368 E7.82623
G1 X156.22 Y61.679 E7.8441
G1 X156.799 Y61.918 E7.85523
G1 X157.718 Y62.385 E7.87355
G1 X158.253 Y62.713 E7.88471
G1 X159.082 Y63.316 E7.90293
G1 X159.559 Y63.724 E7.91409
G1 X160.278 Y64.444 E7.93218
G1 X160.657 Y64.888 E7.94255
G1 X161.216 Y65.648 E7.95933
G1 X161.552 Y66.182 E7.97054
G1 X162.029 Y67.093 E7.98882
G1 X162.274 Y67.667 E7.99991
G1 X162.6 Y68.634 E8.01805
G1 X162.753 Y69.242 E8.0292
G1 X162.924 Y70.25 E8.04737
G1 X162.98 Y70.875 E8.05853
G1 X163.006 Y71.456 E8.06887
G1 X163.01 Y138.639 E9.26311
G1 X163.01 Y143.499 E9.3495
G1 X162.991 Y143.998 E9.35838
G1 X162.946 Y144.583 E9.36881
G1 X162.802 Y145.533 E9.38589
G1 X162.663 Y146.142 E9.39699
G1 X162.353 Y147.129 E9.41538
G1 X162.117 Y147.714 E9.42659
G1 X161.667 Y148.62 E9.44458
G1 X161.347 Y149.155 E9.45566
G1 X160.755 Y149.988 E9.47382
G1 X160.353 Y150.469 E9.48497
G1 X159.636 Y151.201 E9.50318
G1 X159.129 Y151.643 E9.51514
G1 X158.258 Y152.283 E9.53435
G1 X157.724 Y152.611 E9.54549
G1 X156.802 Y153.081 E9.56389
G1 X156.221 Y153.321 E9.57506
G1 X155.264 Y153.632 E9.59295
G1 X154.655 Y153.779 E9.60408
G1 X153.633 Y153.941 E9.62248
G1 X153.005 Y153.99 E9.63368
G1 X152.499 Y154.01 E9.64268
G1 X80.501 Y154.01 E10.92251
G1 X79.995 Y153.99 E10.93151
G1 X79.367 Y153.941 E10.94271
G1 X78.345 Y153.779 E10.9611
G1 X77.736 Y153.632 E10.97224
G1 X76.779 Y153.321 E10.99013
G1 X76.198 Y153.081 E11.0013
G1 X75.276 Y152.611 E11.0197
G1 X74.742 Y152.283 E11.03084
G1 X73.917 Y151.682 E11.04898
G1 X73.439 Y151.273 E11.06017
G1 X72.718 Y150.552 E11.07829
G1 X72.341 Y150.11 E11.08862
G1 X71.784 Y149.352 E11.10534
G1 X71.448 Y148.818 E11.11655
G1 X70.97 Y147.904 E11.13489
G1 X70.724 Y147.327 E11.14604
G1 X70.398 Y146.36 E11.16418
G1 X70.246 Y145.755 E11.17527
G1 X70.076 Y144.75 E11.19339
G1 X70.02 Y144.125 E11.20454
G1 X69.994 Y143.544 E11.21488
G1 X69.99 Y76.361 E12.40912
G1 X69.99 Y71.501 E12.49551
G1 X70.009 Y71.002 E12.50439
G1 X70.054 Y70.417 E12.51482
G1 X70.198 Y69.467 E12.5319
G1 X70.337 Y68.858 E12.543
G1 X70.647 Y67.871 E12.56139
G1 X70.883 Y67.286 E12.57261
G1 X71.333 Y66.38 E12.59059
G1 X71.653 Y65.845 E12.60167
G1 X72.245 Y65.012 E12.61984
G1 X72.647 Y64.531 E12.63098
M204 S625
M205 X6 Y6
G0 F4285.7 X72.969 Y64.801
M204 S500
M205 X5 Y5
G1 F1200 X73.639 Y64.116 E12.64801
G1 X74.147 Y63.673 E12.65999
G1 X74.965 Y63.072 E12.67804
G1 X75.498 Y62.745 E12.68915
G1 X76.358 Y62.307 E12.70631
G1 X76.939 Y62.067 E12.71748
G1 X77.835 Y61.776 E12.73423
G1 X78.444 Y61.629 E12.74537
G1 X79.399 Y61.477 E12.76256
G1 X80.027 Y61.428 E12.77375
G1 X80.501 Y61.41 E12.78218
G1 X152.499 Y61.41 E14.06202
G1 X152.973 Y61.428 E14.07045
G1 X153.601 Y61.477 E14.08165
G1 X154.556 Y61.629 E14.09884
G1 X155.165 Y61.776 E14.10997
G1 X156.06 Y62.067 E14.1267
G1 X156.639 Y62.306 E14.13784
G1 X157.498 Y62.743 E14.15497
G1 X158.033 Y63.071 E14.16613
G1 X158.809 Y63.635 E14.18318
G1 X159.286 Y64.043 E14.19434
G1 X159.959 Y64.717 E14.21127
G1 X160.338 Y65.161 E14.22164
G1 X160.861 Y65.872 E14.23733
G1 X161.197 Y66.406 E14.24855
G1 X161.643 Y67.258 E14.26564
G1 X161.888 Y67.832 E14.27674
G1 X162.193 Y68.737 E14.29371
G1 X162.346 Y69.345 E14.30486
G1 X162.506 Y70.288 E14.32186
G1 X162.562 Y70.913 E14.33302
G1 X162.586 Y71.456 E14.34268
G1 X162.59 Y138.639 E15.53692
G1 X162.59 Y143.499 E15.62331
G1 X162.572 Y143.966 E15.63162
G1 X162.527 Y144.551 E15.64205
G1 X162.392 Y145.439 E15.65802
G1 X162.253 Y146.048 E15.66912
G1 X161.964 Y146.971 E15.68631
G1 X161.728 Y147.556 E15.69753
G1 X161.306 Y148.404 E15.71436
G1 X160.986 Y148.939 E15.72544
G1 X160.433 Y149.718 E15.74243
G1 X160.031 Y150.199 E15.75357
G1 X159.36 Y150.884 E15.77061
G1 X158.853 Y151.326 E15.78257
G1 X158.038 Y151.925 E15.80055
G1 X157.504 Y152.253 E15.81169
G1 X156.642 Y152.693 E15.82889
G1 X156.061 Y152.933 E15.84007
G1 X155.165 Y153.224 E15.85681
G1 X154.556 Y153.371 E15.86795
G1 X153.601 Y153.523 E15.88514
G1 X152.973 Y153.572 E15.89634
G1 X152.499 Y153.59 E15.90477
G1 X80.501 Y153.59 E17.1846
G1 X80.027 Y153.572 E17.19304
G1 X79.399 Y153.523 E17.20423
G1 X78.444 Y153.371 E17.22142
G1 X77.835 Y153.224 E17.23256
G1 X76.939 Y152.933 E17.24931
G1 X76.358 Y152.693 E17.26048
G1 X75.496 Y152.253 E17.27768
G1 X74.962 Y151.925 E17.28882
G1 X74.19 Y151.363 E17.3058
G1 X73.712 Y150.954 E17.31698
G1 X73.038 Y150.279 E17.33394
G1 X72.661 Y149.837 E17.34426
G1 X72.139 Y149.128 E17.35991
G1 X71.803 Y148.594 E17.37113
G1 X71.356 Y147.739 E17.38828
G1 X71.11 Y147.162 E17.39943
G1 X70.806 Y146.258 E17.41638
G1 X70.654 Y145.653 E17.42747
G1 X70.494 Y144.712 E17.44444
G1 X70.438 Y144.087 E17.45559
G1 X70.414 Y143.544 E17.46526
G1 X70.41 Y76.361 E18.6595
G1 X70.41 Y71.501 E18.74589
G1 X70.428 Y71.034 E18.7542
G1 X70.473 Y70.449 E18.76463
G1 X70.608 Y69.561 E18.78059
G1 X70.747 Y68.952 E18.7917
G1 X71.036 Y68.029 E18.80889
G1 X71.272 Y67.444 E18.8201
G1 X71.694 Y66.596 E18.83694
G1 X72.014 Y66.061 E18.84802
G1 X72.567 Y65.282 E18.86501
G1 X72.969 Y64.801 E18.87615
M204 S625
M205 X6 Y6
G0 F4285.7 X73.291 Y65.07
M204 S500
M205 X5 Y5
G1 F1200 X73.915 Y64.433 E18.892
G1 X74.423 Y63.99 E18.90398
G1 X75.185 Y63.43 E18.92079
G1 X75.718 Y63.103 E18.93191
G1 X76.518 Y62.696 E18.94786
G1 X77.099 Y62.456 E18.95904
G1 X77.934 Y62.184 E18.97465
G1 X78.543 Y62.037 E18.98578
G1 X79.432 Y61.896 E19.00178
G1 X80.06 Y61.847 E19.01298
G1 X80.501 Y61.83 E19.02083
G1 X152.499 Y61.83 E20.30066
G1 X152.94 Y61.847 E20.30851
G1 X153.568 Y61.896 E20.3197
G1 X154.457 Y62.037 E20.3357
G1 X155.066 Y62.184 E20.34684
G1 X155.899 Y62.455 E20.36241
G1 X156.478 Y62.694 E20.37355
G1 X157.279 Y63.101 E20.38952
G1 X157.814 Y63.429 E20.40067
G1 X158.536 Y63.954 E20.41654
G1 X159.013 Y64.362 E20.4277
G1 X159.64 Y64.99 E20.44347
G1 X160.019 Y65.434 E20.45385
G1 X160.505 Y66.095 E20.46843
G1 X160.841 Y66.629 E20.47965
G1 X161.257 Y67.423 E20.49558
G1 X161.502 Y67.997 E20.50668
G1 X161.786 Y68.839 E20.52247
G1 X161.939 Y69.447 E20.53362
G1 X162.087 Y70.325 E20.54944
G1 X162.143 Y70.95 E20.5606
G1 X162.166 Y71.456 E20.5696
G1 X162.17 Y138.639 E21.76385
G1 X162.17 Y143.499 E21.85024
G1 X162.153 Y143.934 E21.85798
G1 X162.108 Y144.519 E21.86841
G1 X161.983 Y145.346 E21.88327
G1 X161.844 Y145.955 E21.89438
G1 X161.574 Y146.814 E21.91038
G1 X161.338 Y147.399 E21.9216
G1 X160.946 Y148.189 E21.93727
G1 X160.626 Y148.724 E21.94836
G1 X160.111 Y149.449 E21.96416
G1 X159.709 Y149.93 E21.97531
G1 X159.084 Y150.568 E21.99118
G1 X158.577 Y151.01 E22.00314
G1 X157.819 Y151.567 E22.01986
G1 X157.285 Y151.895 E22.031
G1 X156.482 Y152.304 E22.04702
G1 X155.901 Y152.544 E22.05819
G1 X155.066 Y152.816 E22.0738
G1 X154.457 Y152.963 E22.08494
G1 X153.568 Y153.104 E22.10094
G1 X152.94 Y153.153 E22.11214
G1 X152.499 Y153.17 E22.11998
G1 X80.501 Y153.17 E23.39982
G1 X80.06 Y153.153 E23.40766
G1 X79.432 Y153.104 E23.41886
G1 X78.543 Y152.963 E23.43486
G1 X77.934 Y152.816 E23.446
G1 X77.099 Y152.544 E23.46161
G1 X76.518 Y152.304 E23.47278
G1 X75.715 Y151.895 E23.4888
G1 X75.181 Y151.567 E23.49994
G1 X74.463 Y151.044 E23.51573
G1 X73.985 Y150.635 E23.52691
G1 X73.357 Y150.007 E23.5427
G1 X72.98 Y149.565 E23.55303
G1 X72.495 Y148.905 E23.56759
G1 X72.159 Y148.371 E23.5788
G1 X71.742 Y147.575 E23.59478
G1 X71.496 Y146.998 E23.60593
G1 X71.213 Y146.156 E23.62172
G1 X71.061 Y145.551 E23.63281
G1 X70.913 Y144.675 E23.6486
G1 X70.857 Y144.05 E23.65975
G1 X70.834 Y143.544 E23.66876
G1 X70.83 Y76.361 E24.863
G1 X70.83 Y71.501 E24.94939
G1 X70.847 Y71.066 E24.95713
G1 X70.892 Y70.481 E24.96756
G1 X71.017 Y69.654 E24.98243
G1 X71.156 Y69.045 E24.99353
G1 X71.426 Y68.186 E25.00954
G1 X71.662 Y67.601 E25.02075
G1 X72.054 Y66.811 E25.03643
G1 X72.374 Y66.276 E25.04751
G1 X72.889 Y65.551 E25.06332
G1 X73.291 Y65.07 E25.07446
M204 S625
M205 X6 Y6
G0 F4285.7 X73.614 Y65.339
M204 S500
M205 X5 Y5
G1 F1200 X74.191 Y64.749 E25.08913
G1 X74.699 Y64.306 E25.10111
G1 X75.405 Y63.788 E25.11668
G1 X75.938 Y63.461 E25.12779
G1 X76.679 Y63.084 E25.14257
G1 X77.26 Y62.844 E25.15374
G1 X78.032 Y62.593 E25.16817
G1 X78.641 Y62.446 E25.17931
G1 X79.465 Y62.315 E25.19414
G1 X80.093 Y62.266 E25.20534
G1 X80.501 Y62.25 E25.2126
G1 X152.499 Y62.25 E26.49243
G1 X152.907 Y62.266 E26.49969
G1 X153.535 Y62.315 E26.51089
G1 X154.359 Y62.446 E26.52572
G1 X154.968 Y62.593 E26.53686
G1 X155.739 Y62.843 E26.55126
G1 X156.318 Y63.082 E26.5624
G1 X157.059 Y63.459 E26.57718
G1 X157.594 Y63.787 E26.58833
G1 X158.263 Y64.273 E26.60303
G1 X158.74 Y64.681 E26.61419
G1 X159.32 Y65.262 E26.62878
G1 X159.699 Y65.706 E26.63916
G1 X160.15 Y66.319 E26.65269
G1 X160.486 Y66.853 E26.6639
G1 X160.871 Y67.588 E26.67865
G1 X161.116 Y68.162 E26.68975
G1 X161.378 Y68.942 E26.70437
G1 X161.531 Y69.55 E26.71552
G1 X161.669 Y70.362 E26.73016
G1 X161.725 Y70.987 E26.74131
G1 X161.746 Y71.456 E26.74966
G1 X161.75 Y138.639 E27.9439
G1 X161.75 Y143.499 E28.03029
G1 X161.735 Y143.902 E28.03746
G1 X161.69 Y144.487 E28.04789
G1 X161.573 Y145.252 E28.06165
G1 X161.434 Y145.861 E28.07275
G1 X161.185 Y146.657 E28.08758
G1 X160.949 Y147.242 E28.09879
G1 X160.586 Y147.973 E28.1133
G1 X160.266 Y148.508 E28.12438
G1 X159.788 Y149.18 E28.13904
G1 X159.386 Y149.661 E28.15018
G1 X158.808 Y150.251 E28.16486
G1 X158.301 Y150.693 E28.17682
G1 X157.599 Y151.21 E28.19232
G1 X157.065 Y151.538 E28.20346
G1 X156.321 Y151.916 E28.21829
G1 X155.74 Y152.156 E28.22947
G1 X154.968 Y152.407 E28.2439
G1 X154.359 Y152.554 E28.25503
G1 X153.535 Y152.685 E28.26987
G1 X152.907 Y152.734 E28.28106
G1 X152.499 Y152.75 E28.28832
G1 X80.501 Y152.75 E29.56816
G1 X80.093 Y152.734 E29.57541
G1 X79.465 Y152.685 E29.58661
G1 X78.641 Y152.554 E29.60144
G1 X78.032 Y152.407 E29.61258
G1 X77.26 Y152.156 E29.62701
G1 X76.679 Y151.916 E29.63818
G1 X75.935 Y151.538 E29.65302
G1 X75.401 Y151.21 E29.66416
G1 X74.736 Y150.725 E29.67879
G1 X74.258 Y150.316 E29.68997
G1 X73.677 Y149.734 E29.70459
G1 X73.3 Y149.292 E29.71492
G1 X72.85 Y148.681 E29.72841
G1 X72.514 Y148.147 E29.73962
G1 X72.129 Y147.41 E29.7544
G1 X71.883 Y146.833 E29.76555
G1 X71.62 Y146.053 E29.78018
G1 X71.468 Y145.448 E29.79127
G1 X71.331 Y144.638 E29.80588
G1 X71.275 Y144.013 E29.81703
G1 X71.254 Y143.544 E29.82537
G1 X71.25 Y76.361 E31.01962
G1 X71.25 Y71.501 E31.10601
G1 X71.265 Y71.098 E31.11318
G1 X71.31 Y70.513 E31.12361
G1 X71.427 Y69.748 E31.13736
G1 X71.566 Y69.139 E31.14847
G1 X71.815 Y68.343 E31.16329
G1 X72.051 Y67.758 E31.17451
G1 X72.414 Y67.027 E31.18902
G1 X72.734 Y66.492 E31.2001
G1 X73.212 Y65.82 E31.21476
G1 X73.614 Y65.339 E31.2259
M204 S625
M205 X6 Y6
G0 F4285.7 X73.936 Y65.609
M204 S500
M205 X5 Y5
G1 F1200 X74.468 Y65.066 E31.23941
G1 X74.976 Y64.623 E31.25139
G1 X75.624 Y64.146 E31.2657
G1 X76.157 Y63.819 E31.27681
G1 X76.839 Y63.472 E31.29042
G1 X77.42 Y63.232 E31.30159
G1 X78.131 Y63.001 E31.31488
G1 X78.74 Y62.854 E31.32601
G1 X79.497 Y62.734 E31.33964
G1 X80.125 Y62.685 E31.35084
G1 X80.501 Y62.67 E31.35753
G1 X152.499 Y62.67 E32.63736
G1 X152.875 Y62.685 E32.64405
G1 X153.503 Y62.734 E32.65525
G1 X154.26 Y62.854 E32.66887
G1 X154.869 Y63.001 E32.68001
G1 X155.579 Y63.231 E32.69327
G1 X156.158 Y63.47 E32.70441
G1 X156.84 Y63.817 E32.71801
G1 X157.375 Y64.145 E32.72917
G1 X157.99 Y64.593 E32.74269
G1 X158.467 Y65.001 E32.75385
G1 X159.001 Y65.535 E32.76727
G1 X159.38 Y65.979 E32.77765
G1 X159.794 Y66.543 E32.79009
G1 X160.13 Y67.077 E32.8013
G1 X160.484 Y67.753 E32.81487
G1 X160.729 Y68.327 E32.82596
G1 X160.971 Y69.044 E32.83941
G1 X161.124 Y69.652 E32.85056
G1 X161.251 Y70.4 E32.86404
G1 X161.307 Y71.025 E32.8752
G1 X161.326 Y71.456 E32.88287
G1 X161.33 Y138.639 E34.07711
G1 X161.33 Y143.499 E34.1635
G1 X161.316 Y143.869 E34.17008
G1 X161.271 Y144.454 E34.18051
G1 X161.164 Y145.159 E34.19319
G1 X161.025 Y145.768 E34.20429
G1 X160.795 Y146.5 E34.21793
G1 X160.559 Y147.085 E34.22915
G1 X160.225 Y147.757 E34.24249
G1 X159.905 Y148.292 E34.25357
G1 X159.466 Y148.91 E34.26704
G1 X159.064 Y149.391 E34.27818
G1 X158.532 Y149.935 E34.29171
G1 X158.025 Y150.377 E34.30367
