;START_OF_HEADER
;HEADER_VERSION:0.1
;FLAVOR:Griffin
;GENERATOR.NAME:Cura_SteamEngine
;GENERATOR.VERSION:4.1.0
;GENERATOR.BUILD_DATE:2019-05-28
;TARGET_MACHINE.NAME:Ultimaker 3 Extended
;EXTRUDER_TRAIN.0.INITIAL_TEMPERATURE:210
;EXTRUDER_TRAIN.0.MATERIAL.VOLUME_USED:18532
;EXTRUDER_TRAIN.0.MATERIAL.GUID:e509f649-9fe6-4b14-ac45-d441438cb4ef
;EXTRUDER_TRAIN.0.NOZZLE.DIAMETER:0.4
;EXTRUDER_TRAIN.0.NOZZLE.NAME:AA 0.4
;BUILD_PLATE.TYPE:glass
;BUILD_PLATE.INITIAL_TEMPERATURE:60
;BUILD_VOLUME.TEMPERATURE:35
;PRINT.TIME:6755
;PRINT.GROUPS:1
;PRINT.SIZE.MIN.X:9
;PRINT.SIZE.MIN.Y:6
;PRINT.SIZE.MIN.Z:0.27
;PRINT.SIZE.MAX.X:168.43
;PRINT.SIZE.MAX.Y:152.545
;PRINT.SIZE.MAX.Z:6.87
;END_OF_HEADER
;Generated with Cura_SteamEngine 4.1.0
T0
M82 ;absolute extrusion mode

G92 E0
M109 S210
G0 F15000 X9 Y6 Z2
G280
G1 F1500 E-6.5
;LAYER_COUNT:35
;LAYER:0
M107
M204 S625
M205 X6 Y6
G0 F4285.7 X67.739 Y65.564 Z0.27
M204 S500
M205 X5 Y5
;TYPE:SKIRT
G1 F1500 E0
G1 F1200 X68.172 Y65.15 E0.01065
G1 X68.974 Y64.491 E0.0291
G1 X69.456 Y64.152 E0.03958
G1 X70.311 Y63.638 E0.05731
G1 X70.838 Y63.371 E0.06781
G1 X71.814 Y62.967 E0.08659
G1 X72.37 Y62.785 E0.09699
G1 X73.332 Y62.545 E0.11461
G1 X73.915 Y62.443 E0.12513
G1 X74.654 Y62.354 E0.13836
G1 X75.077 Y62.339 E0.14589
G1 X79.158 Y62.32 E0.21843
G1 X157.5 Y62.32 E1.61104
G1 X158.007 Y62.339 E1.62006
G1 X158.593 Y62.382 E1.6305
G1 X159.609 Y62.532 E1.64876
G1 X160.186 Y62.662 E1.65927
G1 X161.159 Y62.958 E1.67735
G1 X161.708 Y63.17 E1.68781
G1 X162.625 Y63.604 E1.70585
G1 X163.134 Y63.892 E1.71624
G1 X163.987 Y64.462 E1.73448
G1 X164.453 Y64.826 E1.74499
G1 X165.2 Y65.503 E1.76291
G1 X165.597 Y65.919 E1.77313
G1 X166.247 Y66.708 E1.7913
G1 X166.587 Y67.19 E1.80179
G1 X167.103 Y68.048 E1.81959
G1 X167.37 Y68.574 E1.83007
G1 X167.765 Y69.52 E1.8483
G1 X167.95 Y70.075 E1.85869
G1 X168.2 Y71.06 E1.87676
G1 X168.303 Y71.643 E1.88728
G1 X168.393 Y72.382 E1.90052
G1 X168.409 Y72.808 E1.90809
G1 X168.43 Y76.337 E1.97083
G1 X168.43 Y145.614 E3.20229
G1 X168.39 Y146.357 E3.21552
G1 X168.271 Y147.092 E3.22876
G1 X168.073 Y147.81 E3.24199
G1 X167.8 Y148.502 E3.25522
G1 X167.454 Y149.161 E3.26845
G1 X167.039 Y149.779 E3.28168
G1 X166.56 Y150.349 E3.29492
G1 X166.023 Y150.864 E3.30814
G1 X165.434 Y151.319 E3.32137
G1 X164.8 Y151.708 E3.3346
G1 X164.127 Y152.027 E3.34783
G1 X163.424 Y152.272 E3.36107
G1 X162.699 Y152.44 E3.3743
G1 X161.96 Y152.529 E3.38753
G1 X161.504 Y152.544 E3.39564
G1 X159.695 Y152.545 E3.4278
G1 X159.691 Y152.545 E3.42787
G1 X73.314 Y152.544 E4.9633
G1 X71.504 Y152.545 E4.99548
G1 X70.761 Y152.505 E5.0087
G1 X70.026 Y152.386 E5.02194
G1 X69.308 Y152.189 E5.03517
G1 X68.616 Y151.916 E5.0484
G1 X67.957 Y151.571 E5.06162
G1 X67.338 Y151.156 E5.07487
G1 X66.768 Y150.678 E5.08809
G1 X66.252 Y150.141 E5.10133
G1 X65.797 Y149.552 E5.11456
G1 X65.408 Y148.918 E5.12778
G1 X65.089 Y148.245 E5.14102
G1 X64.843 Y147.543 E5.15424
G1 X64.675 Y146.818 E5.16747
G1 X64.586 Y146.079 E5.1807
G1 X64.57 Y145.615 E5.18896
G1 X64.57 Y73.25 E6.47532
G1 X64.587 Y72.758 E6.48407
G1 X64.628 Y72.182 E6.49433
G1 X64.777 Y71.166 E6.51258
G1 X64.905 Y70.592 E6.52304
G1 X65.194 Y69.63 E6.54089
G1 X65.405 Y69.077 E6.55142
G1 X65.841 Y68.148 E6.56966
G1 X66.128 Y67.638 E6.58006
G1 X66.697 Y66.782 E6.59833
G1 X67.058 Y66.318 E6.60878
G1 X67.739 Y65.564 E6.62684
M204 S625
M205 X6 Y6
G0 F4285.7 X68.029 Y65.868
M204 S500
M205 X5 Y5
G1 F1200 X68.462 Y65.454 E6.63749
G1 X69.216 Y64.834 E6.65484
G1 X69.698 Y64.495 E6.66532
G1 X70.501 Y64.013 E6.68197
G1 X71.028 Y63.746 E6.69247
G1 X71.945 Y63.366 E6.71011
G1 X72.501 Y63.184 E6.72051
G1 X73.404 Y62.958 E6.73706
G1 X73.987 Y62.856 E6.74758
G1 X74.703 Y62.772 E6.7604
G1 X75.079 Y62.759 E6.76708
G1 X79.16 Y62.74 E6.83963
G1 X157.5 Y62.74 E8.2322
G1 X157.976 Y62.757 E8.24066
G1 X158.562 Y62.8 E8.25111
G1 X159.517 Y62.942 E8.26827
G1 X160.094 Y63.072 E8.27879
G1 X161.008 Y63.35 E8.29577
G1 X161.557 Y63.562 E8.30623
G1 X162.418 Y63.969 E8.32316
G1 X162.927 Y64.257 E8.33355
G1 X163.728 Y64.793 E8.35069
G1 X164.194 Y65.157 E8.3612
G1 X164.897 Y65.793 E8.37805
G1 X165.294 Y66.209 E8.38827
G1 X165.904 Y66.951 E8.40535
G1 X166.244 Y67.433 E8.41583
G1 X166.729 Y68.238 E8.43254
G1 X166.996 Y68.764 E8.44302
G1 X167.367 Y69.652 E8.46013
G1 X167.552 Y70.207 E8.47053
G1 X167.787 Y71.133 E8.48751
G1 X167.89 Y71.716 E8.49804
G1 X167.976 Y72.433 E8.51087
G1 X167.989 Y72.81 E8.51758
G1 X168.01 Y76.339 E8.58031
G1 X168.01 Y145.614 E9.81174
G1 X167.97 Y146.334 E9.82456
G1 X167.851 Y147.046 E9.83739
G1 X167.653 Y147.74 E9.85022
G1 X167.38 Y148.407 E9.86303
G1 X167.035 Y149.041 E9.87586
G1 X166.622 Y149.632 E9.88868
G1 X166.146 Y150.174 E9.9015
G1 X165.613 Y150.66 E9.91432
G1 X165.029 Y151.084 E9.92715
G1 X164.402 Y151.441 E9.93998
G1 X163.74 Y151.727 E9.9528
G1 X163.05 Y151.937 E9.96562
G1 X162.341 Y152.069 E9.97844
G1 X161.504 Y152.124 E9.99335
G1 X159.695 Y152.125 E10.0255
G1 X159.691 Y152.125 E10.02558
G1 X73.314 Y152.124 E11.56101
G1 X71.504 Y152.125 E11.59319
G1 X70.783 Y152.085 E11.60602
G1 X70.072 Y151.966 E11.61884
G1 X69.378 Y151.769 E11.63166
G1 X68.71 Y151.497 E11.64448
G1 X68.076 Y151.152 E11.65731
G1 X67.485 Y150.739 E11.67013
G1 X66.942 Y150.263 E11.68296
G1 X66.456 Y149.731 E11.69577
G1 X66.032 Y149.147 E11.7086
G1 X65.674 Y148.521 E11.72142
G1 X65.389 Y147.858 E11.73425
G1 X65.178 Y147.168 E11.74708
G1 X65.045 Y146.459 E11.7599
G1 X64.99 Y145.615 E11.77493
G1 X64.99 Y73.25 E13.06129
G1 X65.006 Y72.788 E13.06951
G1 X65.047 Y72.212 E13.07977
G1 X65.187 Y71.257 E13.09693
G1 X65.315 Y70.683 E13.10739
G1 X65.587 Y69.779 E13.12417
G1 X65.798 Y69.226 E13.13469
G1 X66.207 Y68.354 E13.15181
G1 X66.494 Y67.844 E13.16221
G1 X67.029 Y67.039 E13.17939
G1 X67.39 Y66.575 E13.18984
G1 X68.029 Y65.868 E13.20678
M204 S625
M205 X6 Y6
G0 F4285.7 X68.319 Y66.171
M204 S500
M205 X5 Y5
G1 F1200 X68.752 Y65.757 E13.21743
G1 X69.458 Y65.178 E13.23366
G1 X69.94 Y64.839 E13.24414
G1 X70.691 Y64.387 E13.25972
G1 X71.218 Y64.12 E13.27022
G1 X72.075 Y63.765 E13.28671
G1 X72.631 Y63.583 E13.29711
G1 X73.476 Y63.372 E13.31259
G1 X74.059 Y63.27 E13.32311
G1 X75.081 Y63.179 E13.34135
G1 X79.162 Y63.16 E13.4139
G1 X157.5 Y63.16 E14.80643
G1 X157.946 Y63.176 E14.81436
G1 X158.532 Y63.219 E14.82481
G1 X159.425 Y63.352 E14.84086
G1 X160.002 Y63.482 E14.85137
G1 X160.857 Y63.742 E14.86726
G1 X161.406 Y63.954 E14.87772
G1 X162.211 Y64.335 E14.89355
G1 X162.72 Y64.623 E14.90395
G1 X163.47 Y65.124 E14.91998
G1 X163.936 Y65.488 E14.93049
G1 X164.593 Y66.083 E14.94625
G1 X164.99 Y66.499 E14.95647
G1 X165.56 Y67.193 E14.97243
G1 X165.9 Y67.675 E14.98292
G1 X166.354 Y68.428 E14.99855
G1 X166.621 Y68.954 E15.00903
G1 X166.968 Y69.785 E15.02504
G1 X167.153 Y70.34 E15.03544
G1 X167.373 Y71.206 E15.05132
G1 X167.476 Y71.789 E15.06185
G1 X167.569 Y72.813 E15.08012
G1 X167.59 Y76.342 E15.14286
G1 X167.59 Y145.614 E16.37423
G1 X167.55 Y146.311 E16.38664
G1 X167.431 Y146.998 E16.39904
G1 X167.233 Y147.667 E16.41144
G1 X166.961 Y148.31 E16.42385
G1 X166.617 Y148.916 E16.43624
G1 X166.205 Y149.48 E16.44865
G1 X165.732 Y149.993 E16.46106
G1 X165.204 Y150.448 E16.47345
G1 X164.627 Y150.84 E16.48585
G1 X164.008 Y151.163 E16.49826
G1 X163.357 Y151.414 E16.51066
G1 X162.681 Y151.588 E16.52307
G1 X161.99 Y151.684 E16.53547
G1 X161.503 Y151.704 E16.54413
G1 X159.694 Y151.705 E16.57629
G1 X159.691 Y151.705 E16.57634
G1 X73.313 Y151.704 E18.1118
G1 X71.503 Y151.705 E18.14397
G1 X70.807 Y151.665 E18.15636
G1 X70.119 Y151.546 E18.16878
G1 X69.45 Y151.35 E18.18117
G1 X68.807 Y151.077 E18.19359
G1 X68.2 Y150.734 E18.20598
G1 X67.637 Y150.323 E18.21837
G1 X67.123 Y149.85 E18.23079
G1 X66.668 Y149.321 E18.24319
G1 X66.276 Y148.744 E18.25559
G1 X65.952 Y148.126 E18.26799
G1 X65.701 Y147.475 E18.2804
G1 X65.526 Y146.8 E18.29279
G1 X65.43 Y146.109 E18.30519
G1 X65.41 Y145.615 E18.31398
G1 X65.41 Y73.25 E19.60034
G1 X65.425 Y72.818 E19.60802
G1 X65.466 Y72.242 E19.61829
G1 X65.597 Y71.349 E19.63433
G1 X65.725 Y70.775 E19.64479
G1 X65.979 Y69.929 E19.66049
G1 X66.19 Y69.376 E19.67101
G1 X66.573 Y68.56 E19.68703
G1 X66.86 Y68.05 E19.69744
G1 X67.36 Y67.297 E19.7135
G1 X67.721 Y66.833 E19.72395
G1 X68.319 Y66.171 E19.73981
M204 S625
M205 X6 Y6
G0 F4285.7 X68.61 Y66.475
M204 S500
M205 X5 Y5
G1 F1200 X69.043 Y66.061 E19.75046
G1 X69.699 Y65.521 E19.76556
G1 X70.181 Y65.182 E19.77604
G1 X70.88 Y64.762 E19.79054
G1 X71.407 Y64.495 E19.80104
G1 X72.206 Y64.164 E19.81641
G1 X72.762 Y63.982 E19.82681
G1 X73.549 Y63.786 E19.84123
G1 X74.132 Y63.684 E19.85175
G1 X75.083 Y63.599 E19.86872
G1 X79.164 Y63.58 E19.94126
G1 X157.5 Y63.58 E21.33376
G1 X157.915 Y63.595 E21.34115
G1 X158.501 Y63.638 E21.35159
G1 X159.332 Y63.762 E21.36653
G1 X159.909 Y63.892 E21.37704
G1 X160.706 Y64.134 E21.39185
G1 X161.255 Y64.346 E21.40231
G1 X162.004 Y64.7 E21.41703
G1 X162.513 Y64.988 E21.42743
G1 X163.211 Y65.455 E21.44236
G1 X163.677 Y65.819 E21.45287
G1 X164.289 Y66.372 E21.46753
G1 X164.686 Y66.788 E21.47775
G1 X165.217 Y67.435 E21.49263
G1 X165.557 Y67.917 E21.50312
G1 X165.98 Y68.619 E21.51769
G1 X166.247 Y69.145 E21.52817
G1 X166.57 Y69.918 E21.54306
G1 X166.755 Y70.473 E21.55346
G1 X166.96 Y71.28 E21.56826
G1 X167.063 Y71.863 E21.57879
G1 X167.149 Y72.815 E21.59578
G1 X167.17 Y76.344 E21.65851
G1 X167.17 Y145.614 E22.88985
G1 X167.13 Y146.286 E22.90182
G1 X167.011 Y146.949 E22.91379
G1 X166.814 Y147.592 E22.92575
G1 X166.542 Y148.208 E22.93772
G1 X166.199 Y148.787 E22.94968
G1 X165.79 Y149.322 E22.96165
G1 X165.32 Y149.804 E22.97362
G1 X164.796 Y150.227 E22.98559
G1 X164.226 Y150.586 E22.99756
G1 X163.618 Y150.874 E23.00952
G1 X162.98 Y151.088 E23.02149
G1 X162.32 Y151.224 E23.03346
G1 X161.503 Y151.284 E23.04803
G1 X159.694 Y151.285 E23.08018
G1 X159.691 Y151.285 E23.08024
G1 X73.313 Y151.284 E24.61569
G1 X71.503 Y151.285 E24.64786
G1 X70.831 Y151.245 E24.65983
G1 X70.168 Y151.126 E24.6718
G1 X69.525 Y150.93 E24.68375
G1 X68.909 Y150.658 E24.69572
G1 X68.329 Y150.316 E24.70769
G1 X67.794 Y149.907 E24.71966
G1 X67.312 Y149.437 E24.73163
G1 X66.888 Y148.914 E24.7436
G1 X66.53 Y148.344 E24.75556
G1 X66.242 Y147.736 E24.76752
G1 X66.027 Y147.098 E24.77949
G1 X65.89 Y146.438 E24.79147
G1 X65.83 Y145.615 E24.80614
G1 X65.83 Y73.25 E26.0925
G1 X65.844 Y72.847 E26.09967
G1 X65.885 Y72.271 E26.10993
G1 X66.007 Y71.44 E26.12486
G1 X66.135 Y70.866 E26.13532
G1 X66.372 Y70.079 E26.14993
G1 X66.583 Y69.526 E26.16045
G1 X66.939 Y68.766 E26.17537
G1 X67.226 Y68.256 E26.18577
G1 X67.692 Y67.555 E26.20073
G1 X68.053 Y67.091 E26.21118
G1 X68.61 Y66.475 E26.22595
M204 S625
M205 X6 Y6
G0 F4285.7 X68.9 Y66.778
M204 S500
M205 X5 Y5
G1 F1200 X69.333 Y66.364 E26.23659
G1 X69.941 Y65.865 E26.25058
G1 X70.423 Y65.526 E26.26105
G1 X71.07 Y65.137 E26.27447
G1 X71.597 Y64.87 E26.28497
G1 X72.337 Y64.564 E26.29921
G1 X72.893 Y64.382 E26.30961
G1 X73.621 Y64.2 E26.32295
G1 X74.204 Y64.098 E26.33347
G1 X75.085 Y64.019 E26.34919
G1 X79.166 Y64 E26.42173
G1 X157.5 Y64 E27.8142
G1 X157.884 Y64.014 E27.82103
G1 X158.47 Y64.057 E27.83147
G1 X159.24 Y64.171 E27.84531
G1 X159.817 Y64.301 E27.85582
G1 X160.554 Y64.525 E27.86952
G1 X161.103 Y64.737 E27.87998
G1 X161.797 Y65.066 E27.89363
G1 X162.306 Y65.354 E27.90403
G1 X162.953 Y65.786 E27.91786
G1 X163.419 Y66.15 E27.92837
G1 X163.985 Y66.662 E27.94193
G1 X164.382 Y67.078 E27.95216
G1 X164.874 Y67.677 E27.96593
G1 X165.214 Y68.159 E27.97642
G1 X165.605 Y68.809 E27.9899
G1 X165.872 Y69.335 E28.00039
G1 X166.172 Y70.051 E28.01419
G1 X166.357 Y70.606 E28.02459
G1 X166.546 Y71.353 E28.03829
G1 X166.649 Y71.936 E28.04881
G1 X166.729 Y72.818 E28.06455
G1 X166.75 Y76.347 E28.12728
G1 X166.75 Y145.614 E29.35857
G1 X166.71 Y146.261 E29.3701
G1 X166.591 Y146.897 E29.3816
G1 X166.394 Y147.514 E29.39311
G1 X166.123 Y148.103 E29.40464
G1 X165.781 Y148.653 E29.41615
G1 X165.374 Y149.157 E29.42766
G1 X164.908 Y149.607 E29.43918
G1 X164.391 Y149.996 E29.45068
G1 X163.829 Y150.319 E29.4622
G1 X163.232 Y150.57 E29.47372
G1 X162.608 Y150.746 E29.48524
G1 X161.968 Y150.843 E29.49675
G1 X161.503 Y150.864 E29.50502
G1 X159.694 Y150.865 E29.53718
G1 X159.691 Y150.865 E29.53723
G1 X73.313 Y150.864 E31.07268
G1 X71.503 Y150.865 E31.10486
G1 X70.856 Y150.825 E31.11638
G1 X70.22 Y150.706 E31.12788
G1 X69.602 Y150.51 E31.13941
G1 X69.014 Y150.239 E31.15092
G1 X68.463 Y149.898 E31.16244
G1 X67.959 Y149.491 E31.17395
G1 X67.509 Y149.026 E31.18545
G1 X67.119 Y148.508 E31.19698
G1 X66.796 Y147.947 E31.20849
G1 X66.545 Y147.35 E31.22
G1 X66.369 Y146.726 E31.23152
G1 X66.271 Y146.086 E31.24303
G1 X66.25 Y145.615 E31.25141
G1 X66.25 Y73.25 E32.53777
G1 X66.263 Y72.877 E32.54441
G1 X66.304 Y72.301 E32.55467
G1 X66.417 Y71.531 E32.56851
G1 X66.545 Y70.957 E32.57896
G1 X66.764 Y70.228 E32.59249
G1 X66.975 Y69.675 E32.60301
G1 X67.305 Y68.972 E32.61682
G1 X67.592 Y68.462 E32.62722
G1 X68.023 Y67.813 E32.64107
G1 X68.384 Y67.349 E32.65152
G1 X68.9 Y66.778 E32.6652
M204 S625
M205 X6 Y6
G0 F4285.7 X69.19 Y67.082
M204 S500
M205 X5 Y5
G1 F1200 X69.623 Y66.668 E32.67585
G1 X70.182 Y66.208 E32.68872
G1 X70.664 Y65.869 E32.69919
G1 X71.26 Y65.511 E32.71155
G1 X71.787 Y65.244 E32.72205
G1 X72.467 Y64.963 E32.73513
G1 X73.023 Y64.781 E32.74553
G1 X73.694 Y64.613 E32.75783
G1 X74.277 Y64.511 E32.76835
G1 X75.087 Y64.439 E32.7828
G1 X79.168 Y64.42 E32.85535
G1 X157.5 Y64.42 E34.24778
G1 X157.853 Y64.433 E34.25405
G1 X158.439 Y64.476 E34.2645
G1 X159.148 Y64.581 E34.27724
G1 X159.725 Y64.711 E34.28775
G1 X160.403 Y64.917 E34.30035
G1 X160.952 Y65.129 E34.31081
G1 X161.591 Y65.431 E34.32338
G1 X162.1 Y65.719 E34.33377
G1 X162.694 Y66.117 E34.34648
G1 X163.16 Y66.481 E34.35699
G1 X163.681 Y66.952 E34.36948
G1 X164.078 Y67.368 E34.3797
G1 X164.531 Y67.919 E34.39238
G1 X164.871 Y68.401 E34.40286
G1 X165.231 Y68.999 E34.41527
G1 X165.498 Y69.525 E34.42576
G1 X165.773 Y70.184 E34.43845
G1 X165.958 Y70.739 E34.44885
G1 X166.132 Y71.426 E34.46145
G1 X166.235 Y72.009 E34.47197
G1 X166.309 Y72.82 E34.48645
G1 X166.33 Y76.349 E34.54918
G1 X166.33 Y145.614 E35.78043
G1 X166.29 Y146.234 E35.79148
G1 X166.171 Y146.844 E35.80252
G1 X165.974 Y147.433 E35.81357
G1 X165.704 Y147.992 E35.8246
G1 X165.364 Y148.512 E35.83564
G1 X164.96 Y148.984 E35.84669
G1 X164.498 Y149.401 E35.85775
G1 X163.988 Y149.754 E35.86878
G1 X163.436 Y150.039 E35.87982
G1 X162.851 Y150.251 E35.89088
G1 X162.245 Y150.386 E35.90192
G1 X161.503 Y150.444 E35.91515
G1 X159.694 Y150.445 E35.9473
G1 X159.691 Y150.445 E35.94736
G1 X73.313 Y150.444 E37.48281
G1 X71.503 Y150.445 E37.51498
G1 X70.883 Y150.405 E37.52603
G1 X70.273 Y150.287 E37.53707
G1 X69.683 Y150.09 E37.54813
G1 X69.124 Y149.82 E37.55917
G1 X68.604 Y149.48 E37.57021
G1 X68.132 Y149.077 E37.58124
G1 X67.715 Y148.616 E37.59229
G1 X67.361 Y148.105 E37.60334
G1 X67.076 Y147.553 E37.61439
G1 X66.864 Y146.969 E37.62543
G1 X66.728 Y146.363 E37.63647
G1 X66.67 Y145.615 E37.64981
G1 X66.67 Y73.25 E38.93616
G1 X66.682 Y72.907 E38.94226
G1 X66.723 Y72.331 E38.95253
G1 X66.827 Y71.623 E38.96525
G1 X66.955 Y71.049 E38.9757
G1 X67.156 Y70.378 E38.98816
G1 X67.367 Y69.825 E38.99868
G1 X67.671 Y69.178 E39.01138
G1 X67.958 Y68.668 E39.02179
G1 X68.355 Y68.071 E39.03453
G1 X68.716 Y67.607 E39.04498
G1 X69.19 Y67.082 E39.05756
M204 S625
M205 X6 Y6
G0 F4285.7 X69.48 Y67.386
M204 S500
M205 X5 Y5
G1 F1200 X69.913 Y66.972 E39.0682
G1 X70.424 Y66.552 E39.07996
G1 X70.906 Y66.213 E39.09044
G1 X71.45 Y65.886 E39.10172
G1 X71.977 Y65.619 E39.11222
G1 X72.598 Y65.362 E39.12417
G1 X73.154 Y65.18 E39.13457
G1 X73.766 Y65.027 E39.14578
G1 X74.349 Y64.925 E39.1563
G1 X75.088 Y64.859 E39.16949
G1 X79.169 Y64.84 E39.24204
G1 X157.5 Y64.84 E40.63445
G1 X157.823 Y64.852 E40.64019
G1 X158.409 Y64.895 E40.65064
G1 X159.055 Y64.991 E40.66225
G1 X159.632 Y65.121 E40.67276
G1 X160.252 Y65.309 E40.68428
G1 X160.801 Y65.521 E40.69474
G1 X161.384 Y65.797 E40.7062
G1 X161.893 Y66.085 E40.7166
G1 X162.436 Y66.448 E40.72821
G1 X162.902 Y66.812 E40.73872
G1 X163.377 Y67.242 E40.75011
G1 X163.774 Y67.658 E40.76033
G1 X164.188 Y68.161 E40.77191
G1 X164.528 Y68.643 E40.7824
G1 X164.856 Y69.189 E40.79372
G1 X165.123 Y69.715 E40.80421
