;START_OF_HEADER
;HEADER_VERSION:0.1
;FLAVOR:Griffin
;GENERATOR.NAME:Cura_SteamEngine
;GENERATOR.VERSION:4.1.0
;GENERATOR.BUILD_DATE:2019-05-28
;TARGET_MACHINE.NAME:Ultimaker 3 Extended
;EXTRUDER_TRAIN.0.INITIAL_TEMPERATURE:210
;EXTRUDER_TRAIN.0.MATERIAL.VOLUME_USED:19243
;EXTRUDER_TRAIN.0.MATERIAL.GUID:e509f649-9fe6-4b14-ac45-d441438cb4ef
;EXTRUDER_TRAIN.0.NOZZLE.DIAMETER:0.4
;EXTRUDER_TRAIN.0.NOZZLE.NAME:AA 0.4
;BUILD_PLATE.TYPE:glass
;BUILD_PLATE.INITIAL_TEMPERATURE:60
;BUILD_VOLUME.TEMPERATURE:35
;PRINT.TIME:7003
;PRINT.GROUPS:1
;PRINT.SIZE.MIN.X:9
;PRINT.SIZE.MIN.Y:6
;PRINT.SIZE.MIN.Z:0.27
;PRINT.SIZE.MAX.X:168.43
;PRINT.SIZE.MAX.Y:154.045
;PRINT.SIZE.MAX.Z:6.87
;END_OF_HEADER
;Generated with Cura_SteamEngine 4.1.0
T0
M82 ;absolute extrusion mode

G92 E0
M109 S210
G0 F15000 X9 Y6 Z2
G280
G1 F1500 E-6.5
;LAYER_COUNT:35
;LAYER:0
M107
M204 S625
M205 X6 Y6
G0 F4285.7 X67.739 Y64.064 Z0.27
M204 S500
M205 X5 Y5
;TYPE:SKIRT
G1 F1500 E0
G1 F1200 X68.172 Y63.65 E0.01065
G1 X68.974 Y62.991 E0.0291
G1 X69.456 Y62.652 E0.03958
G1 X70.311 Y62.138 E0.05731
G1 X70.838 Y61.871 E0.06781
G1 X71.814 Y61.467 E0.08659
G1 X72.37 Y61.285 E0.09699
G1 X73.332 Y61.045 E0.11461
G1 X73.915 Y60.943 E0.12513
G1 X74.654 Y60.854 E0.13836
G1 X75.077 Y60.839 E0.14589
G1 X79.158 Y60.82 E0.21843
G1 X157.5 Y60.82 E1.61104
G1 X158.007 Y60.839 E1.62006
G1 X158.593 Y60.882 E1.6305
G1 X159.609 Y61.032 E1.64876
G1 X160.186 Y61.162 E1.65927
G1 X161.159 Y61.458 E1.67735
G1 X161.708 Y61.67 E1.68781
G1 X162.625 Y62.104 E1.70585
G1 X163.134 Y62.392 E1.71624
G1 X163.987 Y62.962 E1.73448
G1 X164.453 Y63.326 E1.74499
G1 X165.2 Y64.003 E1.76291
G1 X165.597 Y64.419 E1.77313
G1 X166.247 Y65.208 E1.7913
G1 X166.587 Y65.69 E1.80179
G1 X167.103 Y66.548 E1.81959
G1 X167.37 Y67.074 E1.83007
G1 X167.765 Y68.02 E1.8483
G1 X167.95 Y68.575 E1.85869
G1 X168.2 Y69.56 E1.87676
G1 X168.303 Y70.143 E1.88728
G1 X168.393 Y70.882 E1.90052
G1 X168.409 Y71.309 E1.90811
G1 X168.43 Y74.973 E1.97324
G1 X168.43 Y147.114 E3.25562
G1 X168.39 Y147.857 E3.26885
G1 X168.271 Y148.592 E3.28208
G1 X168.073 Y149.31 E3.29532
G1 X167.8 Y150.002 E3.30855
G1 X167.454 Y150.661 E3.32178
G1 X167.039 Y151.279 E3.33501
G1 X166.56 Y151.849 E3.34824
G1 X166.023 Y152.364 E3.36147
G1 X165.434 Y152.819 E3.3747
G1 X164.8 Y153.208 E3.38792
G1 X164.127 Y153.527 E3.40116
G1 X163.424 Y153.772 E3.4144
G1 X162.699 Y153.94 E3.42762
G1 X161.96 Y154.029 E3.44086
G1 X161.504 Y154.044 E3.44897
G1 X159.695 Y154.045 E3.48112
G1 X159.691 Y154.045 E3.48119
G1 X73.314 Y154.044 E5.01663
G1 X71.504 Y154.045 E5.0488
G1 X70.761 Y154.005 E5.06203
G1 X70.026 Y153.886 E5.07527
G1 X69.308 Y153.689 E5.0885
G1 X68.616 Y153.416 E5.10173
G1 X67.957 Y153.071 E5.11495
G1 X67.338 Y152.656 E5.1282
G1 X66.768 Y152.178 E5.14142
G1 X66.252 Y151.641 E5.15466
G1 X65.797 Y151.052 E5.16789
G1 X65.408 Y150.418 E5.18111
G1 X65.089 Y149.745 E5.19435
G1 X64.843 Y149.043 E5.20757
G1 X64.675 Y148.318 E5.2208
G1 X64.586 Y147.579 E5.23403
G1 X64.57 Y147.115 E5.24228
G1 X64.57 Y71.75 E6.58197
G1 X64.587 Y71.258 E6.59072
G1 X64.628 Y70.682 E6.60099
G1 X64.777 Y69.666 E6.61924
G1 X64.905 Y69.092 E6.62969
G1 X65.194 Y68.13 E6.64755
G1 X65.405 Y67.577 E6.65807
G1 X65.841 Y66.648 E6.67631
G1 X66.128 Y66.138 E6.68672
G1 X66.697 Y65.282 E6.70499
G1 X67.058 Y64.818 E6.71544
G1 X67.739 Y64.064 E6.7335
M204 S625
M205 X6 Y6
G0 F4285.7 X68.029 Y64.368
M204 S500
M205 X5 Y5
G1 F1200 X68.462 Y63.954 E6.74415
G1 X69.216 Y63.334 E6.7615
G1 X69.698 Y62.995 E6.77197
G1 X70.501 Y62.513 E6.78862
G1 X71.028 Y62.246 E6.79912
G1 X71.945 Y61.866 E6.81677
G1 X72.501 Y61.684 E6.82717
G1 X73.404 Y61.458 E6.84372
G1 X73.987 Y61.356 E6.85424
G1 X74.703 Y61.272 E6.86705
G1 X75.079 Y61.259 E6.87374
G1 X79.16 Y61.24 E6.94628
G1 X157.5 Y61.24 E8.33885
G1 X157.976 Y61.257 E8.34732
G1 X158.562 Y61.3 E8.35776
G1 X159.517 Y61.442 E8.37493
G1 X160.094 Y61.572 E8.38544
G1 X161.008 Y61.85 E8.40242
G1 X161.557 Y62.062 E8.41288
G1 X162.418 Y62.469 E8.42981
G1 X162.927 Y62.757 E8.44021
G1 X163.728 Y63.293 E8.45734
G1 X164.194 Y63.657 E8.46785
G1 X164.897 Y64.293 E8.48471
G1 X165.294 Y64.709 E8.49493
G1 X165.904 Y65.451 E8.512
G1 X166.244 Y65.933 E8.52249
G1 X166.729 Y66.738 E8.53919
G1 X166.996 Y67.264 E8.54968
G1 X167.367 Y68.152 E8.56679
G1 X167.552 Y68.707 E8.57719
G1 X167.787 Y69.633 E8.59417
G1 X167.89 Y70.216 E8.60469
G1 X167.976 Y70.933 E8.61753
G1 X167.989 Y71.312 E8.62427
G1 X168.01 Y74.976 E8.6894
G1 X168.01 Y147.114 E9.97172
G1 X167.97 Y147.834 E9.98454
G1 X167.851 Y148.546 E9.99738
G1 X167.653 Y149.24 E10.0102
G1 X167.38 Y149.907 E10.02302
G1 X167.035 Y150.541 E10.03585
G1 X166.622 Y151.132 E10.04866
G1 X166.146 Y151.674 E10.06149
G1 X165.613 Y152.16 E10.07431
G1 X165.029 Y152.584 E10.08714
G1 X164.402 Y152.941 E10.09996
G1 X163.74 Y153.227 E10.11278
G1 X163.05 Y153.437 E10.1256
G1 X162.341 Y153.569 E10.13842
G1 X161.504 Y153.624 E10.15333
G1 X159.695 Y153.625 E10.18549
G1 X159.691 Y153.625 E10.18556
G1 X73.314 Y153.624 E11.72099
G1 X71.504 Y153.625 E11.75317
G1 X70.783 Y153.585 E11.76601
G1 X70.072 Y153.466 E11.77882
G1 X69.378 Y153.269 E11.79164
G1 X68.71 Y152.997 E11.80447
G1 X68.076 Y152.652 E11.8173
G1 X67.485 Y152.239 E11.83011
G1 X66.942 Y151.763 E11.84295
G1 X66.456 Y151.231 E11.85576
G1 X66.032 Y150.647 E11.86859
G1 X65.674 Y150.021 E11.8814
G1 X65.389 Y149.358 E11.89423
G1 X65.178 Y148.668 E11.90706
G1 X65.045 Y147.959 E11.91988
G1 X64.99 Y147.115 E11.93492
G1 X64.99 Y71.75 E13.2746
G1 X65.006 Y71.288 E13.28282
G1 X65.047 Y70.712 E13.29309
G1 X65.187 Y69.757 E13.31024
G1 X65.315 Y69.183 E13.3207
G1 X65.587 Y68.279 E13.33748
G1 X65.798 Y67.726 E13.348
G1 X66.207 Y66.854 E13.36512
G1 X66.494 Y66.344 E13.37552
G1 X67.029 Y65.539 E13.3927
G1 X67.39 Y65.075 E13.40316
G1 X68.029 Y64.368 E13.4201
M204 S625
M205 X6 Y6
G0 F4285.7 X68.319 Y64.671
M204 S500
M205 X5 Y5
G1 F1200 X68.752 Y64.257 E13.43074
G1 X69.458 Y63.678 E13.44697
G1 X69.94 Y63.339 E13.45745
G1 X70.691 Y62.887 E13.47303
G1 X71.218 Y62.62 E13.48353
G1 X72.075 Y62.265 E13.50002
G1 X72.631 Y62.083 E13.51042
G1 X73.476 Y61.872 E13.5259
G1 X74.059 Y61.77 E13.53642
G1 X75.081 Y61.679 E13.55466
G1 X79.162 Y61.66 E13.62721
G1 X157.5 Y61.66 E15.01974
G1 X157.946 Y61.676 E15.02768
G1 X158.532 Y61.719 E15.03812
G1 X159.425 Y61.852 E15.05417
G1 X160.002 Y61.982 E15.06468
G1 X160.857 Y62.242 E15.08057
G1 X161.406 Y62.454 E15.09103
G1 X162.211 Y62.835 E15.10686
G1 X162.72 Y63.123 E15.11726
G1 X163.47 Y63.624 E15.13329
G1 X163.936 Y63.988 E15.1438
G1 X164.593 Y64.583 E15.15956
G1 X164.99 Y64.999 E15.16978
G1 X165.56 Y65.693 E15.18574
G1 X165.9 Y66.175 E15.19623
G1 X166.354 Y66.928 E15.21186
G1 X166.621 Y67.454 E15.22234
G1 X166.968 Y68.285 E15.23835
G1 X167.153 Y68.84 E15.24875
G1 X167.373 Y69.706 E15.26463
G1 X167.476 Y70.289 E15.27516
G1 X167.569 Y71.314 E15.29345
G1 X167.59 Y74.978 E15.35859
G1 X167.59 Y147.114 E16.64087
G1 X167.55 Y147.811 E16.65328
G1 X167.431 Y148.498 E16.66568
G1 X167.233 Y149.167 E16.67808
G1 X166.961 Y149.81 E16.69049
G1 X166.617 Y150.416 E16.70288
G1 X166.205 Y150.98 E16.71529
G1 X165.732 Y151.493 E16.7277
G1 X165.204 Y151.948 E16.74009
G1 X164.627 Y152.34 E16.75249
G1 X164.008 Y152.663 E16.7649
G1 X163.357 Y152.914 E16.7773
G1 X162.681 Y153.088 E16.78971
G1 X161.99 Y153.184 E16.80211
G1 X161.503 Y153.204 E16.81077
G1 X159.694 Y153.205 E16.84293
G1 X159.691 Y153.205 E16.84298
G1 X73.313 Y153.204 E18.37844
G1 X71.503 Y153.205 E18.41061
G1 X70.807 Y153.165 E18.423
G1 X70.119 Y153.046 E18.43542
G1 X69.45 Y152.85 E18.44781
G1 X68.807 Y152.577 E18.46023
G1 X68.2 Y152.234 E18.47262
G1 X67.637 Y151.823 E18.48501
G1 X67.123 Y151.35 E18.49743
G1 X66.668 Y150.821 E18.50983
G1 X66.276 Y150.244 E18.52223
G1 X65.952 Y149.626 E18.53463
G1 X65.701 Y148.975 E18.54704
G1 X65.526 Y148.3 E18.55943
G1 X65.43 Y147.609 E18.57183
G1 X65.41 Y147.115 E18.58062
G1 X65.41 Y71.75 E19.92031
G1 X65.425 Y71.318 E19.92799
G1 X65.466 Y70.742 E19.93826
G1 X65.597 Y69.849 E19.9543
G1 X65.725 Y69.275 E19.96475
G1 X65.979 Y68.429 E19.98046
G1 X66.19 Y67.876 E19.99098
G1 X66.573 Y67.06 E20.007
G1 X66.86 Y66.55 E20.0174
G1 X67.36 Y65.797 E20.03347
G1 X67.721 Y65.333 E20.04392
G1 X68.319 Y64.671 E20.05978
M204 S625
M205 X6 Y6
G0 F4285.7 X68.61 Y64.975
M204 S500
M205 X5 Y5
G1 F1200 X69.043 Y64.561 E20.07043
G1 X69.699 Y64.021 E20.08553
G1 X70.181 Y63.682 E20.09601
G1 X70.88 Y63.262 E20.1105
G1 X71.407 Y62.995 E20.121
G1 X72.206 Y62.664 E20.13638
G1 X72.762 Y62.482 E20.14678
G1 X73.549 Y62.286 E20.16119
G1 X74.132 Y62.184 E20.17172
G1 X75.083 Y62.099 E20.18869
G1 X79.164 Y62.08 E20.26123
G1 X157.5 Y62.08 E21.65373
G1 X157.915 Y62.095 E21.66111
G1 X158.501 Y62.138 E21.67156
G1 X159.332 Y62.262 E21.68649
G1 X159.909 Y62.392 E21.69701
G1 X160.706 Y62.634 E21.71181
G1 X161.255 Y62.846 E21.72227
G1 X162.004 Y63.2 E21.737
G1 X162.513 Y63.488 E21.7474
G1 X163.211 Y63.955 E21.76232
G1 X163.677 Y64.319 E21.77284
G1 X164.289 Y64.872 E21.7875
G1 X164.686 Y65.288 E21.79772
G1 X165.217 Y65.935 E21.8126
G1 X165.557 Y66.417 E21.82308
G1 X165.98 Y67.119 E21.83765
G1 X166.247 Y67.645 E21.84814
G1 X166.57 Y68.418 E21.86303
G1 X166.755 Y68.973 E21.87343
G1 X166.96 Y69.78 E21.88823
G1 X167.063 Y70.363 E21.89875
G1 X167.149 Y71.317 E21.91578
G1 X167.17 Y74.981 E21.98091
G1 X167.17 Y147.114 E23.26315
G1 X167.13 Y147.786 E23.27512
G1 X167.011 Y148.449 E23.28709
G1 X166.814 Y149.092 E23.29904
G1 X166.542 Y149.708 E23.31101
G1 X166.199 Y150.287 E23.32298
G1 X165.79 Y150.822 E23.33495
G1 X165.32 Y151.304 E23.34691
G1 X164.796 Y151.727 E23.35888
G1 X164.226 Y152.086 E23.37086
G1 X163.618 Y152.374 E23.38282
G1 X162.98 Y152.588 E23.39478
G1 X162.32 Y152.724 E23.40676
G1 X161.503 Y152.784 E23.42132
G1 X159.694 Y152.785 E23.45348
G1 X159.691 Y152.785 E23.45353
G1 X73.313 Y152.784 E24.98898
G1 X71.503 Y152.785 E25.02116
G1 X70.831 Y152.745 E25.03313
G1 X70.168 Y152.626 E25.0451
G1 X69.525 Y152.43 E25.05705
G1 X68.909 Y152.158 E25.06902
G1 X68.329 Y151.816 E25.08099
G1 X67.794 Y151.407 E25.09296
G1 X67.312 Y150.937 E25.10493
G1 X66.888 Y150.414 E25.11689
G1 X66.53 Y149.844 E25.12886
G1 X66.242 Y149.236 E25.14082
G1 X66.027 Y148.598 E25.15279
G1 X65.89 Y147.938 E25.16477
G1 X65.83 Y147.115 E25.17944
G1 X65.83 Y71.75 E26.51912
G1 X65.844 Y71.347 E26.52629
G1 X65.885 Y70.771 E26.53656
G1 X66.007 Y69.94 E26.55149
G1 X66.135 Y69.366 E26.56194
G1 X66.372 Y68.579 E26.57655
G1 X66.583 Y68.026 E26.58707
G1 X66.939 Y67.266 E26.60199
G1 X67.226 Y66.756 E26.61239
G1 X67.692 Y66.055 E26.62736
G1 X68.053 Y65.591 E26.63781
G1 X68.61 Y64.975 E26.65257
M204 S625
M205 X6 Y6
G0 F4285.7 X68.9 Y65.278
M204 S500
M205 X5 Y5
G1 F1200 X69.333 Y64.864 E26.66322
G1 X69.941 Y64.365 E26.6772
G1 X70.423 Y64.026 E26.68767
G1 X71.07 Y63.637 E26.70109
G1 X71.597 Y63.37 E26.7116
G1 X72.337 Y63.064 E26.72583
G1 X72.893 Y62.882 E26.73623
G1 X73.621 Y62.7 E26.74957
G1 X74.204 Y62.598 E26.76009
G1 X75.085 Y62.519 E26.77581
G1 X79.166 Y62.5 E26.84836
G1 X157.5 Y62.5 E28.24082
G1 X157.884 Y62.514 E28.24765
G1 X158.47 Y62.557 E28.2581
G1 X159.24 Y62.671 E28.27193
G1 X159.817 Y62.801 E28.28245
G1 X160.554 Y63.025 E28.29614
G1 X161.103 Y63.237 E28.3066
G1 X161.797 Y63.566 E28.32025
G1 X162.306 Y63.854 E28.33065
G1 X162.953 Y64.286 E28.34448
G1 X163.419 Y64.65 E28.35499
G1 X163.985 Y65.162 E28.36856
G1 X164.382 Y65.578 E28.37878
G1 X164.874 Y66.177 E28.39256
G1 X165.214 Y66.659 E28.40304
G1 X165.605 Y67.309 E28.41653
G1 X165.872 Y67.835 E28.42701
G1 X166.172 Y68.551 E28.44081
G1 X166.357 Y69.106 E28.45121
G1 X166.546 Y69.853 E28.46491
G1 X166.649 Y70.436 E28.47543
G1 X166.729 Y71.319 E28.49119
G1 X166.75 Y74.983 E28.55632
G1 X166.75 Y147.114 E29.83852
G1 X166.71 Y147.761 E29.85005
G1 X166.591 Y148.397 E29.86155
G1 X166.394 Y149.014 E29.87306
G1 X166.123 Y149.603 E29.88459
G1 X165.781 Y150.153 E29.8961
G1 X165.374 Y150.657 E29.90762
G1 X164.908 Y151.107 E29.91913
G1 X164.391 Y151.496 E29.93063
G1 X163.829 Y151.819 E29.94215
G1 X163.232 Y152.07 E29.95367
G1 X162.608 Y152.246 E29.96519
G1 X161.968 Y152.343 E29.9767
G1 X161.503 Y152.364 E29.98497
G1 X159.694 Y152.365 E30.01713
G1 X159.691 Y152.365 E30.01718
G1 X73.313 Y152.364 E31.55264
G1 X71.503 Y152.365 E31.58481
G1 X70.856 Y152.325 E31.59633
G1 X70.22 Y152.206 E31.60783
G1 X69.602 Y152.01 E31.61936
G1 X69.014 Y151.739 E31.63087
G1 X68.463 Y151.398 E31.64239
G1 X67.959 Y150.991 E31.6539
G1 X67.509 Y150.526 E31.66541
G1 X67.119 Y150.008 E31.67693
G1 X66.796 Y149.447 E31.68844
G1 X66.545 Y148.85 E31.69995
G1 X66.369 Y148.226 E31.71148
G1 X66.271 Y147.586 E31.72298
G1 X66.25 Y147.115 E31.73137
G1 X66.25 Y71.75 E33.07105
G1 X66.263 Y71.377 E33.07769
G1 X66.304 Y70.801 E33.08795
G1 X66.417 Y70.031 E33.10179
G1 X66.545 Y69.457 E33.11224
G1 X66.764 Y68.728 E33.12577
G1 X66.975 Y68.175 E33.13629
G1 X67.305 Y67.472 E33.1501
G1 X67.592 Y66.962 E33.1605
G1 X68.023 Y66.313 E33.17435
G1 X68.384 Y65.849 E33.1848
G1 X68.9 Y65.278 E33.19848
M204 S625
M205 X6 Y6
G0 F4285.7 X69.19 Y65.582
M204 S500
M205 X5 Y5
G1 F1200 X69.623 Y65.168 E33.20913
G1 X70.182 Y64.708 E33.222
G1 X70.664 Y64.369 E33.23247
G1 X71.26 Y64.011 E33.24483
G1 X71.787 Y63.744 E33.25533
G1 X72.467 Y63.463 E33.26841
G1 X73.023 Y63.281 E33.27881
G1 X73.694 Y63.113 E33.29111
G1 X74.277 Y63.011 E33.30163
G1 X75.087 Y62.939 E33.31608
G1 X79.168 Y62.92 E33.38863
G1 X157.5 Y62.92 E34.78105
G1 X157.853 Y62.933 E34.78733
G1 X158.439 Y62.976 E34.79778
G1 X159.148 Y63.081 E34.81052
G1 X159.725 Y63.211 E34.82103
G1 X160.403 Y63.417 E34.83363
G1 X160.952 Y63.629 E34.84409
G1 X161.591 Y63.931 E34.85665
G1 X162.1 Y64.219 E34.86705
G1 X162.694 Y64.617 E34.87976
G1 X163.16 Y64.981 E34.89027
G1 X163.681 Y65.452 E34.90276
G1 X164.078 Y65.868 E34.91298
G1 X164.531 Y66.419 E34.92566
G1 X164.871 Y66.901 E34.93614
G1 X165.231 Y67.499 E34.94855
G1 X165.498 Y68.025 E34.95904
G1 X165.773 Y68.684 E34.97173
G1 X165.958 Y69.239 E34.98213
G1 X166.132 Y69.926 E34.99473
G1 X166.235 Y70.509 E35.00525
G1 X166.309 Y71.321 E35.01974
G1 X166.33 Y74.985 E35.08488
G1 X166.33 Y147.114 E36.36704
G1 X166.29 Y147.734 E36.37808
G1 X166.171 Y148.344 E36.38913
G1 X165.974 Y148.933 E36.40017
G1 X165.704 Y149.492 E36.41121
G1 X165.364 Y150.012 E36.42225
G1 X164.96 Y150.484 E36.43329
G1 X164.498 Y150.901 E36.44436
G1 X163.988 Y151.254 E36.45538
G1 X163.436 Y151.539 E36.46643
G1 X162.851 Y151.751 E36.47749
G1 X162.245 Y151.886 E36.48852
G1 X161.503 Y151.944 E36.50175
G1 X159.694 Y151.945 E36.53391
G1 X159.691 Y151.945 E36.53396
G1 X73.313 Y151.944 E38.06942
G1 X71.503 Y151.945 E38.10159
G1 X70.883 Y151.905 E38.11264
G1 X70.273 Y151.787 E38.12368
G1 X69.683 Y151.59 E38.13474
G1 X69.124 Y151.32 E38.14577
G1 X68.604 Y150.98 E38.15682
G1 X68.132 Y150.577 E38.16785
G1 X67.715 Y150.116 E38.1789
G1 X67.361 Y149.605 E38.18995
G1 X67.076 Y149.053 E38.20099
G1 X66.864 Y148.469 E38.21204
G1 X66.728 Y147.863 E38.22308
G1 X66.67 Y147.115 E38.23641
G1 X66.67 Y71.75 E39.5761
G1 X66.682 Y71.407 E39.5822
G1 X66.723 Y70.831 E39.59246
G1 X66.827 Y70.123 E39.60518
G1 X66.955 Y69.549 E39.61564
G1 X67.156 Y68.878 E39.62809
G1 X67.367 Y68.325 E39.63861
G1 X67.671 Y67.678 E39.65132
G1 X67.958 Y67.168 E39.66172
G1 X68.355 Y66.571 E39.67447
G1 X68.716 Y66.107 E39.68492
G1 X69.19 Y65.582 E39.69749
M204 S625
M205 X6 Y6
G0 F4285.7 X69.48 Y65.886
M204 S500
M205 X5 Y5
G1 F1200 X69.913 Y65.472 E39.70814
G1 X70.424 Y65.052 E39.7199
G1 X70.906 Y64.713 E39.73037
G1 X71.45 Y64.386 E39.74165
G1 X71.977 Y64.119 E39.75216
G1 X72.598 Y63.862 E39.7641
G1 X73.154 Y63.68 E39.7745
G1 X73.766 Y63.527 E39.78572
G1 X74.349 Y63.425 E39.79624
G1 X75.088 Y63.359 E39.80943
G1 X79.169 Y63.34 E39.88197
G1 X157.5 Y63.34 E41.27438
G1 X157.823 Y63.352 E41.28013
G1 X158.409 Y63.395 E41.29057
G1 X159.055 Y63.491 E41.30218
G1 X159.632 Y63.621 E41.31269
G1 X160.252 Y63.809 E41.32421
G1 X160.801 Y64.021 E41.33467
G1 X161.384 Y64.297 E41.34614
G1 X161.893 Y64.585 E41.35653
G1 X162.436 Y64.948 E41.36814
G1 X162.902 Y65.312 E41.37866
G1 X163.377 Y65.742 E41.39004
G1 X163.774 Y66.158 E41.40027
G1 X164.188 Y66.661 E41.41185
G1 X164.528 Y67.143 E41.42233
G1 X164.856 Y67.689 E41.43365
G1 X165.123 Y68.215 E41.44414
