;START_OF_HEADER
;HEADER_VERSION:0.1
;FLAVOR:Griffin
;GENERATOR.NAME:Cura_SteamEngine
;GENERATOR.VERSION:4.1.0
;GENERATOR.BUILD_DATE:2019-05-28
;TARGET_MACHINE.NAME:Ultimaker 3 Extended
;EXTRUDER_TRAIN.1.INITIAL_TEMPERATURE:210
;EXTRUDER_TRAIN.1.MATERIAL.VOLUME_USED:19148
;EXTRUDER_TRAIN.1.MATERIAL.GUID:44a029e6-e31b-4c9e-a12f-9282e29a92ff
;EXTRUDER_TRAIN.1.NOZZLE.DIAMETER:0.4
;EXTRUDER_TRAIN.1.NOZZLE.NAME:AA 0.4
;BUILD_PLATE.TYPE:glass
;BUILD_PLATE.INITIAL_TEMPERATURE:60
;BUILD_VOLUME.TEMPERATURE:35
;PRINT.TIME:6972
;PRINT.GROUPS:1
;PRINT.SIZE.MIN.X:46.77
;PRINT.SIZE.MIN.Y:6
;PRINT.SIZE.MIN.Z:0.27
;PRINT.SIZE.MAX.X:204
;PRINT.SIZE.MAX.Y:154.045
;PRINT.SIZE.MAX.Z:6.87
;END_OF_HEADER
;Generated with Cura_SteamEngine 4.1.0
T1
M82 ;absolute extrusion mode

G92 E0
M109 S210
G0 F15000 X204 Y6 Z2
G280
G1 F1500 E-6.5
;LAYER_COUNT:35
;LAYER:0
M107
M204 S625
M205 X6 Y6
G0 F4285.7 X147 Y64.003 Z0.27
M204 S500
M205 X5 Y5
;TYPE:SKIRT
G1 F1500 E0
G1 F1200 X147.397 Y64.419 E0.01022
G1 X148.047 Y65.208 E0.02839
G1 X148.387 Y65.69 E0.03888
G1 X148.903 Y66.548 E0.05668
G1 X149.17 Y67.074 E0.06716
G1 X149.565 Y68.02 E0.08539
G1 X149.75 Y68.575 E0.09578
G1 X150 Y69.56 E0.11385
G1 X150.103 Y70.143 E0.12437
G1 X150.193 Y70.882 E0.13761
G1 X150.209 Y71.309 E0.1452
G1 X150.23 Y74.973 E0.21033
G1 X150.23 Y147.114 E1.49271
G1 X150.19 Y147.857 E1.50594
G1 X150.071 Y148.592 E1.51917
G1 X149.873 Y149.31 E1.53241
G1 X149.6 Y150.002 E1.54564
G1 X149.254 Y150.661 E1.55887
G1 X148.839 Y151.279 E1.5721
G1 X148.36 Y151.849 E1.58533
G1 X147.823 Y152.364 E1.59856
G1 X147.234 Y152.819 E1.61179
G1 X146.6 Y153.208 E1.62501
G1 X145.927 Y153.527 E1.63825
G1 X145.224 Y153.772 E1.65149
G1 X144.499 Y153.94 E1.66471
G1 X143.76 Y154.029 E1.67795
G1 X143.304 Y154.044 E1.68606
G1 X141.495 Y154.045 E1.71821
G1 X141.491 Y154.045 E1.71828
G1 X55.514 Y154.044 E3.24661
G1 X53.704 Y154.045 E3.27878
G1 X52.961 Y154.005 E3.29201
G1 X52.226 Y153.886 E3.30525
G1 X51.508 Y153.689 E3.31848
G1 X50.816 Y153.416 E3.3317
G1 X50.157 Y153.071 E3.34493
G1 X49.538 Y152.656 E3.35817
G1 X48.968 Y152.178 E3.3714
G1 X48.452 Y151.641 E3.38464
G1 X47.997 Y151.052 E3.39787
G1 X47.608 Y150.418 E3.41109
G1 X47.289 Y149.745 E3.42433
G1 X47.043 Y149.043 E3.43755
G1 X46.875 Y148.318 E3.45078
G1 X46.786 Y147.579 E3.46401
G1 X46.77 Y147.115 E3.47226
G1 X46.77 Y71.75 E4.81195
G1 X46.787 Y71.258 E4.8207
G1 X46.828 Y70.682 E4.83097
G1 X46.977 Y69.666 E4.84922
G1 X47.105 Y69.092 E4.85967
G1 X47.394 Y68.13 E4.87753
G1 X47.605 Y67.577 E4.88805
G1 X48.041 Y66.648 E4.90629
G1 X48.328 Y66.138 E4.9167
G1 X48.897 Y65.282 E4.93497
G1 X49.258 Y64.818 E4.94542
G1 X49.939 Y64.064 E4.96348
G1 X50.372 Y63.65 E4.97413
G1 X51.174 Y62.991 E4.99258
G1 X51.656 Y62.652 E5.00305
G1 X52.511 Y62.138 E5.02079
G1 X53.038 Y61.871 E5.03129
G1 X54.014 Y61.467 E5.05007
G1 X54.57 Y61.285 E5.06047
G1 X55.532 Y61.045 E5.07809
G1 X56.115 Y60.943 E5.08861
G1 X56.854 Y60.854 E5.10184
G1 X57.277 Y60.839 E5.10937
G1 X61.34 Y60.82 E5.18159
G1 X139.3 Y60.82 E6.56741
G1 X139.807 Y60.839 E6.57642
G1 X140.393 Y60.882 E6.58687
G1 X141.409 Y61.032 E6.60513
G1 X141.986 Y61.162 E6.61564
G1 X142.959 Y61.458 E6.63372
G1 X143.508 Y61.67 E6.64418
G1 X144.425 Y62.104 E6.66221
G1 X144.934 Y62.392 E6.67261
G1 X145.787 Y62.962 E6.69085
G1 X146.253 Y63.326 E6.70136
G1 X147 Y64.003 E6.71928
M204 S625
M205 X6 Y6
G0 F4285.7 X146.697 Y64.293
M204 S500
M205 X5 Y5
G1 F1200 X147.094 Y64.709 E6.7295
G1 X147.704 Y65.451 E6.74657
G1 X148.044 Y65.933 E6.75706
G1 X148.529 Y66.738 E6.77377
G1 X148.796 Y67.264 E6.78425
G1 X149.167 Y68.152 E6.80136
G1 X149.352 Y68.707 E6.81176
G1 X149.587 Y69.633 E6.82874
G1 X149.69 Y70.216 E6.83926
G1 X149.776 Y70.933 E6.8521
G1 X149.789 Y71.312 E6.85884
G1 X149.81 Y74.976 E6.92397
G1 X149.81 Y147.114 E8.2063
G1 X149.77 Y147.834 E8.21912
G1 X149.651 Y148.546 E8.23195
G1 X149.453 Y149.24 E8.24478
G1 X149.18 Y149.907 E8.25759
G1 X148.835 Y150.541 E8.27042
G1 X148.422 Y151.132 E8.28324
G1 X147.946 Y151.674 E8.29606
G1 X147.413 Y152.16 E8.30888
G1 X146.829 Y152.584 E8.32171
G1 X146.202 Y152.941 E8.33453
G1 X145.54 Y153.227 E8.34735
G1 X144.85 Y153.437 E8.36017
G1 X144.141 Y153.569 E8.37299
G1 X143.304 Y153.624 E8.3879
G1 X141.495 Y153.625 E8.42006
G1 X141.491 Y153.625 E8.42013
G1 X55.514 Y153.624 E9.94846
G1 X53.704 Y153.625 E9.98063
G1 X52.983 Y153.585 E9.99347
G1 X52.272 Y153.466 E10.00628
G1 X51.578 Y153.269 E10.01911
G1 X50.91 Y152.997 E10.03193
G1 X50.276 Y152.652 E10.04476
G1 X49.685 Y152.239 E10.05757
G1 X49.142 Y151.763 E10.07041
G1 X48.656 Y151.231 E10.08322
G1 X48.232 Y150.647 E10.09605
G1 X47.874 Y150.021 E10.10887
G1 X47.589 Y149.358 E10.12169
G1 X47.378 Y148.668 E10.13452
G1 X47.245 Y147.959 E10.14734
G1 X47.19 Y147.115 E10.16238
G1 X47.19 Y71.75 E11.50207
G1 X47.206 Y71.288 E11.51028
G1 X47.247 Y70.712 E11.52055
G1 X47.387 Y69.757 E11.5377
G1 X47.515 Y69.183 E11.54816
G1 X47.787 Y68.279 E11.56494
G1 X47.998 Y67.726 E11.57546
G1 X48.407 Y66.854 E11.59258
G1 X48.694 Y66.344 E11.60299
G1 X49.229 Y65.539 E11.62017
G1 X49.59 Y65.075 E11.63062
G1 X50.229 Y64.368 E11.64756
G1 X50.662 Y63.954 E11.65821
G1 X51.416 Y63.334 E11.67556
G1 X51.898 Y62.995 E11.68603
G1 X52.701 Y62.513 E11.70268
G1 X53.228 Y62.246 E11.71318
G1 X54.145 Y61.866 E11.73083
G1 X54.701 Y61.684 E11.74123
G1 X55.604 Y61.458 E11.75777
G1 X56.187 Y61.356 E11.7683
G1 X56.903 Y61.272 E11.78111
G1 X57.279 Y61.259 E11.7878
G1 X61.342 Y61.24 E11.86002
G1 X139.3 Y61.24 E13.2458
G1 X139.776 Y61.257 E13.25427
G1 X140.362 Y61.3 E13.26471
G1 X141.317 Y61.442 E13.28188
G1 X141.894 Y61.572 E13.29239
G1 X142.808 Y61.85 E13.30937
G1 X143.357 Y62.062 E13.31983
G1 X144.218 Y62.469 E13.33676
G1 X144.727 Y62.757 E13.34716
G1 X145.528 Y63.293 E13.36429
G1 X145.994 Y63.657 E13.3748
G1 X146.697 Y64.293 E13.39165
M204 S625
M205 X6 Y6
G0 F4285.7 X146.393 Y64.583
M204 S500
M205 X5 Y5
G1 F1200 X146.79 Y64.999 E13.40188
G1 X147.36 Y65.693 E13.41784
G1 X147.7 Y66.175 E13.42832
G1 X148.154 Y66.928 E13.44395
G1 X148.421 Y67.454 E13.45444
G1 X148.768 Y68.285 E13.47045
G1 X148.953 Y68.84 E13.48085
G1 X149.173 Y69.706 E13.49673
G1 X149.276 Y70.289 E13.50725
G1 X149.369 Y71.314 E13.52555
G1 X149.39 Y74.978 E13.59068
G1 X149.39 Y147.114 E14.87297
G1 X149.35 Y147.811 E14.88538
G1 X149.231 Y148.498 E14.89777
G1 X149.033 Y149.167 E14.91018
G1 X148.761 Y149.81 E14.92259
G1 X148.417 Y150.416 E14.93497
G1 X148.005 Y150.98 E14.94739
G1 X147.532 Y151.493 E14.95979
G1 X147.004 Y151.948 E14.97218
G1 X146.427 Y152.34 E14.98458
G1 X145.808 Y152.663 E14.99699
G1 X145.157 Y152.914 E15.0094
G1 X144.481 Y153.088 E15.0218
G1 X143.79 Y153.184 E15.03421
G1 X143.303 Y153.204 E15.04287
G1 X141.494 Y153.205 E15.07503
G1 X141.491 Y153.205 E15.07508
G1 X55.513 Y153.204 E16.60342
G1 X53.703 Y153.205 E16.6356
G1 X53.007 Y153.165 E16.64799
G1 X52.319 Y153.046 E16.6604
G1 X51.65 Y152.85 E16.67279
G1 X51.007 Y152.577 E16.68521
G1 X50.4 Y152.234 E16.6976
G1 X49.837 Y151.823 E16.71
G1 X49.323 Y151.35 E16.72241
G1 X48.868 Y150.821 E16.73482
G1 X48.476 Y150.244 E16.74722
G1 X48.152 Y149.626 E16.75962
G1 X47.901 Y148.975 E16.77202
G1 X47.726 Y148.3 E16.78442
G1 X47.63 Y147.609 E16.79682
G1 X47.61 Y147.115 E16.80561
G1 X47.61 Y71.75 E18.14529
G1 X47.625 Y71.318 E18.15298
G1 X47.666 Y70.742 E18.16324
G1 X47.797 Y69.849 E18.17929
G1 X47.925 Y69.275 E18.18974
G1 X48.179 Y68.429 E18.20544
G1 X48.39 Y67.876 E18.21596
G1 X48.773 Y67.06 E18.23199
G1 X49.06 Y66.55 E18.24239
G1 X49.56 Y65.797 E18.25846
G1 X49.921 Y65.333 E18.26891
G1 X50.519 Y64.671 E18.28476
G1 X50.952 Y64.257 E18.29541
G1 X51.658 Y63.678 E18.31164
G1 X52.14 Y63.339 E18.32212
G1 X52.891 Y62.887 E18.3377
G1 X53.418 Y62.62 E18.3482
G1 X54.275 Y62.265 E18.36469
G1 X54.831 Y62.083 E18.37509
G1 X55.676 Y61.872 E18.39057
G1 X56.259 Y61.77 E18.40109
G1 X57.281 Y61.679 E18.41933
G1 X61.344 Y61.66 E18.49156
G1 X139.3 Y61.66 E19.8773
G1 X139.746 Y61.676 E19.88523
G1 X140.332 Y61.719 E19.89568
G1 X141.225 Y61.852 E19.91173
G1 X141.802 Y61.982 E19.92224
G1 X142.657 Y62.242 E19.93813
G1 X143.206 Y62.454 E19.94859
G1 X144.011 Y62.835 E19.96442
G1 X144.52 Y63.123 E19.97482
G1 X145.27 Y63.624 E19.99085
G1 X145.736 Y63.988 E20.00136
G1 X146.393 Y64.583 E20.01712
M204 S625
M205 X6 Y6
G0 F4285.7 X146.089 Y64.872
M204 S500
M205 X5 Y5
G1 F1200 X146.486 Y65.288 E20.02734
G1 X147.017 Y65.935 E20.04222
G1 X147.357 Y66.417 E20.0527
G1 X147.78 Y67.119 E20.06727
G1 X148.047 Y67.645 E20.07776
G1 X148.37 Y68.418 E20.09265
G1 X148.555 Y68.973 E20.10305
G1 X148.76 Y69.78 E20.11785
G1 X148.863 Y70.363 E20.12837
G1 X148.949 Y71.317 E20.1454
G1 X148.97 Y74.981 E20.21053
G1 X148.97 Y147.114 E21.49277
G1 X148.93 Y147.786 E21.50473
G1 X148.811 Y148.449 E21.51671
G1 X148.614 Y149.092 E21.52866
G1 X148.342 Y149.708 E21.54063
G1 X147.999 Y150.287 E21.55259
G1 X147.59 Y150.822 E21.56457
G1 X147.12 Y151.304 E21.57653
G1 X146.596 Y151.727 E21.5885
G1 X146.026 Y152.086 E21.60048
G1 X145.418 Y152.374 E21.61244
G1 X144.78 Y152.588 E21.6244
G1 X144.12 Y152.724 E21.63638
G1 X143.303 Y152.784 E21.65094
G1 X141.494 Y152.785 E21.6831
G1 X141.491 Y152.785 E21.68315
G1 X55.513 Y152.784 E23.21149
G1 X53.703 Y152.785 E23.24367
G1 X53.031 Y152.745 E23.25563
G1 X52.368 Y152.626 E23.26761
G1 X51.725 Y152.43 E23.27956
G1 X51.109 Y152.158 E23.29153
G1 X50.529 Y151.816 E23.3035
G1 X49.994 Y151.407 E23.31547
G1 X49.512 Y150.937 E23.32743
G1 X49.088 Y150.414 E23.3394
G1 X48.73 Y149.844 E23.35137
G1 X48.442 Y149.236 E23.36333
G1 X48.227 Y148.598 E23.37529
G1 X48.09 Y147.938 E23.38728
G1 X48.03 Y147.115 E23.40194
G1 X48.03 Y71.75 E24.74163
G1 X48.044 Y71.347 E24.7488
G1 X48.085 Y70.771 E24.75906
G1 X48.207 Y69.94 E24.77399
G1 X48.335 Y69.366 E24.78445
G1 X48.572 Y68.579 E24.79906
G1 X48.783 Y68.026 E24.80958
G1 X49.139 Y67.266 E24.8245
G1 X49.426 Y66.756 E24.8349
G1 X49.892 Y66.055 E24.84986
G1 X50.253 Y65.591 E24.86031
G1 X50.81 Y64.975 E24.87508
G1 X51.243 Y64.561 E24.88573
G1 X51.899 Y64.021 E24.90083
G1 X52.381 Y63.682 E24.9113
G1 X53.08 Y63.262 E24.9258
G1 X53.607 Y62.995 E24.9363
G1 X54.406 Y62.664 E24.95168
G1 X54.962 Y62.482 E24.96207
G1 X55.749 Y62.286 E24.97649
G1 X56.332 Y62.184 E24.98701
G1 X57.282 Y62.099 E25.00397
G1 X61.345 Y62.08 E25.07619
G1 X139.3 Y62.08 E26.46192
G1 X139.715 Y62.095 E26.4693
G1 X140.301 Y62.138 E26.47974
G1 X141.132 Y62.262 E26.49468
G1 X141.709 Y62.392 E26.50519
G1 X142.506 Y62.634 E26.52
G1 X143.055 Y62.846 E26.53046
G1 X143.804 Y63.2 E26.54519
G1 X144.313 Y63.488 E26.55558
G1 X145.011 Y63.955 E26.57051
G1 X145.477 Y64.319 E26.58102
G1 X146.089 Y64.872 E26.59569
M204 S625
M205 X6 Y6
G0 F4285.7 X145.785 Y65.162
M204 S500
M205 X5 Y5
G1 F1200 X146.182 Y65.578 E26.60591
G1 X146.674 Y66.177 E26.61969
G1 X147.014 Y66.659 E26.63017
G1 X147.405 Y67.309 E26.64366
G1 X147.672 Y67.835 E26.65414
G1 X147.972 Y68.551 E26.66794
G1 X148.157 Y69.106 E26.67834
G1 X148.346 Y69.853 E26.69204
G1 X148.449 Y70.436 E26.70256
G1 X148.529 Y71.319 E26.71832
G1 X148.55 Y74.983 E26.78345
G1 X148.55 Y147.114 E28.06565
G1 X148.51 Y147.761 E28.07718
G1 X148.391 Y148.397 E28.08868
G1 X148.194 Y149.014 E28.10019
G1 X147.923 Y149.603 E28.11172
G1 X147.581 Y150.153 E28.12323
G1 X147.174 Y150.657 E28.13474
G1 X146.708 Y151.107 E28.14626
G1 X146.191 Y151.496 E28.15776
G1 X145.629 Y151.819 E28.16928
G1 X145.032 Y152.07 E28.1808
G1 X144.408 Y152.246 E28.19232
G1 X143.768 Y152.343 E28.20383
G1 X143.303 Y152.364 E28.2121
G1 X141.494 Y152.365 E28.24426
G1 X141.491 Y152.365 E28.24431
G1 X55.513 Y152.364 E29.77265
G1 X53.703 Y152.365 E29.80483
G1 X53.056 Y152.325 E29.81635
G1 X52.42 Y152.206 E29.82785
G1 X51.802 Y152.01 E29.83938
G1 X51.214 Y151.739 E29.85089
G1 X50.663 Y151.398 E29.86241
G1 X50.159 Y150.991 E29.87392
G1 X49.709 Y150.526 E29.88542
G1 X49.319 Y150.008 E29.89695
G1 X48.996 Y149.447 E29.90846
G1 X48.745 Y148.85 E29.91997
G1 X48.569 Y148.226 E29.93149
G1 X48.471 Y147.586 E29.943
G1 X48.45 Y147.115 E29.95138
G1 X48.45 Y71.75 E31.29107
G1 X48.463 Y71.377 E31.2977
G1 X48.504 Y70.801 E31.30797
G1 X48.617 Y70.031 E31.3218
G1 X48.745 Y69.457 E31.33226
G1 X48.964 Y68.728 E31.34579
G1 X49.175 Y68.175 E31.35631
G1 X49.505 Y67.472 E31.37011
G1 X49.792 Y66.962 E31.38052
G1 X50.223 Y66.313 E31.39437
G1 X50.584 Y65.849 E31.40482
G1 X51.1 Y65.278 E31.4185
G1 X51.533 Y64.864 E31.42915
G1 X52.141 Y64.365 E31.44313
G1 X52.623 Y64.026 E31.4536
G1 X53.27 Y63.637 E31.46702
G1 X53.797 Y63.37 E31.47752
G1 X54.537 Y63.064 E31.49176
G1 X55.093 Y62.882 E31.50216
G1 X55.821 Y62.7 E31.5155
G1 X56.404 Y62.598 E31.52602
G1 X57.284 Y62.519 E31.54172
G1 X61.347 Y62.5 E31.61395
G1 X139.3 Y62.5 E32.99964
G1 X139.684 Y62.514 E33.00647
G1 X140.27 Y62.557 E33.01691
G1 X141.04 Y62.671 E33.03075
G1 X141.617 Y62.801 E33.04127
G1 X142.354 Y63.025 E33.05496
G1 X142.903 Y63.237 E33.06542
G1 X143.597 Y63.566 E33.07907
G1 X144.106 Y63.854 E33.08947
G1 X144.753 Y64.286 E33.1033
G1 X145.219 Y64.65 E33.11381
G1 X145.785 Y65.162 E33.12737
M204 S625
M205 X6 Y6
G0 F4285.7 X145.481 Y65.452
M204 S500
M205 X5 Y5
G1 F1200 X145.878 Y65.868 E33.1376
G1 X146.331 Y66.419 E33.15028
G1 X146.671 Y66.901 E33.16076
G1 X147.031 Y67.499 E33.17317
G1 X147.298 Y68.025 E33.18365
G1 X147.573 Y68.684 E33.19635
G1 X147.758 Y69.239 E33.20675
G1 X147.932 Y69.926 E33.21935
G1 X148.035 Y70.509 E33.22987
G1 X148.109 Y71.321 E33.24436
G1 X148.13 Y74.985 E33.3095
G1 X148.13 Y147.114 E34.59166
G1 X148.09 Y147.734 E34.6027
G1 X147.971 Y148.344 E34.61375
G1 X147.774 Y148.933 E34.62479
G1 X147.504 Y149.492 E34.63583
G1 X147.164 Y150.012 E34.64687
G1 X146.76 Y150.484 E34.65791
G1 X146.298 Y150.901 E34.66898
G1 X145.788 Y151.254 E34.68
G1 X145.236 Y151.539 E34.69105
G1 X144.651 Y151.751 E34.70211
G1 X144.045 Y151.886 E34.71314
G1 X143.303 Y151.944 E34.72637
G1 X141.494 Y151.945 E34.75853
G1 X141.491 Y151.945 E34.75858
G1 X55.513 Y151.944 E36.28693
G1 X53.703 Y151.945 E36.3191
G1 X53.083 Y151.905 E36.33014
G1 X52.473 Y151.787 E36.34119
G1 X51.883 Y151.59 E36.35225
G1 X51.324 Y151.32 E36.36328
G1 X50.804 Y150.98 E36.37432
G1 X50.332 Y150.577 E36.38536
G1 X49.915 Y150.116 E36.39641
G1 X49.561 Y149.605 E36.40746
G1 X49.276 Y149.053 E36.4185
G1 X49.064 Y148.469 E36.42954
G1 X48.928 Y147.863 E36.44058
G1 X48.87 Y147.115 E36.45392
G1 X48.87 Y71.75 E37.79361
G1 X48.882 Y71.407 E37.79971
G1 X48.923 Y70.831 E37.80997
G1 X49.027 Y70.123 E37.82269
G1 X49.155 Y69.549 E37.83315
G1 X49.356 Y68.878 E37.8456
G1 X49.567 Y68.325 E37.85612
G1 X49.871 Y67.678 E37.86883
G1 X50.158 Y67.168 E37.87923
G1 X50.555 Y66.571 E37.89197
G1 X50.916 Y66.107 E37.90242
G1 X51.39 Y65.582 E37.915
G1 X51.823 Y65.168 E37.92565
G1 X52.382 Y64.708 E37.93852
G1 X52.864 Y64.369 E37.94899
G1 X53.46 Y64.011 E37.96135
G1 X53.987 Y63.744 E37.97185
G1 X54.667 Y63.463 E37.98493
G1 X55.223 Y63.281 E37.99533
G1 X55.894 Y63.113 E38.00763
G1 X56.477 Y63.011 E38.01815
G1 X57.286 Y62.939 E38.03258
G1 X61.349 Y62.92 E38.10481
G1 X139.3 Y62.92 E39.49046
G1 X139.653 Y62.933 E39.49674
G1 X140.239 Y62.976 E39.50719
G1 X140.948 Y63.081 E39.51993
G1 X141.525 Y63.211 E39.53044
G1 X142.203 Y63.417 E39.54304
G1 X142.752 Y63.629 E39.5535
G1 X143.391 Y63.931 E39.56606
G1 X143.9 Y64.219 E39.57646
G1 X144.494 Y64.617 E39.58917
G1 X144.96 Y64.981 E39.59968
G1 X145.481 Y65.452 E39.61217
M204 S625
M205 X6 Y6
G0 F4285.7 X145.177 Y65.742
M204 S500
M205 X5 Y5
G1 F1200 X145.574 Y66.158 E39.62239
G1 X145.988 Y66.661 E39.63397
G1 X146.328 Y67.143 E39.64445
G1 X146.656 Y67.689 E39.65577
G1 X146.923 Y68.215 E39.66626
G1 X147.175 Y68.816 E39.67785
G1 X147.36 Y69.371 E39.68824
G1 X147.519 Y69.999 E39.69976
G1 X147.622 Y70.582 E39.71028
G1 X147.689 Y71.324 E39.72353
G1 X147.71 Y74.988 E39.78866
G1 X147.71 Y147.114 E41.07077
G1 X147.67 Y147.706 E41.08132
G1 X147.551 Y148.288 E41.09188
G1 X147.355 Y148.848 E41.10242
G1 X147.085 Y149.377 E41.11298
G1 X146.747 Y149.865 E41.12353
G1 X146.346 Y150.303 E41.13409
G1 X145.89 Y150.683 E41.14464
G1 X145.387 Y150.999 E41.1552
G1 X144.847 Y151.244 E41.16574
G1 X144.278 Y151.414 E41.1763
G1 X143.692 Y151.507 E41.18684
G1 X143.302 Y151.524 E41.19378
G1 X141.493 Y151.525 E41.22594
G1 X141.491 Y151.525 E41.22598
