;START_OF_HEADER
;HEADER_VERSION:0.1
;FLAVOR:Griffin
;GENERATOR.NAME:Cura_SteamEngine
;GENERATOR.VERSION:4.1.0
;GENERATOR.BUILD_DATE:2019-05-28
;TARGET_MACHINE.NAME:Ultimaker 3 Extended
;EXTRUDER_TRAIN.0.INITIAL_TEMPERATURE:210
;EXTRUDER_TRAIN.0.MATERIAL.VOLUME_USED:574
;EXTRUDER_TRAIN.0.MATERIAL.GUID:e509f649-9fe6-4b14-ac45-d441438cb4ef
;EXTRUDER_TRAIN.0.NOZZLE.DIAMETER:0.4
;EXTRUDER_TRAIN.0.NOZZLE.NAME:AA 0.4
;BUILD_PLATE.TYPE:glass
;BUILD_PLATE.INITIAL_TEMPERATURE:60
;BUILD_VOLUME.TEMPERATURE:35
;PRINT.TIME:306
;PRINT.GROUPS:1
;PRINT.SIZE.MIN.X:9
;PRINT.SIZE.MIN.Y:6
;PRINT.SIZE.MIN.Z:0.27
;PRINT.SIZE.MAX.X:130.43
;PRINT.SIZE.MAX.Y:121.43
;PRINT.SIZE.MAX.Z:4.07
;END_OF_HEADER
;Generated with Cura_SteamEngine 4.1.0
T0
M82 ;absolute extrusion mode

G92 E0
M109 S210
G0 F15000 X9 Y6 Z2
G280
G1 F1500 E-6.5
;LAYER_COUNT:20
;LAYER:0
M107
M204 S625
M205 X6 Y6
G0 F4285.7 X105.496 Y97.074 Z0.27
M204 S500
M205 X5 Y5
;TYPE:SKIRT
G1 F1500 E0
G1 F1200 X106.006 Y96.559 E0.01288
G1 X106.557 Y96.059 E0.02611
G1 X106.953 Y95.76 E0.03493
G1 X107.521 Y95.362 E0.04726
G1 X108.153 Y94.968 E0.0605
G1 X108.558 Y94.761 E0.06858
G1 X109.192 Y94.464 E0.08103
G1 X109.882 Y94.185 E0.09426
G1 X110.348 Y94.043 E0.10292
G1 X111.02 Y93.864 E0.11528
G1 X111.749 Y93.712 E0.12852
G1 X112.2 Y93.657 E0.13659
G1 X112.897 Y93.596 E0.14903
G1 X113.501 Y93.57 E0.15978
G1 X123.5 Y93.57 E0.33752
G1 X124.243 Y93.61 E0.35075
G1 X124.978 Y93.729 E0.36398
G1 X125.696 Y93.927 E0.37722
G1 X126.388 Y94.2 E0.39045
G1 X127.047 Y94.546 E0.40368
G1 X127.665 Y94.961 E0.41691
G1 X128.235 Y95.44 E0.43014
G1 X128.75 Y95.977 E0.44337
G1 X129.205 Y96.566 E0.4566
G1 X129.594 Y97.2 E0.46982
G1 X129.913 Y97.873 E0.48306
G1 X130.158 Y98.576 E0.49629
G1 X130.326 Y99.301 E0.50952
G1 X130.415 Y100.04 E0.52276
G1 X130.43 Y100.5 E0.53094
G1 X130.43 Y114.5 E0.7798
G1 X130.39 Y115.243 E0.79303
G1 X130.271 Y115.978 E0.80626
G1 X130.073 Y116.696 E0.8195
G1 X129.8 Y117.388 E0.83273
G1 X129.454 Y118.047 E0.84596
G1 X129.039 Y118.665 E0.85919
G1 X128.56 Y119.235 E0.87242
G1 X128.023 Y119.75 E0.88565
G1 X127.434 Y120.205 E0.89888
G1 X126.8 Y120.594 E0.9121
G1 X126.127 Y120.913 E0.92534
G1 X125.424 Y121.158 E0.93858
G1 X124.699 Y121.326 E0.9518
G1 X123.96 Y121.415 E0.96504
G1 X123.5 Y121.43 E0.97322
G1 X109.5 Y121.43 E1.22208
G1 X108.757 Y121.39 E1.23531
G1 X108.022 Y121.271 E1.24854
G1 X107.304 Y121.073 E1.26178
G1 X106.612 Y120.8 E1.27501
G1 X105.953 Y120.454 E1.28824
G1 X105.335 Y120.039 E1.30147
G1 X104.765 Y119.56 E1.3147
G1 X104.25 Y119.023 E1.32793
G1 X103.795 Y118.434 E1.34116
G1 X103.406 Y117.8 E1.35438
G1 X103.087 Y117.127 E1.36762
G1 X102.842 Y116.424 E1.38086
G1 X102.674 Y115.699 E1.39408
G1 X102.585 Y114.96 E1.40732
G1 X102.57 Y114.5 E1.4155
G1 X102.57 Y104.501 E1.59324
G1 X102.595 Y103.916 E1.60365
G1 X102.652 Y103.243 E1.61565
G1 X102.754 Y102.506 E1.62888
G1 X102.851 Y102.082 E1.63661
G1 X103.026 Y101.41 E1.64896
G1 X103.252 Y100.7 E1.6622
G1 X103.438 Y100.256 E1.67076
G1 X103.731 Y99.62 E1.6832
G1 X104.078 Y98.962 E1.69643
G1 X104.329 Y98.573 E1.70466
G1 X104.724 Y98.003 E1.71698
G1 X105.18 Y97.415 E1.73021
G1 X105.496 Y97.074 E1.73848
M204 S625
M205 X6 Y6
G0 F4285.7 X105.794 Y97.369
M204 S500
M205 X5 Y5
G1 F1200 X106.304 Y96.854 E1.75136
G1 X106.84 Y96.371 E1.76419
G1 X107.194 Y96.104 E1.77207
G1 X107.762 Y95.706 E1.7844
G1 X108.375 Y95.325 E1.79723
G1 X108.736 Y95.142 E1.80442
G1 X109.37 Y94.845 E1.81687
G1 X110.04 Y94.575 E1.82971
G1 X110.456 Y94.449 E1.83743
G1 X111.128 Y94.27 E1.8498
G1 X111.835 Y94.124 E1.86263
G1 X112.236 Y94.076 E1.86981
G1 X112.933 Y94.015 E1.88224
G1 X113.501 Y93.99 E1.89235
G1 X123.5 Y93.99 E2.07009
G1 X124.22 Y94.03 E2.08291
G1 X124.932 Y94.149 E2.09574
G1 X125.626 Y94.347 E2.10857
G1 X126.293 Y94.62 E2.12138
G1 X126.927 Y94.965 E2.13421
G1 X127.518 Y95.378 E2.14703
G1 X128.06 Y95.854 E2.15985
G1 X128.546 Y96.387 E2.17267
G1 X128.97 Y96.971 E2.1855
G1 X129.327 Y97.598 E2.19833
G1 X129.613 Y98.26 E2.21115
G1 X129.823 Y98.95 E2.22397
G1 X129.955 Y99.659 E2.23679
G1 X130.01 Y100.5 E2.25177
G1 X130.01 Y114.5 E2.50063
G1 X129.97 Y115.22 E2.51345
G1 X129.851 Y115.932 E2.52628
G1 X129.653 Y116.626 E2.53911
G1 X129.38 Y117.293 E2.55192
G1 X129.035 Y117.927 E2.56475
G1 X128.622 Y118.518 E2.57757
G1 X128.146 Y119.06 E2.59039
G1 X127.613 Y119.546 E2.60322
G1 X127.029 Y119.97 E2.61604
G1 X126.402 Y120.327 E2.62887
G1 X125.74 Y120.613 E2.64169
G1 X125.05 Y120.823 E2.65451
G1 X124.341 Y120.955 E2.66733
G1 X123.5 Y121.01 E2.68231
G1 X109.5 Y121.01 E2.93118
G1 X108.78 Y120.97 E2.94399
G1 X108.068 Y120.851 E2.95683
G1 X107.374 Y120.653 E2.96965
G1 X106.707 Y120.38 E2.98247
G1 X106.073 Y120.035 E2.9953
G1 X105.482 Y119.622 E3.00811
G1 X104.94 Y119.146 E3.02094
G1 X104.454 Y118.613 E3.03376
G1 X104.03 Y118.029 E3.04659
G1 X103.673 Y117.402 E3.05941
G1 X103.387 Y116.74 E3.07223
G1 X103.177 Y116.05 E3.08505
G1 X103.045 Y115.341 E3.09787
G1 X102.99 Y114.5 E3.11285
G1 X102.99 Y104.501 E3.29059
G1 X103.013 Y103.952 E3.30036
G1 X103.07 Y103.279 E3.31237
G1 X103.171 Y102.564 E3.3252
G1 X103.257 Y102.187 E3.33208
G1 X103.432 Y101.515 E3.34442
G1 X103.652 Y100.828 E3.35724
G1 X103.819 Y100.432 E3.36488
G1 X104.112 Y99.796 E3.37733
G1 X104.45 Y99.159 E3.39015
G1 X104.674 Y98.812 E3.39749
G1 X105.069 Y98.242 E3.40982
G1 X105.512 Y97.673 E3.42264
G1 X105.794 Y97.369 E3.43001
M204 S625
M205 X6 Y6
G0 F4285.7 X106.093 Y97.665
M204 S500
M205 X5 Y5
G1 F1200 X106.603 Y97.15 E3.44289
G1 X107.121 Y96.683 E3.45529
G1 X107.435 Y96.448 E3.46226
G1 X108.003 Y96.05 E3.47459
G1 X108.597 Y95.683 E3.487
G1 X108.915 Y95.522 E3.49334
G1 X109.549 Y95.225 E3.50578
G1 X110.196 Y94.966 E3.51817
G1 X110.564 Y94.855 E3.52501
G1 X111.236 Y94.676 E3.53737
G1 X111.92 Y94.536 E3.54978
G1 X112.273 Y94.494 E3.5561
G1 X112.97 Y94.433 E3.56853
G1 X113.501 Y94.41 E3.57798
G1 X123.5 Y94.41 E3.75572
G1 X124.197 Y94.45 E3.76813
G1 X124.884 Y94.569 E3.78053
G1 X125.553 Y94.767 E3.79293
G1 X126.196 Y95.039 E3.80534
G1 X126.802 Y95.383 E3.81773
G1 X127.366 Y95.795 E3.83014
G1 X127.879 Y96.268 E3.84255
G1 X128.334 Y96.796 E3.85494
G1 X128.726 Y97.373 E3.86734
G1 X129.049 Y97.992 E3.87975
G1 X129.3 Y98.643 E3.89215
G1 X129.474 Y99.319 E3.90456
G1 X129.57 Y100.01 E3.91696
G1 X129.59 Y100.5 E3.92568
G1 X129.59 Y114.5 E4.17454
G1 X129.55 Y115.197 E4.18695
G1 X129.431 Y115.884 E4.19935
G1 X129.233 Y116.553 E4.21175
G1 X128.961 Y117.196 E4.22416
G1 X128.617 Y117.802 E4.23655
G1 X128.205 Y118.366 E4.24896
G1 X127.732 Y118.879 E4.26136
G1 X127.204 Y119.334 E4.27375
G1 X126.627 Y119.726 E4.28615
G1 X126.008 Y120.049 E4.29857
G1 X125.357 Y120.3 E4.31097
G1 X124.681 Y120.474 E4.32338
G1 X123.99 Y120.57 E4.33578
G1 X123.5 Y120.59 E4.34449
G1 X109.5 Y120.59 E4.59336
G1 X108.803 Y120.55 E4.60577
G1 X108.116 Y120.431 E4.61816
G1 X107.447 Y120.233 E4.63056
G1 X106.804 Y119.961 E4.64298
G1 X106.198 Y119.617 E4.65536
G1 X105.634 Y119.205 E4.66778
G1 X105.121 Y118.732 E4.68018
G1 X104.666 Y118.204 E4.69257
G1 X104.274 Y117.627 E4.70497
G1 X103.951 Y117.008 E4.71738
G1 X103.7 Y116.357 E4.72979
G1 X103.526 Y115.681 E4.74219
G1 X103.43 Y114.99 E4.75459
G1 X103.41 Y114.5 E4.76331
G1 X103.41 Y104.501 E4.94105
G1 X103.432 Y103.987 E4.9502
G1 X103.489 Y103.314 E4.96221
G1 X103.664 Y102.293 E4.98062
G1 X103.839 Y101.621 E4.99296
G1 X104.053 Y100.957 E5.00536
G1 X104.201 Y100.608 E5.0121
G1 X104.494 Y99.972 E5.02455
G1 X104.822 Y99.356 E5.03696
G1 X105.019 Y99.051 E5.04341
G1 X105.414 Y98.481 E5.05574
G1 X105.844 Y97.931 E5.06815
G1 X106.093 Y97.665 E5.07462
M204 S625
M205 X6 Y6
G0 F4285.7 X106.391 Y97.96
M204 S500
M205 X5 Y5
G1 F1200 X106.901 Y97.445 E5.08751
G1 X107.402 Y96.996 E5.09947
G1 X107.676 Y96.791 E5.10555
G1 X108.244 Y96.393 E5.11788
G1 X109.093 Y95.902 E5.13531
G1 X109.727 Y95.605 E5.14776
G1 X110.673 Y95.261 E5.16565
G1 X111.345 Y95.082 E5.17801
G1 X112.31 Y94.913 E5.19543
G1 X113.007 Y94.852 E5.20787
G1 X113.501 Y94.83 E5.21666
G1 X123.5 Y94.83 E5.3944
G1 X124.172 Y94.87 E5.40636
G1 X124.835 Y94.989 E5.41834
G1 X125.478 Y95.186 E5.43029
G1 X126.094 Y95.458 E5.44226
G1 X126.673 Y95.801 E5.45423
G1 X127.208 Y96.21 E5.4662
G1 X127.69 Y96.68 E5.47816
G1 X128.113 Y97.204 E5.49013
G1 X128.472 Y97.774 E5.50211
G1 X128.76 Y98.382 E5.51407
G1 X128.974 Y99.02 E5.52603
G1 X129.11 Y99.68 E5.53801
G1 X129.17 Y100.5 E5.55262
G1 X129.17 Y114.5 E5.80149
G1 X129.13 Y115.172 E5.81345
G1 X129.011 Y115.835 E5.82543
G1 X128.814 Y116.478 E5.83738
G1 X128.542 Y117.094 E5.84935
G1 X128.199 Y117.673 E5.86131
G1 X127.79 Y118.208 E5.87329
G1 X127.32 Y118.69 E5.88525
G1 X126.796 Y119.113 E5.89722
G1 X126.226 Y119.472 E5.9092
G1 X125.618 Y119.76 E5.92116
G1 X124.98 Y119.974 E5.93312
G1 X124.32 Y120.11 E5.9451
G1 X123.5 Y120.17 E5.95971
G1 X109.5 Y120.17 E6.20858
G1 X108.828 Y120.13 E6.22054
G1 X108.165 Y120.011 E6.23252
G1 X107.522 Y119.814 E6.24447
G1 X106.906 Y119.542 E6.25644
G1 X106.327 Y119.199 E6.2684
G1 X105.792 Y118.79 E6.28037
G1 X105.31 Y118.32 E6.29234
G1 X104.887 Y117.796 E6.30431
G1 X104.528 Y117.226 E6.31629
G1 X104.24 Y116.618 E6.32825
G1 X104.026 Y115.98 E6.34021
G1 X103.89 Y115.32 E6.35219
G1 X103.83 Y114.5 E6.3668
G1 X103.83 Y104.501 E6.54454
G1 X103.85 Y104.022 E6.55307
G1 X103.907 Y103.349 E6.56507
G1 X104.07 Y102.399 E6.58221
G1 X104.245 Y101.727 E6.59455
G1 X104.582 Y100.784 E6.61235
G1 X104.875 Y100.148 E6.6248
G1 X105.365 Y99.29 E6.64236
G1 X105.76 Y98.72 E6.65469
G1 X106.391 Y97.96 E6.67225
M204 S625
M205 X6 Y6
G0 F4285.7 X106.69 Y98.256
M204 S500
M205 X5 Y5
G1 F1200 X107.2 Y97.741 E6.68513
G1 X107.917 Y97.135 E6.70182
G1 X108.485 Y96.737 E6.71415
G1 X109.271 Y96.283 E6.73028
G1 X109.905 Y95.986 E6.74273
G1 X110.781 Y95.667 E6.7593
G1 X111.453 Y95.488 E6.77166
G1 X112.346 Y95.331 E6.78778
G1 X113.043 Y95.27 E6.80022
G1 X113.501 Y95.25 E6.80837
G1 X123.5 Y95.25 E6.98611
G1 X124.147 Y95.29 E6.99763
G1 X124.783 Y95.409 E7.00913
G1 X125.4 Y95.606 E7.02065
G1 X125.989 Y95.877 E7.03217
G1 X126.539 Y96.219 E7.04369
G1 X127.043 Y96.626 E7.0552
G1 X127.493 Y97.092 E7.06672
G1 X127.882 Y97.609 E7.07822
G1 X128.205 Y98.171 E7.08974
G1 X128.456 Y98.768 E7.10125
G1 X128.632 Y99.392 E7.11278
G1 X128.729 Y100.032 E7.12428
G1 X128.75 Y100.5 E7.13261
G1 X128.75 Y114.5 E7.38148
G1 X128.71 Y115.147 E7.393
G1 X128.591 Y115.783 E7.4045
G1 X128.394 Y116.4 E7.41601
G1 X128.123 Y116.989 E7.42754
G1 X127.781 Y117.539 E7.43905
G1 X127.374 Y118.043 E7.45057
G1 X126.908 Y118.493 E7.46208
G1 X126.391 Y118.882 E7.47358
G1 X125.829 Y119.205 E7.48511
G1 X125.232 Y119.456 E7.49662
G1 X124.608 Y119.632 E7.50814
G1 X123.968 Y119.729 E7.51965
G1 X123.5 Y119.75 E7.52798
G1 X109.5 Y119.75 E7.77684
G1 X108.853 Y119.71 E7.78836
G1 X108.217 Y119.591 E7.79987
G1 X107.6 Y119.394 E7.81138
G1 X107.011 Y119.123 E7.8229
G1 X106.461 Y118.781 E7.83442
G1 X105.957 Y118.374 E7.84593
G1 X105.507 Y117.908 E7.85745
G1 X105.118 Y117.391 E7.86895
G1 X104.795 Y116.829 E7.88047
G1 X104.544 Y116.232 E7.89198
G1 X104.368 Y115.608 E7.90351
G1 X104.271 Y114.968 E7.91501
G1 X104.25 Y114.5 E7.92334
G1 X104.25 Y104.501 E8.10108
G1 X104.269 Y104.058 E8.10897
G1 X104.326 Y103.385 E8.12097
G1 X104.476 Y102.505 E8.13684
G1 X104.651 Y101.833 E8.14918
G1 X104.964 Y100.959 E8.16569
G1 X105.257 Y100.323 E8.17813
G1 X105.71 Y99.53 E8.19437
G1 X106.105 Y98.96 E8.2067
G1 X106.69 Y98.256 E8.22297
M204 S625
M205 X6 Y6
G0 F4285.7 X106.988 Y98.551
M204 S500
M205 X5 Y5
G1 F1200 X107.498 Y98.036 E8.23585
G1 X108.158 Y97.479 E8.2512
G1 X108.726 Y97.081 E8.26353
G1 X109.449 Y96.663 E8.27838
G1 X110.083 Y96.366 E8.29082
G1 X110.889 Y96.073 E8.30607
G1 X111.561 Y95.894 E8.31843
G1 X112.383 Y95.749 E8.33327
G1 X113.08 Y95.688 E8.3457
G1 X113.501 Y95.67 E8.35319
G1 X123.5 Y95.67 E8.53094
G1 X124.12 Y95.71 E8.54198
G1 X124.73 Y95.829 E8.55303
G1 X125.319 Y96.026 E8.56407
G1 X125.878 Y96.296 E8.5751
G1 X126.398 Y96.636 E8.58615
G1 X126.87 Y97.04 E8.59719
G1 X127.287 Y97.502 E8.60825
G1 X127.64 Y98.012 E8.61928
G1 X127.925 Y98.564 E8.63032
G1 X128.137 Y99.149 E8.64138
G1 X128.272 Y99.755 E8.65242
G1 X128.33 Y100.5 E8.6657
G1 X128.33 Y114.5 E8.91457
G1 X128.29 Y115.12 E8.92561
G1 X128.171 Y115.73 E8.93666
G1 X127.974 Y116.319 E8.9477
G1 X127.704 Y116.878 E8.95873
G1 X127.364 Y117.398 E8.96978
G1 X126.96 Y117.87 E8.98082
G1 X126.498 Y118.287 E8.99188
G1 X125.988 Y118.64 E9.00291
G1 X125.436 Y118.925 E9.01395
G1 X124.851 Y119.137 E9.02501
G1 X124.245 Y119.272 E9.03605
G1 X123.5 Y119.33 E9.04933
G1 X109.5 Y119.33 E9.2982
G1 X108.88 Y119.29 E9.30924
G1 X108.27 Y119.171 E9.32029
G1 X107.681 Y118.974 E9.33133
G1 X107.122 Y118.704 E9.34236
G1 X106.602 Y118.364 E9.35341
G1 X106.13 Y117.96 E9.36445
G1 X105.713 Y117.498 E9.37552
G1 X105.36 Y116.988 E9.38654
G1 X105.075 Y116.436 E9.39758
G1 X104.863 Y115.851 E9.40864
G1 X104.728 Y115.245 E9.41968
G1 X104.67 Y114.5 E9.43296
G1 X104.67 Y104.501 E9.61071
G1 X104.687 Y104.093 E9.61796
G1 X104.744 Y103.42 E9.62997
G1 X104.883 Y102.611 E9.64456
G1 X105.058 Y101.939 E9.65691
G1 X105.345 Y101.135 E9.67208
G1 X105.638 Y100.499 E9.68453
G1 X106.055 Y99.769 E9.69947
G1 X106.45 Y99.199 E9.7118
G1 X106.988 Y98.551 E9.72677
M204 S625
M205 X6 Y6
G0 F4285.7 X107.286 Y98.847
M204 S500
M205 X5 Y5
G1 F1200 X107.796 Y98.332 E9.73966
G1 X108.399 Y97.823 E9.75368
G1 X108.967 Y97.425 E9.76601
G1 X109.627 Y97.043 E9.77957
G1 X110.261 Y96.746 E9.79201
G1 X110.997 Y96.479 E9.80593
G1 X111.669 Y96.3 E9.81829
G1 X112.42 Y96.168 E9.83185
G1 X113.117 Y96.107 E9.84428
G1 X113.501 Y96.09 E9.85112
G1 X123.5 Y96.09 E10.02886
G1 X124.092 Y96.13 E10.03941
G1 X124.674 Y96.249 E10.04997
G1 X125.234 Y96.445 E10.06051
G1 X125.763 Y96.715 E10.07107
G1 X126.251 Y97.053 E10.08162
G1 X126.689 Y97.454 E10.09218
G1 X127.069 Y97.91 E10.10273
G1 X127.385 Y98.413 E10.11329
G1 X127.63 Y98.953 E10.12383
G1 X127.8 Y99.522 E10.13439
G1 X127.893 Y100.108 E10.14493
G1 X127.91 Y100.5 E10.15191
G1 X127.91 Y114.5 E10.40077
G1 X127.87 Y115.092 E10.41132
G1 X127.751 Y115.674 E10.42188
G1 X127.555 Y116.234 E10.43243
G1 X127.285 Y116.763 E10.44298
G1 X126.947 Y117.251 E10.45353
G1 X126.546 Y117.689 E10.46409
G1 X126.09 Y118.069 E10.47464
G1 X125.587 Y118.385 E10.4852
G1 X125.047 Y118.63 E10.49574
G1 X124.478 Y118.8 E10.5063
G1 X123.892 Y118.893 E10.51685
G1 X123.5 Y118.91 E10.52382
G1 X109.5 Y118.91 E10.77268
G1 X108.908 Y118.87 E10.78323
G1 X108.326 Y118.751 E10.79379
G1 X107.766 Y118.555 E10.80434
G1 X107.237 Y118.285 E10.8149
G1 X106.749 Y117.947 E10.82545
G1 X106.311 Y117.546 E10.836
G1 X105.931 Y117.09 E10.84656
G1 X105.615 Y116.587 E10.85711
G1 X105.37 Y116.047 E10.86766
G1 X105.2 Y115.478 E10.87821
G1 X105.107 Y114.892 E10.88876
G1 X105.09 Y114.5 E10.89573
G1 X105.09 Y104.501 E11.07348
G1 X105.106 Y104.129 E11.08009
G1 X105.163 Y103.456 E11.0921
G1 X105.289 Y102.717 E11.10543
G1 X105.464 Y102.045 E11.11777
G1 X105.727 Y101.311 E11.13163
G1 X106.02 Y100.675 E11.14408
G1 X106.4 Y100.008 E11.15772
G1 X106.795 Y99.438 E11.17005
G1 X107.286 Y98.847 E11.18371
M204 S625
M205 X6 Y6
G0 F4285.7 X107.585 Y99.142
M204 S500
M205 X5 Y5
G1 F1200 X108.095 Y98.627 E11.19659
G1 X108.64 Y98.167 E11.20927
G1 X109.208 Y97.769 E11.2216
G1 X109.805 Y97.424 E11.23386
G1 X110.439 Y97.127 E11.2463
G1 X111.105 Y96.884 E11.2589
G1 X111.777 Y96.705 E11.27127
G1 X112.456 Y96.586 E11.28352
G1 X113.153 Y96.525 E11.29596
G1 X113.501 Y96.51 E11.30215
G1 X123.5 Y96.51 E11.47989
G1 X124.063 Y96.55 E11.48992
G1 X124.615 Y96.669 E11.49996
G1 X125.145 Y96.865 E11.51001
G1 X125.641 Y97.133 E11.52003
G1 X126.095 Y97.469 E11.53007
G1 X126.497 Y97.866 E11.54011
G1 X126.839 Y98.315 E11.55014
G1 X127.114 Y98.809 E11.56019
G1 X127.316 Y99.336 E11.57023
G1 X127.442 Y99.886 E11.58026
G1 X127.49 Y100.5 E11.5912
G1 X127.49 Y114.5 E11.84007
G1 X127.45 Y115.063 E11.8501
G1 X127.331 Y115.615 E11.86014
G1 X127.135 Y116.145 E11.87018
G1 X126.867 Y116.641 E11.88021
G1 X126.531 Y117.095 E11.89025
G1 X126.134 Y117.497 E11.90029
G1 X125.685 Y117.839 E11.91032
G1 X125.191 Y118.114 E11.92037
G1 X124.664 Y118.316 E11.9304
G1 X124.114 Y118.442 E11.94043
G1 X123.5 Y118.49 E11.95138
G1 X109.5 Y118.49 E12.20025
G1 X108.937 Y118.45 E12.21028
G1 X108.385 Y118.331 E12.22032
