;START_OF_HEADER
;HEADER_VERSION:0.1
;FLAVOR:Griffin
;GENERATOR.NAME:Cura_SteamEngine
;GENERATOR.VERSION:4.1.0
;GENERATOR.BUILD_DATE:2019-05-28
;TARGET_MACHINE.NAME:Ultimaker 3 Extended
;EXTRUDER_TRAIN.0.INITIAL_TEMPERATURE:210
;EXTRUDER_TRAIN.0.MATERIAL.VOLUME_USED:585
;EXTRUDER_TRAIN.0.MATERIAL.GUID:e509f649-9fe6-4b14-ac45-d441438cb4ef
;EXTRUDER_TRAIN.0.NOZZLE.DIAMETER:0.4
;EXTRUDER_TRAIN.0.NOZZLE.NAME:AA 0.4
;BUILD_PLATE.TYPE:glass
;BUILD_PLATE.INITIAL_TEMPERATURE:60
;BUILD_VOLUME.TEMPERATURE:35
;PRINT.TIME:324
;PRINT.GROUPS:1
;PRINT.SIZE.MIN.X:9
;PRINT.SIZE.MIN.Y:6
;PRINT.SIZE.MIN.Z:0.27
;PRINT.SIZE.MAX.X:130.43
;PRINT.SIZE.MAX.Y:121.43
;PRINT.SIZE.MAX.Z:3.87
;END_OF_HEADER
;Generated with Cura_SteamEngine 4.1.0
T0
M82 ;absolute extrusion mode

G92 E0
M109 S210
G0 F15000 X9 Y6 Z2
G280
G1 F1500 E-6.5
;LAYER_COUNT:19
;LAYER:0
M107
M204 S625
M205 X6 Y6
G0 F4285.7 X105.479 Y97.094 Z0.27
M204 S500
M205 X5 Y5
;TYPE:SKIRT
G1 F1500 E0
G1 F1200 X105.986 Y96.579 E0.01285
G1 X106.535 Y96.078 E0.02606
G1 X106.943 Y95.769 E0.03516
G1 X107.51 Y95.371 E0.04747
G1 X108.141 Y94.977 E0.06069
G1 X108.538 Y94.773 E0.06863
G1 X109.175 Y94.473 E0.08114
G1 X110.042 Y94.134 E0.09769
G1 X110.381 Y94.027 E0.10401
G1 X111.267 Y93.811 E0.12022
G1 X111.944 Y93.692 E0.13244
G1 X113.03 Y93.588 E0.15183
G1 X114.062 Y93.571 E0.17018
G1 X114.176 Y93.57 E0.17221
G1 X123.377 Y93.57 E0.33576
G1 X124.12 Y93.61 E0.34899
G1 X124.855 Y93.729 E0.36223
G1 X125.573 Y93.927 E0.37547
G1 X126.265 Y94.2 E0.38869
G1 X126.924 Y94.546 E0.40192
G1 X127.542 Y94.961 E0.41515
G1 X128.112 Y95.44 E0.42839
G1 X128.627 Y95.977 E0.44161
G1 X129.082 Y96.566 E0.45484
G1 X129.471 Y97.2 E0.46807
G1 X129.79 Y97.873 E0.48131
G1 X130.035 Y98.576 E0.49454
G1 X130.203 Y99.301 E0.50777
G1 X130.292 Y100.04 E0.521
G1 X130.307 Y100.439 E0.5281
G1 X130.43 Y114.316 E0.77478
G1 X130.396 Y115.059 E0.78801
G1 X130.283 Y115.795 E0.80124
G1 X130.092 Y116.514 E0.81447
G1 X129.825 Y117.209 E0.8277
G1 X129.485 Y117.871 E0.84093
G1 X129.076 Y118.493 E0.85416
G1 X128.4 Y119.277 E0.87256
G1 X128.277 Y119.4 E0.87566
G1 X127.723 Y119.898 E0.8889
G1 X127.119 Y120.333 E0.90213
G1 X126.472 Y120.7 E0.91535
G1 X125.79 Y120.997 E0.92858
G1 X125.079 Y121.218 E0.94181
G1 X124.349 Y121.362 E0.95504
G1 X123.377 Y121.43 E0.97236
G1 X109.623 Y121.43 E1.21685
G1 X108.88 Y121.39 E1.23008
G1 X108.145 Y121.271 E1.24331
G1 X107.427 Y121.073 E1.25655
G1 X106.735 Y120.8 E1.26977
G1 X106.076 Y120.454 E1.283
G1 X105.458 Y120.039 E1.29624
G1 X104.723 Y119.4 E1.31355
G1 X104.6 Y119.277 E1.31664
G1 X104.102 Y118.723 E1.32988
G1 X103.667 Y118.119 E1.34312
G1 X103.3 Y117.472 E1.35634
G1 X103.003 Y116.79 E1.36956
G1 X102.782 Y116.079 E1.3828
G1 X102.638 Y115.349 E1.39602
G1 X102.57 Y114.377 E1.41334
G1 X102.57 Y104.494 E1.58902
G1 X102.595 Y103.905 E1.5995
G1 X102.651 Y103.248 E1.61122
G1 X102.754 Y102.511 E1.62445
G1 X102.847 Y102.102 E1.63191
G1 X103.02 Y101.433 E1.64419
G1 X103.244 Y100.723 E1.65742
G1 X103.428 Y100.284 E1.66589
G1 X103.72 Y99.646 E1.67836
G1 X104.065 Y98.987 E1.69158
G1 X104.317 Y98.595 E1.69987
G1 X104.713 Y98.021 E1.71226
G1 X105.168 Y97.432 E1.72549
G1 X105.479 Y97.094 E1.73366
M204 S625
M205 X6 Y6
G0 F4285.7 X105.778 Y97.389
M204 S500
M205 X5 Y5
G1 F1200 X106.285 Y96.874 E1.7465
G1 X106.819 Y96.389 E1.75933
G1 X107.184 Y96.113 E1.76746
G1 X107.751 Y95.715 E1.77977
G1 X108.363 Y95.334 E1.79259
G1 X108.717 Y95.153 E1.79966
G1 X109.354 Y94.853 E1.81217
G1 X110.169 Y94.535 E1.82772
G1 X110.508 Y94.428 E1.83404
G1 X111.34 Y94.224 E1.84927
G1 X112.017 Y94.105 E1.86149
G1 X113.037 Y94.008 E1.8797
G1 X114.069 Y93.991 E1.89805
G1 X114.176 Y93.99 E1.89995
G1 X123.377 Y93.99 E2.06351
G1 X124.097 Y94.03 E2.07633
G1 X124.809 Y94.149 E2.08916
G1 X125.503 Y94.347 E2.10199
G1 X126.17 Y94.62 E2.1148
G1 X126.804 Y94.965 E2.12763
G1 X127.395 Y95.378 E2.14045
G1 X127.937 Y95.854 E2.15327
G1 X128.423 Y96.387 E2.16609
G1 X128.847 Y96.971 E2.17892
G1 X129.204 Y97.598 E2.19175
G1 X129.49 Y98.26 E2.20456
G1 X129.7 Y98.95 E2.21739
G1 X129.832 Y99.659 E2.23021
G1 X129.887 Y100.442 E2.24416
G1 X130.01 Y114.319 E2.49084
G1 X129.976 Y115.04 E2.50368
G1 X129.863 Y115.752 E2.51649
G1 X129.672 Y116.448 E2.52932
G1 X129.405 Y117.118 E2.54214
G1 X129.065 Y117.755 E2.55498
G1 X128.657 Y118.35 E2.5678
G1 X128.103 Y118.98 E2.58271
G1 X127.98 Y119.103 E2.58581
G1 X127.443 Y119.584 E2.59862
G1 X126.855 Y120.003 E2.61146
G1 X126.225 Y120.354 E2.62427
G1 X125.56 Y120.633 E2.63709
G1 X124.868 Y120.837 E2.64992
G1 X124.158 Y120.963 E2.66274
G1 X123.377 Y121.01 E2.67664
G1 X109.623 Y121.01 E2.92114
G1 X108.903 Y120.97 E2.93395
G1 X108.191 Y120.851 E2.94679
G1 X107.497 Y120.653 E2.95961
G1 X106.83 Y120.38 E2.97243
G1 X106.196 Y120.035 E2.98526
G1 X105.605 Y119.622 E2.99807
G1 X105.02 Y119.103 E3.01197
G1 X104.897 Y118.98 E3.01507
G1 X104.416 Y118.443 E3.02788
G1 X103.997 Y117.855 E3.04072
G1 X103.646 Y117.225 E3.05354
G1 X103.367 Y116.56 E3.06636
G1 X103.163 Y115.868 E3.07918
G1 X103.037 Y115.158 E3.092
G1 X102.99 Y114.377 E3.10591
G1 X102.99 Y104.494 E3.28159
G1 X103.014 Y103.941 E3.29143
G1 X103.07 Y103.284 E3.30315
G1 X103.171 Y102.57 E3.31596
G1 X103.253 Y102.207 E3.32258
G1 X103.426 Y101.538 E3.33486
G1 X103.645 Y100.851 E3.34768
G1 X103.81 Y100.459 E3.35524
G1 X104.102 Y99.821 E3.36771
G1 X104.438 Y99.182 E3.38055
G1 X104.662 Y98.833 E3.38792
G1 X105.058 Y98.259 E3.40031
G1 X105.5 Y97.689 E3.41314
G1 X105.778 Y97.389 E3.42041
M204 S625
M205 X6 Y6
G0 F4285.7 X106.077 Y97.684
M204 S500
M205 X5 Y5
G1 F1200 X106.584 Y97.169 E3.43325
G1 X107.101 Y96.7 E3.44566
G1 X107.425 Y96.456 E3.45287
G1 X107.992 Y96.058 E3.46519
G1 X108.896 Y95.533 E3.48377
G1 X109.533 Y95.233 E3.49628
G1 X110.295 Y94.935 E3.51083
G1 X110.634 Y94.828 E3.51715
G1 X111.413 Y94.638 E3.5314
G1 X112.09 Y94.519 E3.54362
G1 X113.044 Y94.428 E3.56066
G1 X114.076 Y94.411 E3.579
G1 X114.176 Y94.41 E3.58078
G1 X123.377 Y94.41 E3.74434
G1 X124.074 Y94.45 E3.75675
G1 X124.761 Y94.569 E3.76914
G1 X125.43 Y94.767 E3.78154
G1 X126.073 Y95.039 E3.79395
G1 X126.679 Y95.383 E3.80634
G1 X127.243 Y95.795 E3.81876
G1 X127.756 Y96.268 E3.83116
G1 X128.211 Y96.796 E3.84355
G1 X128.603 Y97.373 E3.85595
G1 X128.926 Y97.992 E3.86836
G1 X129.177 Y98.643 E3.88076
G1 X129.351 Y99.319 E3.89317
G1 X129.447 Y100.01 E3.90557
G1 X129.467 Y100.446 E3.91333
G1 X129.59 Y114.323 E4.16002
G1 X129.556 Y115.02 E4.17242
G1 X129.443 Y115.708 E4.18482
G1 X129.251 Y116.379 E4.19722
G1 X128.985 Y117.024 E4.20963
G1 X128.646 Y117.634 E4.22203
G1 X128.24 Y118.201 E4.23443
G1 X127.806 Y118.683 E4.24596
G1 X127.683 Y118.806 E4.24905
G1 X127.162 Y119.271 E4.26146
G1 X126.592 Y119.672 E4.27385
G1 X125.979 Y120.006 E4.28626
G1 X125.332 Y120.268 E4.29867
G1 X124.66 Y120.453 E4.31106
G1 X123.971 Y120.561 E4.32346
G1 X123.377 Y120.59 E4.33403
G1 X109.623 Y120.59 E4.57852
G1 X108.926 Y120.55 E4.59093
G1 X108.239 Y120.431 E4.60332
G1 X107.57 Y120.233 E4.61572
G1 X106.927 Y119.961 E4.62813
G1 X106.321 Y119.617 E4.64052
G1 X105.757 Y119.205 E4.65294
G1 X105.317 Y118.806 E4.6635
G1 X105.194 Y118.683 E4.66659
G1 X104.729 Y118.162 E4.679
G1 X104.328 Y117.592 E4.69139
G1 X103.994 Y116.979 E4.7038
G1 X103.732 Y116.332 E4.71621
G1 X103.547 Y115.66 E4.7286
G1 X103.439 Y114.971 E4.74099
G1 X103.41 Y114.377 E4.75157
G1 X103.41 Y104.494 E4.92725
G1 X103.432 Y103.977 E4.93644
G1 X103.488 Y103.32 E4.94817
G1 X103.66 Y102.312 E4.96634
G1 X103.833 Y101.643 E4.97863
G1 X104.046 Y100.979 E4.99102
G1 X104.191 Y100.634 E4.99767
G1 X104.483 Y99.996 E5.01015
G1 X104.81 Y99.379 E5.02256
G1 X105.008 Y99.072 E5.02905
G1 X105.404 Y98.498 E5.04145
G1 X105.833 Y97.947 E5.05386
G1 X106.077 Y97.684 E5.06024
M204 S625
M205 X6 Y6
G0 F4285.7 X106.376 Y97.978
M204 S500
M205 X5 Y5
G1 F1200 X106.883 Y97.463 E5.07309
G1 X107.383 Y97.012 E5.08506
G1 X107.666 Y96.8 E5.09134
G1 X108.233 Y96.402 E5.10366
G1 X109.075 Y95.913 E5.12096
G1 X109.712 Y95.613 E5.13348
G1 X110.421 Y95.336 E5.14701
G1 X110.76 Y95.229 E5.15333
G1 X111.485 Y95.052 E5.1666
G1 X112.162 Y94.933 E5.17881
G1 X113.051 Y94.848 E5.19469
G1 X114.083 Y94.831 E5.21304
G1 X114.176 Y94.83 E5.21469
G1 X123.377 Y94.83 E5.37825
G1 X124.049 Y94.87 E5.39021
G1 X124.712 Y94.989 E5.40219
G1 X125.355 Y95.186 E5.41414
G1 X125.971 Y95.458 E5.42611
G1 X126.55 Y95.801 E5.43807
G1 X127.085 Y96.21 E5.45005
G1 X127.567 Y96.68 E5.46201
G1 X127.99 Y97.204 E5.47398
G1 X128.349 Y97.774 E5.48596
G1 X128.637 Y98.382 E5.49792
G1 X128.851 Y99.02 E5.50988
G1 X128.987 Y99.68 E5.52186
G1 X129.047 Y100.45 E5.53559
G1 X129.17 Y114.327 E5.78227
G1 X129.136 Y114.999 E5.79423
G1 X129.022 Y115.663 E5.80621
G1 X128.831 Y116.308 E5.81817
G1 X128.565 Y116.926 E5.83013
G1 X128.227 Y117.509 E5.84211
G1 X127.822 Y118.047 E5.85408
G1 X127.509 Y118.386 E5.86228
G1 X127.386 Y118.509 E5.86537
G1 X126.883 Y118.956 E5.87733
G1 X126.33 Y119.34 E5.8893
G1 X125.735 Y119.656 E5.90128
G1 X125.108 Y119.899 E5.91323
G1 X124.456 Y120.066 E5.92519
G1 X123.788 Y120.155 E5.93717
G1 X123.377 Y120.17 E5.94448
G1 X109.623 Y120.17 E6.18897
G1 X108.951 Y120.13 E6.20094
G1 X108.288 Y120.011 E6.21291
G1 X107.645 Y119.814 E6.22487
G1 X107.029 Y119.542 E6.23684
G1 X106.45 Y119.199 E6.2488
G1 X105.915 Y118.79 E6.26077
G1 X105.614 Y118.509 E6.26809
G1 X105.491 Y118.386 E6.27118
G1 X105.044 Y117.883 E6.28315
G1 X104.66 Y117.33 E6.29511
G1 X104.344 Y116.735 E6.30709
G1 X104.101 Y116.108 E6.31904
G1 X103.934 Y115.456 E6.33101
G1 X103.845 Y114.788 E6.34299
G1 X103.83 Y114.377 E6.3503
G1 X103.83 Y104.494 E6.52598
G1 X103.85 Y104.012 E6.53455
G1 X103.906 Y103.355 E6.54627
G1 X104.067 Y102.417 E6.56319
G1 X104.24 Y101.748 E6.57547
G1 X104.573 Y100.808 E6.5932
G1 X104.865 Y100.17 E6.60567
G1 X105.354 Y99.31 E6.62326
G1 X105.75 Y98.736 E6.63566
G1 X106.376 Y97.978 E6.65313
M204 S625
M205 X6 Y6
G0 F4285.7 X106.676 Y98.273
M204 S500
M205 X5 Y5
G1 F1200 X107.183 Y97.758 E6.66598
G1 X107.908 Y97.144 E6.68287
G1 X108.475 Y96.746 E6.69518
G1 X109.254 Y96.293 E6.7112
G1 X109.891 Y95.993 E6.72371
G1 X110.548 Y95.736 E6.73626
G1 X110.887 Y95.629 E6.74257
G1 X111.558 Y95.465 E6.75485
G1 X112.235 Y95.346 E6.76707
G1 X113.058 Y95.268 E6.78177
G1 X114.09 Y95.251 E6.80011
G1 X114.176 Y95.25 E6.80164
G1 X123.377 Y95.25 E6.9652
G1 X124.024 Y95.29 E6.97672
G1 X124.66 Y95.409 E6.98822
G1 X125.277 Y95.606 E6.99974
G1 X125.866 Y95.877 E7.01126
G1 X126.416 Y96.219 E7.02278
G1 X126.92 Y96.626 E7.03429
G1 X127.37 Y97.092 E7.04581
G1 X127.759 Y97.609 E7.05731
G1 X128.082 Y98.171 E7.06883
G1 X128.333 Y98.768 E7.08034
G1 X128.509 Y99.392 E7.09187
G1 X128.606 Y100.032 E7.10337
G1 X128.627 Y100.453 E7.11087
G1 X128.75 Y114.33 E7.35755
G1 X128.716 Y114.977 E7.36907
G1 X128.602 Y115.615 E7.38059
G1 X128.411 Y116.234 E7.39211
G1 X128.145 Y116.825 E7.40363
G1 X127.808 Y117.378 E7.41514
G1 X127.212 Y118.089 E7.43163
G1 X127.089 Y118.212 E7.43472
G1 X126.604 Y118.641 E7.44623
G1 X126.069 Y119.007 E7.45776
G1 X125.494 Y119.304 E7.46926
G1 X124.886 Y119.528 E7.48078
G1 X124.255 Y119.676 E7.4923
G1 X123.377 Y119.75 E7.50796
G1 X109.623 Y119.75 E7.75245
G1 X108.976 Y119.71 E7.76398
G1 X108.34 Y119.591 E7.77548
G1 X107.723 Y119.394 E7.78699
G1 X107.134 Y119.123 E7.79852
G1 X106.584 Y118.781 E7.81003
G1 X105.911 Y118.212 E7.82569
G1 X105.788 Y118.089 E7.82879
G1 X105.359 Y117.604 E7.8403
G1 X104.993 Y117.069 E7.85182
G1 X104.696 Y116.494 E7.86332
G1 X104.472 Y115.886 E7.87484
G1 X104.324 Y115.255 E7.88636
G1 X104.25 Y114.377 E7.90203
G1 X104.25 Y104.494 E8.0777
G1 X104.269 Y104.048 E8.08564
G1 X104.325 Y103.391 E8.09736
G1 X104.473 Y102.523 E8.11301
G1 X104.646 Y101.854 E8.1253
G1 X104.955 Y100.983 E8.14173
G1 X105.247 Y100.345 E8.1542
G1 X105.7 Y99.549 E8.17048
G1 X106.096 Y98.975 E8.18287
G1 X106.676 Y98.273 E8.19906
M204 S625
M205 X6 Y6
G0 F4285.7 X106.975 Y98.568
M204 S500
M205 X5 Y5
G1 F1200 X107.482 Y98.053 E8.21191
G1 X108.149 Y97.488 E8.22745
G1 X108.716 Y97.09 E8.23976
G1 X109.433 Y96.673 E8.2545
G1 X110.07 Y96.373 E8.26702
G1 X110.674 Y96.137 E8.27855
G1 X111.013 Y96.03 E8.28487
G1 X111.631 Y95.879 E8.29618
G1 X112.308 Y95.76 E8.30839
G1 X113.064 Y95.688 E8.32189
G1 X114.096 Y95.671 E8.34024
G1 X114.176 Y95.67 E8.34166
G1 X123.377 Y95.67 E8.50522
G1 X123.997 Y95.71 E8.51626
G1 X124.607 Y95.829 E8.52731
G1 X125.196 Y96.026 E8.53835
G1 X125.755 Y96.296 E8.54939
G1 X126.275 Y96.636 E8.56043
G1 X126.747 Y97.04 E8.57148
G1 X127.164 Y97.502 E8.58254
G1 X127.517 Y98.012 E8.59356
G1 X127.802 Y98.564 E8.60461
G1 X128.014 Y99.149 E8.61567
G1 X128.149 Y99.755 E8.6267
G1 X128.207 Y100.457 E8.63923
G1 X128.33 Y114.334 E8.88591
G1 X128.295 Y114.955 E8.89697
G1 X128.182 Y115.565 E8.908
G1 X127.99 Y116.156 E8.91904
G1 X127.725 Y116.718 E8.93009
G1 X127.389 Y117.241 E8.94114
G1 X126.915 Y117.792 E8.95406
G1 X126.792 Y117.915 E8.95715
G1 X126.326 Y118.325 E8.96818
G1 X125.81 Y118.672 E8.97924
G1 X125.254 Y118.95 E8.99029
G1 X124.668 Y119.154 E9.00132
G1 X124.06 Y119.282 E9.01236
G1 X123.377 Y119.33 E9.02453
G1 X109.623 Y119.33 E9.26902
G1 X109.003 Y119.29 E9.28007
G1 X108.393 Y119.171 E9.29111
G1 X107.804 Y118.974 E9.30216
G1 X107.245 Y118.704 E9.31319
G1 X106.725 Y118.364 E9.32423
G1 X106.208 Y117.915 E9.33641
G1 X106.085 Y117.792 E9.3395
G1 X105.675 Y117.326 E9.35053
G1 X105.328 Y116.81 E9.36159
G1 X105.05 Y116.254 E9.37264
G1 X104.846 Y115.668 E9.38367
G1 X104.718 Y115.06 E9.39471
G1 X104.67 Y114.377 E9.40688
G1 X104.67 Y104.494 E9.58256
G1 X104.687 Y104.084 E9.58986
G1 X104.743 Y103.427 E9.60158
G1 X104.88 Y102.628 E9.61599
G1 X105.053 Y101.959 E9.62827
G1 X105.337 Y101.158 E9.64338
G1 X105.629 Y100.52 E9.65585
G1 X106.045 Y99.787 E9.67083
G1 X106.441 Y99.213 E9.68323
G1 X106.975 Y98.568 E9.69811
M204 S625
M205 X6 Y6
G0 F4285.7 X107.274 Y98.862
M204 S500
M205 X5 Y5
G1 F1200 X107.781 Y98.347 E9.71096
G1 X108.39 Y97.831 E9.72515
G1 X108.957 Y97.433 E9.73746
G1 X109.612 Y97.053 E9.75092
G1 X110.249 Y96.753 E9.76344
G1 X110.801 Y96.538 E9.77397
G1 X111.14 Y96.431 E9.78029
G1 X111.704 Y96.293 E9.79061
G1 X112.381 Y96.174 E9.80283
G1 X113.071 Y96.108 E9.81515
G1 X114.103 Y96.091 E9.8335
G1 X114.176 Y96.09 E9.8348
G1 X123.377 Y96.09 E9.99835
G1 X123.969 Y96.13 E10.0089
G1 X124.551 Y96.249 E10.01946
G1 X125.111 Y96.445 E10.03001
G1 X125.64 Y96.715 E10.04056
G1 X126.128 Y97.053 E10.05112
G1 X126.566 Y97.454 E10.06167
G1 X126.946 Y97.91 E10.07222
G1 X127.262 Y98.413 E10.08278
G1 X127.507 Y98.953 E10.09332
G1 X127.677 Y99.522 E10.10388
G1 X127.77 Y100.108 E10.11443
G1 X127.787 Y100.461 E10.12071
G1 X127.91 Y114.338 E10.3674
G1 X127.875 Y114.931 E10.37796
G1 X127.761 Y115.513 E10.3885
G1 X127.57 Y116.075 E10.39905
G1 X127.305 Y116.606 E10.4096
G1 X126.971 Y117.097 E10.42015
G1 X126.618 Y117.495 E10.42961
G1 X126.495 Y117.618 E10.4327
G1 X126.048 Y118.009 E10.44326
G1 X125.553 Y118.336 E10.4538
G1 X125.018 Y118.593 E10.46436
G1 X124.453 Y118.777 E10.47492
G1 X123.869 Y118.882 E10.48547
G1 X123.377 Y118.91 E10.49423
G1 X109.623 Y118.91 E10.73872
G1 X109.031 Y118.87 E10.74926
G1 X108.449 Y118.751 E10.75982
G1 X107.889 Y118.555 E10.77037
G1 X107.36 Y118.285 E10.78093
G1 X106.872 Y117.947 E10.79148
G1 X106.505 Y117.618 E10.80024
G1 X106.382 Y117.495 E10.80333
G1 X105.991 Y117.048 E10.81389
G1 X105.664 Y116.553 E10.82444
G1 X105.407 Y116.018 E10.83499
G1 X105.223 Y115.453 E10.84555
G1 X105.118 Y114.869 E10.8561
G1 X105.09 Y114.377 E10.86486
G1 X105.09 Y104.494 E11.04054
G1 X105.106 Y104.119 E11.04721
G1 X105.162 Y103.462 E11.05893
G1 X105.286 Y102.733 E11.07207
G1 X105.459 Y102.064 E11.08436
G1 X105.719 Y101.333 E11.09815
G1 X106.011 Y100.695 E11.11062
G1 X106.391 Y100.026 E11.1243
G1 X106.787 Y99.452 E11.13669
G1 X107.274 Y98.862 E11.15029
M204 S625
M205 X6 Y6
G0 F4285.7 X107.574 Y99.157
M204 S500
M205 X5 Y5
G1 F1200 X108.081 Y98.642 E11.16314
G1 X108.632 Y98.175 E11.17598
G1 X109.199 Y97.777 E11.18829
G1 X109.791 Y97.433 E11.20046
G1 X110.428 Y97.133 E11.21298
G1 X110.927 Y96.938 E11.2225
G1 X111.266 Y96.831 E11.22882
G1 X111.776 Y96.706 E11.23816
G1 X112.453 Y96.587 E11.25038
G1 X113.078 Y96.528 E11.26154
G1 X114.11 Y96.511 E11.27988
G1 X114.176 Y96.51 E11.28106
G1 X123.377 Y96.51 E11.44461
