;START_OF_HEADER
;HEADER_VERSION:0.1
;FLAVOR:Griffin
;GENERATOR.NAME:Cura_SteamEngine
;GENERATOR.VERSION:4.1.0
;GENERATOR.BUILD_DATE:2019-05-28
;TARGET_MACHINE.NAME:Ultimaker 3 Extended
;EXTRUDER_TRAIN.0.INITIAL_TEMPERATURE:210
;EXTRUDER_TRAIN.0.MATERIAL.VOLUME_USED:3092
;EXTRUDER_TRAIN.0.MATERIAL.GUID:e509f649-9fe6-4b14-ac45-d441438cb4ef
;EXTRUDER_TRAIN.0.NOZZLE.DIAMETER:0.4
;EXTRUDER_TRAIN.0.NOZZLE.NAME:AA 0.4
;BUILD_PLATE.TYPE:glass
;BUILD_PLATE.INITIAL_TEMPERATURE:60
;BUILD_VOLUME.TEMPERATURE:35
;PRINT.TIME:1228
;PRINT.GROUPS:1
;PRINT.SIZE.MIN.X:9
;PRINT.SIZE.MIN.Y:6
;PRINT.SIZE.MIN.Z:0.27
;PRINT.SIZE.MAX.X:133.43
;PRINT.SIZE.MAX.Y:124.43
;PRINT.SIZE.MAX.Z:19.87
;END_OF_HEADER
;Generated with Cura_SteamEngine 4.1.0
T0
M82 ;absolute extrusion mode

G92 E0
M109 S210
G0 F15000 X9 Y6 Z2
G280
G1 F1500 E-6.5
;LAYER_COUNT:99
;LAYER:0
M107
M204 S625
M205 X6 Y6
G0 F4285.7 X101.44 Y92.765 Z0.27
M204 S500
M205 X5 Y5
;TYPE:SKIRT
G1 F1500 E0
G1 F1200 X101.977 Y92.25 E0.01323
G1 X102.566 Y91.795 E0.02646
G1 X103.2 Y91.406 E0.03968
G1 X103.873 Y91.087 E0.05292
G1 X104.576 Y90.842 E0.06615
G1 X105.301 Y90.674 E0.07938
G1 X106.04 Y90.585 E0.09261
G1 X106.5 Y90.57 E0.10079
G1 X126.5 Y90.57 E0.45631
G1 X127.243 Y90.61 E0.46954
G1 X127.978 Y90.729 E0.48277
G1 X128.696 Y90.927 E0.49601
G1 X129.388 Y91.2 E0.50924
G1 X130.047 Y91.546 E0.52247
G1 X130.665 Y91.961 E0.5357
G1 X131.235 Y92.44 E0.54894
G1 X131.75 Y92.977 E0.56216
G1 X132.205 Y93.566 E0.57539
G1 X132.594 Y94.2 E0.58861
G1 X132.913 Y94.873 E0.60185
G1 X133.158 Y95.576 E0.61509
G1 X133.326 Y96.301 E0.62832
G1 X133.415 Y97.04 E0.64155
G1 X133.43 Y97.5 E0.64973
G1 X133.43 Y117.5 E1.00525
G1 X133.39 Y118.243 E1.01848
G1 X133.271 Y118.978 E1.03171
G1 X133.073 Y119.696 E1.04495
G1 X132.8 Y120.388 E1.05817
G1 X132.454 Y121.047 E1.0714
G1 X132.039 Y121.665 E1.08464
G1 X131.56 Y122.235 E1.09787
G1 X131.023 Y122.75 E1.1111
G1 X130.434 Y123.205 E1.12433
G1 X129.8 Y123.594 E1.13755
G1 X129.127 Y123.913 E1.15079
G1 X128.424 Y124.158 E1.16402
G1 X127.699 Y124.326 E1.17725
G1 X126.96 Y124.415 E1.19048
G1 X126.5 Y124.43 E1.19867
G1 X106.5 Y124.43 E1.55418
G1 X105.757 Y124.39 E1.56741
G1 X105.022 Y124.271 E1.58065
G1 X104.304 Y124.073 E1.59389
G1 X103.612 Y123.8 E1.60711
G1 X102.953 Y123.454 E1.62034
G1 X102.335 Y123.039 E1.63357
G1 X101.765 Y122.56 E1.64681
G1 X101.25 Y122.023 E1.66003
G1 X100.795 Y121.434 E1.67326
G1 X100.406 Y120.8 E1.68649
G1 X100.087 Y120.127 E1.69973
G1 X99.842 Y119.424 E1.71296
G1 X99.674 Y118.699 E1.72619
G1 X99.585 Y117.96 E1.73942
G1 X99.57 Y117.5 E1.7476
G1 X99.57 Y97.5 E2.10312
G1 X99.61 Y96.757 E2.11635
G1 X99.729 Y96.022 E2.12958
G1 X99.927 Y95.304 E2.14282
G1 X100.2 Y94.612 E2.15605
G1 X100.546 Y93.953 E2.16928
G1 X100.961 Y93.335 E2.18251
G1 X101.44 Y92.765 E2.19574
M204 S625
M205 X6 Y6
G0 F4285.7 X101.854 Y92.94
M204 S500
M205 X5 Y5
G1 F1200 X102.387 Y92.454 E2.20857
G1 X102.971 Y92.03 E2.2214
G1 X103.598 Y91.673 E2.23422
G1 X104.26 Y91.387 E2.24704
G1 X104.95 Y91.177 E2.25986
G1 X105.659 Y91.045 E2.27268
G1 X106.5 Y90.99 E2.28766
G1 X126.5 Y90.99 E2.64318
G1 X127.22 Y91.03 E2.656
G1 X127.932 Y91.149 E2.66883
G1 X128.626 Y91.347 E2.68166
G1 X129.293 Y91.62 E2.69447
G1 X129.927 Y91.965 E2.7073
G1 X130.518 Y92.378 E2.72012
G1 X131.06 Y92.854 E2.73294
G1 X131.546 Y93.387 E2.74576
G1 X131.97 Y93.971 E2.75859
G1 X132.327 Y94.598 E2.77142
G1 X132.613 Y95.26 E2.78424
G1 X132.823 Y95.95 E2.79706
G1 X132.955 Y96.659 E2.80988
G1 X133.01 Y97.5 E2.82486
G1 X133.01 Y117.5 E3.18038
G1 X132.97 Y118.22 E3.1932
G1 X132.851 Y118.932 E3.20603
G1 X132.653 Y119.626 E3.21886
G1 X132.38 Y120.293 E3.23167
G1 X132.035 Y120.927 E3.2445
G1 X131.622 Y121.518 E3.25732
G1 X131.146 Y122.06 E3.27014
G1 X130.613 Y122.546 E3.28296
G1 X130.029 Y122.97 E3.29579
G1 X129.402 Y123.327 E3.30862
G1 X128.74 Y123.613 E3.32143
G1 X128.05 Y123.823 E3.33426
G1 X127.341 Y123.955 E3.34707
G1 X126.5 Y124.01 E3.36206
G1 X106.5 Y124.01 E3.71758
G1 X105.78 Y123.97 E3.73039
G1 X105.068 Y123.851 E3.74323
G1 X104.374 Y123.653 E3.75606
G1 X103.707 Y123.38 E3.76887
G1 X103.073 Y123.035 E3.7817
G1 X102.482 Y122.622 E3.79451
G1 X101.94 Y122.146 E3.80734
G1 X101.454 Y121.613 E3.82016
G1 X101.03 Y121.029 E3.83299
G1 X100.673 Y120.402 E3.84581
G1 X100.387 Y119.74 E3.85863
G1 X100.177 Y119.05 E3.87145
G1 X100.045 Y118.341 E3.88427
G1 X99.99 Y117.5 E3.89925
G1 X99.99 Y97.5 E4.25477
G1 X100.03 Y96.78 E4.26759
G1 X100.149 Y96.068 E4.28042
G1 X100.347 Y95.374 E4.29325
G1 X100.62 Y94.707 E4.30606
G1 X100.965 Y94.073 E4.31889
G1 X101.378 Y93.482 E4.33171
G1 X101.854 Y92.94 E4.34453
M204 S625
M205 X6 Y6
G0 F4285.7 X102.268 Y93.121
M204 S500
M205 X5 Y5
G1 F1200 X102.796 Y92.666 E4.35692
G1 X103.373 Y92.274 E4.36932
G1 X103.992 Y91.951 E4.38173
G1 X104.643 Y91.7 E4.39414
G1 X105.319 Y91.526 E4.40655
G1 X106.01 Y91.43 E4.41895
G1 X106.5 Y91.41 E4.42766
G1 X126.5 Y91.41 E4.78318
G1 X127.197 Y91.45 E4.79559
G1 X127.884 Y91.569 E4.80799
G1 X128.553 Y91.767 E4.82039
G1 X129.196 Y92.039 E4.8328
G1 X129.802 Y92.383 E4.84519
G1 X130.366 Y92.795 E4.8576
G1 X130.879 Y93.268 E4.87001
G1 X131.334 Y93.796 E4.8824
G1 X131.726 Y94.373 E4.8948
G1 X132.049 Y94.992 E4.90721
G1 X132.3 Y95.643 E4.91961
G1 X132.474 Y96.319 E4.93202
G1 X132.57 Y97.01 E4.94442
G1 X132.59 Y97.5 E4.95314
G1 X132.59 Y117.5 E5.30866
G1 X132.55 Y118.197 E5.32107
G1 X132.431 Y118.884 E5.33346
G1 X132.233 Y119.553 E5.34586
G1 X131.961 Y120.196 E5.35827
G1 X131.617 Y120.802 E5.37066
G1 X131.205 Y121.366 E5.38308
G1 X130.732 Y121.879 E5.39548
G1 X130.204 Y122.334 E5.40787
G1 X129.627 Y122.726 E5.42027
G1 X129.008 Y123.049 E5.43268
G1 X128.357 Y123.3 E5.44508
G1 X127.681 Y123.474 E5.45749
G1 X126.99 Y123.57 E5.46989
G1 X126.5 Y123.59 E5.47861
G1 X106.5 Y123.59 E5.83413
G1 X105.803 Y123.55 E5.84654
G1 X105.116 Y123.431 E5.85893
G1 X104.447 Y123.233 E5.87134
G1 X103.804 Y122.961 E5.88375
G1 X103.198 Y122.617 E5.89613
G1 X102.634 Y122.205 E5.90855
G1 X102.121 Y121.732 E5.92095
G1 X101.666 Y121.204 E5.93334
G1 X101.274 Y120.627 E5.94574
G1 X100.951 Y120.008 E5.95815
G1 X100.7 Y119.357 E5.97056
G1 X100.526 Y118.681 E5.98296
G1 X100.43 Y117.99 E5.99537
G1 X100.41 Y117.5 E6.00408
G1 X100.41 Y97.5 E6.3596
G1 X100.45 Y96.803 E6.37201
G1 X100.569 Y96.116 E6.38441
G1 X100.767 Y95.447 E6.39681
G1 X101.039 Y94.804 E6.40922
G1 X101.383 Y94.198 E6.42161
G1 X101.795 Y93.634 E6.43402
G1 X102.268 Y93.121 E6.44643
M204 S625
M205 X6 Y6
G0 F4285.7 X102.21 Y93.792
M204 S500
M205 X5 Y5
G1 F1200 X102.68 Y93.31 E6.45839
G1 X103.204 Y92.887 E6.47036
G1 X103.774 Y92.528 E6.48234
G1 X104.382 Y92.24 E6.4943
G1 X105.02 Y92.026 E6.50626
G1 X105.68 Y91.89 E6.51824
G1 X106.5 Y91.83 E6.53285
G1 X126.5 Y91.83 E6.88837
G1 X127.172 Y91.87 E6.90034
G1 X127.835 Y91.989 E6.91231
G1 X128.478 Y92.186 E6.92427
G1 X129.094 Y92.458 E6.93624
G1 X129.673 Y92.801 E6.9482
G1 X130.208 Y93.21 E6.96017
G1 X130.69 Y93.68 E6.97214
G1 X131.113 Y94.204 E6.98411
G1 X131.472 Y94.774 E6.99608
G1 X131.76 Y95.382 E7.00804
G1 X131.974 Y96.02 E7.02
G1 X132.11 Y96.68 E7.03198
G1 X132.17 Y97.5 E7.0466
G1 X132.17 Y117.5 E7.40212
G1 X132.13 Y118.172 E7.41408
G1 X132.011 Y118.835 E7.42606
G1 X131.814 Y119.478 E7.43801
G1 X131.542 Y120.094 E7.44998
G1 X131.199 Y120.673 E7.46194
G1 X130.79 Y121.208 E7.47392
G1 X130.32 Y121.69 E7.48588
G1 X129.796 Y122.113 E7.49785
G1 X129.226 Y122.472 E7.50983
G1 X128.618 Y122.76 E7.52179
G1 X127.98 Y122.974 E7.53375
G1 X127.32 Y123.11 E7.54573
G1 X126.5 Y123.17 E7.56034
G1 X106.5 Y123.17 E7.91586
G1 X105.828 Y123.13 E7.92783
G1 X105.165 Y123.011 E7.9398
G1 X104.522 Y122.814 E7.95176
G1 X103.906 Y122.542 E7.96373
G1 X103.327 Y122.199 E7.97569
G1 X102.792 Y121.79 E7.98766
G1 X102.31 Y121.32 E7.99963
G1 X101.887 Y120.796 E8.0116
G1 X101.528 Y120.226 E8.02357
G1 X101.24 Y119.618 E8.03553
G1 X101.026 Y118.98 E8.04749
G1 X100.89 Y118.32 E8.05947
G1 X100.83 Y117.5 E8.07409
G1 X100.83 Y97.5 E8.42961
G1 X100.87 Y96.828 E8.44157
G1 X100.989 Y96.165 E8.45355
G1 X101.186 Y95.522 E8.4655
G1 X101.458 Y94.906 E8.47747
G1 X101.801 Y94.327 E8.48944
G1 X102.21 Y93.792 E8.50141
M204 S625
M205 X6 Y6
G0 F4285.7 X102.626 Y93.957
M204 S500
M205 X5 Y5
G1 F1200 X103.092 Y93.507 E8.51292
G1 X103.609 Y93.118 E8.52442
G1 X104.171 Y92.795 E8.53595
G1 X104.768 Y92.544 E8.54746
G1 X105.392 Y92.368 E8.55898
G1 X106.032 Y92.271 E8.57049
G1 X106.5 Y92.25 E8.57882
G1 X126.5 Y92.25 E8.93434
G1 X127.147 Y92.29 E8.94586
G1 X127.783 Y92.409 E8.95736
G1 X128.4 Y92.606 E8.96887
G1 X128.989 Y92.877 E8.9804
G1 X129.539 Y93.219 E8.99191
G1 X130.043 Y93.626 E9.00343
G1 X130.493 Y94.092 E9.01494
G1 X130.882 Y94.609 E9.02644
G1 X131.205 Y95.171 E9.03797
G1 X131.456 Y95.768 E9.04948
G1 X131.632 Y96.392 E9.061
G1 X131.729 Y97.032 E9.07251
G1 X131.75 Y97.5 E9.08084
G1 X131.75 Y117.5 E9.43636
G1 X131.71 Y118.147 E9.44788
G1 X131.591 Y118.783 E9.45938
G1 X131.394 Y119.4 E9.47089
G1 X131.123 Y119.989 E9.48242
G1 X130.781 Y120.539 E9.49393
G1 X130.374 Y121.043 E9.50545
G1 X129.908 Y121.493 E9.51696
G1 X129.391 Y121.882 E9.52846
G1 X128.829 Y122.205 E9.53999
G1 X128.232 Y122.456 E9.5515
G1 X127.608 Y122.632 E9.56302
G1 X126.968 Y122.729 E9.57453
G1 X126.5 Y122.75 E9.58286
G1 X106.5 Y122.75 E9.93838
G1 X105.853 Y122.71 E9.9499
G1 X105.217 Y122.591 E9.9614
G1 X104.6 Y122.394 E9.97292
G1 X104.011 Y122.123 E9.98444
G1 X103.461 Y121.781 E9.99595
G1 X102.957 Y121.374 E10.00747
G1 X102.507 Y120.908 E10.01898
G1 X102.118 Y120.391 E10.03049
G1 X101.795 Y119.829 E10.04201
G1 X101.544 Y119.232 E10.05352
G1 X101.368 Y118.608 E10.06505
G1 X101.271 Y117.968 E10.07655
G1 X101.25 Y117.5 E10.08488
G1 X101.25 Y97.5 E10.4404
G1 X101.29 Y96.853 E10.45192
G1 X101.409 Y96.217 E10.46342
G1 X101.606 Y95.6 E10.47494
G1 X101.877 Y95.011 E10.48646
G1 X102.219 Y94.461 E10.49797
G1 X102.626 Y93.957 E10.50949
M204 S625
M205 X6 Y6
G0 F4285.7 X103.04 Y94.13
M204 S500
M205 X5 Y5
G1 F1200 X103.502 Y93.713 E10.52055
G1 X104.012 Y93.36 E10.53158
G1 X104.564 Y93.075 E10.54262
G1 X105.149 Y92.863 E10.55368
G1 X105.755 Y92.728 E10.56472
G1 X106.5 Y92.67 E10.578
G1 X126.5 Y92.67 E10.93352
G1 X127.12 Y92.71 E10.94457
G1 X127.73 Y92.829 E10.95561
G1 X128.319 Y93.026 E10.96665
G1 X128.878 Y93.296 E10.97769
G1 X129.398 Y93.636 E10.98873
G1 X129.87 Y94.04 E10.99978
G1 X130.287 Y94.502 E11.01084
G1 X130.64 Y95.012 E11.02187
G1 X130.925 Y95.564 E11.03291
G1 X131.137 Y96.149 E11.04397
G1 X131.272 Y96.755 E11.05501
G1 X131.33 Y97.5 E11.06829
G1 X131.33 Y117.5 E11.42381
G1 X131.29 Y118.12 E11.43485
G1 X131.171 Y118.73 E11.4459
G1 X130.974 Y119.319 E11.45694
G1 X130.704 Y119.878 E11.46798
G1 X130.364 Y120.398 E11.47902
G1 X129.96 Y120.87 E11.49006
G1 X129.498 Y121.287 E11.50113
G1 X128.988 Y121.64 E11.51215
G1 X128.436 Y121.925 E11.5232
G1 X127.851 Y122.137 E11.53426
G1 X127.245 Y122.272 E11.54529
G1 X126.5 Y122.33 E11.55858
G1 X106.5 Y122.33 E11.91409
G1 X105.88 Y122.29 E11.92514
G1 X105.27 Y122.171 E11.93619
G1 X104.681 Y121.974 E11.94723
G1 X104.122 Y121.704 E11.95826
G1 X103.602 Y121.364 E11.96931
G1 X103.13 Y120.96 E11.98035
G1 X102.713 Y120.498 E11.99141
G1 X102.36 Y119.988 E12.00244
G1 X102.075 Y119.436 E12.01348
G1 X101.863 Y118.851 E12.02454
G1 X101.728 Y118.245 E12.03558
G1 X101.67 Y117.5 E12.04886
G1 X101.67 Y97.5 E12.40438
G1 X101.71 Y96.88 E12.41543
G1 X101.829 Y96.27 E12.42647
G1 X102.026 Y95.681 E12.43751
G1 X102.296 Y95.122 E12.44855
G1 X102.636 Y94.602 E12.45959
G1 X103.04 Y94.13 E12.47064
M204 S625
M205 X6 Y6
G0 F4285.7 X103.454 Y94.311
M204 S500
M205 X5 Y5
G1 F1200 X103.91 Y93.931 E12.48119
G1 X104.413 Y93.615 E12.49175
G1 X104.953 Y93.37 E12.50229
G1 X105.522 Y93.2 E12.51284
G1 X106.108 Y93.107 E12.52339
G1 X106.5 Y93.09 E12.53037
G1 X126.5 Y93.09 E12.88589
G1 X127.092 Y93.13 E12.89643
G1 X127.674 Y93.249 E12.90699
G1 X128.234 Y93.445 E12.91754
G1 X128.763 Y93.715 E12.9281
G1 X129.251 Y94.053 E12.93865
G1 X129.689 Y94.454 E12.94921
G1 X130.069 Y94.91 E12.95976
G1 X130.385 Y95.413 E12.97032
G1 X130.63 Y95.953 E12.98086
G1 X130.8 Y96.522 E12.99141
G1 X130.893 Y97.108 E13.00196
G1 X130.91 Y97.5 E13.00893
G1 X130.91 Y117.5 E13.36445
G1 X130.87 Y118.092 E13.375
G1 X130.751 Y118.674 E13.38556
G1 X130.555 Y119.234 E13.39611
G1 X130.285 Y119.763 E13.40667
G1 X129.947 Y120.251 E13.41722
G1 X129.546 Y120.689 E13.42777
G1 X129.09 Y121.069 E13.43833
G1 X128.587 Y121.385 E13.44888
G1 X128.047 Y121.63 E13.45943
G1 X127.478 Y121.8 E13.46998
G1 X126.892 Y121.893 E13.48053
G1 X126.5 Y121.91 E13.4875
G1 X106.5 Y121.91 E13.84302
G1 X105.908 Y121.87 E13.85357
G1 X105.326 Y121.751 E13.86413
G1 X104.766 Y121.555 E13.87468
G1 X104.237 Y121.285 E13.88523
G1 X103.749 Y120.947 E13.89579
G1 X103.311 Y120.546 E13.90634
G1 X102.931 Y120.09 E13.91689
G1 X102.615 Y119.587 E13.92745
G1 X102.37 Y119.047 E13.93799
G1 X102.2 Y118.478 E13.94855
G1 X102.107 Y117.892 E13.9591
G1 X102.09 Y117.5 E13.96607
G1 X102.09 Y97.5 E14.32159
G1 X102.13 Y96.908 E14.33214
G1 X102.249 Y96.326 E14.3427
G1 X102.445 Y95.766 E14.35325
G1 X102.715 Y95.237 E14.3638
G1 X103.053 Y94.749 E14.37436
G1 X103.454 Y94.311 E14.38491
M204 S625
M205 X6 Y6
G0 F4285.7 X103.469 Y94.905
M204 S500
M205 X5 Y5
G1 F1200 X103.866 Y94.503 E14.39495
G1 X104.315 Y94.161 E14.40499
G1 X104.809 Y93.886 E14.41504
G1 X105.336 Y93.684 E14.42507
G1 X105.886 Y93.558 E14.4351
G1 X106.5 Y93.51 E14.44605
G1 X126.5 Y93.51 E14.80157
G1 X127.063 Y93.55 E14.8116
G1 X127.615 Y93.669 E14.82164
G1 X128.145 Y93.865 E14.83168
G1 X128.641 Y94.133 E14.84171
G1 X129.095 Y94.469 E14.85175
G1 X129.497 Y94.866 E14.86179
G1 X129.839 Y95.315 E14.87182
G1 X130.114 Y95.809 E14.88187
G1 X130.316 Y96.336 E14.8919
G1 X130.442 Y96.886 E14.90193
G1 X130.49 Y97.5 E14.91288
G1 X130.49 Y117.5 E15.2684
G1 X130.45 Y118.063 E15.27843
G1 X130.331 Y118.615 E15.28847
G1 X130.135 Y119.145 E15.29852
G1 X129.867 Y119.641 E15.30854
G1 X129.531 Y120.095 E15.31858
G1 X129.134 Y120.497 E15.32862
G1 X128.685 Y120.839 E15.33866
G1 X128.191 Y121.114 E15.34871
G1 X127.664 Y121.316 E15.35874
G1 X127.114 Y121.442 E15.36877
G1 X126.5 Y121.49 E15.37972
G1 X106.5 Y121.49 E15.73524
G1 X105.937 Y121.45 E15.74527
G1 X105.385 Y121.331 E15.75531
G1 X104.855 Y121.135 E15.76535
G1 X104.359 Y120.867 E15.77537
G1 X103.905 Y120.531 E15.78541
G1 X103.503 Y120.134 E15.79546
G1 X103.161 Y119.685 E15.80549
G1 X102.886 Y119.191 E15.81554
G1 X102.684 Y118.664 E15.82557
G1 X102.558 Y118.114 E15.8356
G1 X102.51 Y117.5 E15.84655
G1 X102.51 Y97.5 E16.20207
G1 X102.55 Y96.937 E16.2121
G1 X102.669 Y96.385 E16.22214
G1 X102.865 Y95.855 E16.23218
G1 X103.133 Y95.359 E16.24221
G1 X103.469 Y94.905 E16.25225
M204 S625
M205 X6 Y6
G0 F4285.7 X103.885 Y95.07
M204 S500
M205 X5 Y5
G1 F1200 X104.276 Y94.707 E16.26173
G1 X104.718 Y94.407 E16.27123
G1 X105.199 Y94.175 E16.28072
G1 X105.71 Y94.019 E16.29022
G1 X106.5 Y93.93 E16.30435
G1 X126.5 Y93.93 E16.65987
G1 X127.033 Y93.97 E16.66937
G1 X127.553 Y94.089 E16.67885
G1 X128.05 Y94.284 E16.68834
G1 X128.513 Y94.551 E16.69784
G1 X128.93 Y94.885 E16.70734
G1 X129.293 Y95.276 E16.71682
G1 X129.593 Y95.718 E16.72632
G1 X129.825 Y96.199 E16.73581
G1 X129.981 Y96.71 E16.74531
G1 X130.07 Y97.5 E16.75944
G1 X130.07 Y117.5 E17.11496
G1 X130.03 Y118.033 E17.12446
G1 X129.911 Y118.553 E17.13395
G1 X129.716 Y119.05 E17.14344
G1 X129.449 Y119.513 E17.15294
G1 X129.115 Y119.93 E17.16243
G1 X128.724 Y120.293 E17.17192
G1 X128.282 Y120.593 E17.18141
G1 X127.801 Y120.825 E17.19091
G1 X127.29 Y120.981 E17.2004
G1 X126.5 Y121.07 E17.21454
G1 X106.5 Y121.07 E17.57005
G1 X105.967 Y121.03 E17.57956
G1 X105.447 Y120.911 E17.58904
G1 X104.95 Y120.716 E17.59853
G1 X104.487 Y120.449 E17.60803
G1 X104.07 Y120.115 E17.61753
G1 X103.707 Y119.724 E17.62701
G1 X103.407 Y119.282 E17.63651
G1 X103.175 Y118.801 E17.646
G1 X103.019 Y118.29 E17.6555
G1 X102.93 Y117.5 E17.66963
G1 X102.93 Y97.5 E18.02515
G1 X102.97 Y96.967 E18.03465
G1 X103.089 Y96.447 E18.04413
G1 X103.284 Y95.95 E18.05362
G1 X103.551 Y95.487 E18.06312
G1 X103.885 Y95.07 E18.07262
M204 S625
M205 X6 Y6
G0 F4285.7 X104.299 Y95.247
M204 S500
M205 X5 Y5
G1 F1200 X104.684 Y94.926 E18.08153
G1 X105.116 Y94.67 E18.09046
G1 X105.583 Y94.487 E18.09937
