;START_OF_HEADER
;HEADER_VERSION:0.1
;FLAVOR:Griffin
;GENERATOR.NAME:Cura_SteamEngine
;GENERATOR.VERSION:4.1.0
;GENERATOR.BUILD_DATE:2019-05-28
;TARGET_MACHINE.NAME:Ultimaker 3 Extended
;EXTRUDER_TRAIN.1.INITIAL_TEMPERATURE:210
;EXTRUDER_TRAIN.1.MATERIAL.VOLUME_USED:18441
;EXTRUDER_TRAIN.1.MATERIAL.GUID:44a029e6-e31b-4c9e-a12f-9282e29a92ff
;EXTRUDER_TRAIN.1.NOZZLE.DIAMETER:0.4
;EXTRUDER_TRAIN.1.NOZZLE.NAME:AA 0.4
;BUILD_PLATE.TYPE:glass
;BUILD_PLATE.INITIAL_TEMPERATURE:60
;BUILD_VOLUME.TEMPERATURE:35
;PRINT.TIME:7597
;PRINT.GROUPS:1
;PRINT.SIZE.MIN.X:46.57
;PRINT.SIZE.MIN.Y:6
;PRINT.SIZE.MIN.Z:0.27
;PRINT.SIZE.MAX.X:204
;PRINT.SIZE.MAX.Y:159.43
;PRINT.SIZE.MAX.Z:10.87
;END_OF_HEADER
;Generated with Cura_SteamEngine 4.1.0
T1
M82 ;absolute extrusion mode

G92 E0
M109 S210
G0 F15000 X204 Y6 Z2
G280
G1 F1500 E-6.5
;LAYER_COUNT:54
;LAYER:0
M107
M204 S625
M205 X6 Y6
G0 F4285.7 X147.595 Y59.166 Z0.27
M204 S500
M205 X5 Y5
;TYPE:SKIRT
G1 F1500 E0
G1 F1200 X148.234 Y59.942 E0.01787
G1 X148.575 Y60.423 E0.02835
G1 X148.973 Y61.053 E0.0416
G1 X149.176 Y61.445 E0.04944
G1 X149.515 Y62.155 E0.06343
G1 X149.799 Y62.843 E0.07666
G1 X149.934 Y63.272 E0.08465
G1 X150.092 Y63.836 E0.09507
G1 X150.294 Y64.834 E0.11317
G1 X150.368 Y65.418 E0.12363
G1 X150.423 Y66.288 E0.13913
G1 X150.43 Y142.963 E1.5021
G1 X150.43 Y148.499 E1.60051
G1 X150.413 Y148.983 E1.60912
G1 X150.373 Y149.555 E1.61931
G1 X150.226 Y150.569 E1.63752
G1 X150.099 Y151.143 E1.64797
G1 X149.804 Y152.127 E1.66623
G1 X149.592 Y152.68 E1.67676
G1 X149.165 Y153.589 E1.69461
G1 X148.879 Y154.099 E1.70501
G1 X148.315 Y154.951 E1.72317
G1 X147.955 Y155.416 E1.73362
G1 X147.265 Y156.182 E1.75195
G1 X146.829 Y156.599 E1.76267
G1 X146.026 Y157.259 E1.78115
G1 X145.544 Y157.598 E1.79163
G1 X144.68 Y158.117 E1.80954
G1 X144.153 Y158.383 E1.82004
G1 X143.197 Y158.779 E1.83843
G1 X142.641 Y158.962 E1.84883
G1 X141.668 Y159.205 E1.86666
G1 X141.085 Y159.307 E1.87718
G1 X140.346 Y159.396 E1.89041
G1 X139.913 Y159.411 E1.89812
G1 X133.987 Y159.43 E2.00346
G1 X57.5 Y159.43 E3.36309
G1 X56.993 Y159.411 E3.37211
G1 X56.407 Y159.368 E3.38255
G1 X55.391 Y159.218 E3.40081
G1 X54.814 Y159.088 E3.41132
G1 X53.841 Y158.792 E3.4294
G1 X53.292 Y158.58 E3.43986
G1 X52.37 Y158.144 E3.45799
G1 X51.862 Y157.856 E3.46837
G1 X51.02 Y157.293 E3.48638
G1 X50.553 Y156.929 E3.4969
G1 X49.799 Y156.247 E3.51497
G1 X49.405 Y155.834 E3.52512
G1 X48.765 Y155.057 E3.54301
G1 X48.422 Y154.573 E3.55356
G1 X47.899 Y153.708 E3.57153
G1 X47.633 Y153.185 E3.58196
G1 X47.231 Y152.22 E3.60054
G1 X47.047 Y151.664 E3.61095
G1 X46.804 Y150.704 E3.62855
G1 X46.7 Y150.121 E3.63908
G1 X46.609 Y149.382 E3.65232
G1 X46.592 Y148.906 E3.66078
G1 X46.57 Y72.038 E5.02719
G1 X46.57 Y66.5 E5.12563
G1 X46.587 Y66.017 E5.13422
G1 X46.627 Y65.445 E5.14441
G1 X46.774 Y64.431 E5.16263
G1 X46.901 Y63.857 E5.17308
G1 X47.196 Y62.873 E5.19134
G1 X47.408 Y62.32 E5.20187
G1 X47.835 Y61.411 E5.21972
G1 X48.121 Y60.901 E5.23011
G1 X48.685 Y60.049 E5.24828
G1 X49.045 Y59.584 E5.25873
G1 X49.735 Y58.818 E5.27706
G1 X50.171 Y58.401 E5.28778
G1 X50.974 Y57.741 E5.30626
G1 X51.456 Y57.402 E5.31673
G1 X52.32 Y56.883 E5.33465
G1 X52.847 Y56.617 E5.34514
G1 X53.803 Y56.221 E5.36354
G1 X54.359 Y56.038 E5.37394
G1 X55.332 Y55.795 E5.39177
G1 X55.915 Y55.693 E5.40229
G1 X56.654 Y55.604 E5.41552
G1 X57.087 Y55.589 E5.42322
G1 X63.013 Y55.57 E5.52856
G1 X139.5 Y55.57 E6.88819
G1 X140.007 Y55.589 E6.89721
G1 X140.593 Y55.632 E6.90766
G1 X141.609 Y55.782 E6.92591
G1 X142.186 Y55.912 E6.93643
G1 X143.159 Y56.208 E6.95451
G1 X143.708 Y56.42 E6.96497
G1 X144.625 Y56.854 E6.983
G1 X145.134 Y57.142 E6.9934
G1 X145.987 Y57.712 E7.01163
G1 X146.453 Y58.076 E7.02215
G1 X147.201 Y58.753 E7.04008
G1 X147.595 Y59.166 E7.05023
M204 S625
M205 X6 Y6
G0 F4285.7 X147.291 Y59.456
M204 S500
M205 X5 Y5
G1 F1200 X147.892 Y60.185 E7.06702
G1 X148.233 Y60.666 E7.0775
G1 X148.617 Y61.277 E7.09033
G1 X148.797 Y61.626 E7.09731
G1 X149.136 Y62.336 E7.1113
G1 X149.41 Y63.003 E7.12411
G1 X149.53 Y63.385 E7.13123
G1 X149.688 Y63.949 E7.14164
G1 X149.877 Y64.887 E7.15865
G1 X149.951 Y65.471 E7.16912
G1 X150.003 Y66.288 E7.18367
G1 X150.01 Y142.963 E8.54664
G1 X150.01 Y148.499 E8.64505
G1 X149.994 Y148.954 E8.65314
G1 X149.954 Y149.526 E8.66333
G1 X149.816 Y150.478 E8.68043
G1 X149.689 Y151.052 E8.69088
G1 X149.412 Y151.976 E8.70803
G1 X149.2 Y152.529 E8.71856
G1 X148.799 Y153.383 E8.73533
G1 X148.513 Y153.893 E8.74572
G1 X147.983 Y154.694 E8.7628
G1 X147.623 Y155.159 E8.77325
G1 X146.975 Y155.879 E8.79047
G1 X146.539 Y156.296 E8.80119
G1 X145.784 Y156.916 E8.81856
G1 X145.302 Y157.255 E8.82904
G1 X144.49 Y157.742 E8.84587
G1 X143.963 Y158.008 E8.85636
G1 X143.065 Y158.38 E8.87364
G1 X142.509 Y158.563 E8.88404
G1 X141.596 Y158.792 E8.90078
G1 X141.013 Y158.894 E8.9113
G1 X140.297 Y158.978 E8.92411
G1 X139.912 Y158.991 E8.93096
G1 X133.986 Y159.01 E9.0363
G1 X57.5 Y159.01 E10.39591
G1 X57.024 Y158.993 E10.40438
G1 X56.438 Y158.95 E10.41482
G1 X55.483 Y158.808 E10.43199
G1 X54.906 Y158.678 E10.4425
G1 X53.992 Y158.4 E10.45948
G1 X53.443 Y158.188 E10.46994
G1 X52.577 Y157.778 E10.48698
G1 X52.069 Y157.49 E10.49736
G1 X51.278 Y156.962 E10.51426
G1 X50.811 Y156.598 E10.52479
G1 X50.103 Y155.957 E10.54176
G1 X49.709 Y155.544 E10.55191
G1 X49.108 Y154.814 E10.56872
G1 X48.765 Y154.33 E10.57926
G1 X48.273 Y153.517 E10.59616
G1 X48.007 Y152.994 E10.60659
G1 X47.63 Y152.088 E10.62403
G1 X47.446 Y151.532 E10.63444
G1 X47.217 Y150.63 E10.65098
G1 X47.113 Y150.047 E10.66151
G1 X47.026 Y149.331 E10.67433
G1 X47.012 Y148.906 E10.68189
G1 X46.99 Y72.038 E12.04829
G1 X46.99 Y66.5 E12.14674
G1 X47.006 Y66.046 E12.15481
G1 X47.046 Y65.474 E12.16501
G1 X47.184 Y64.522 E12.18211
G1 X47.311 Y63.948 E12.19256
G1 X47.588 Y63.024 E12.2097
G1 X47.8 Y62.471 E12.22023
G1 X48.201 Y61.617 E12.237
G1 X48.487 Y61.107 E12.2474
G1 X49.017 Y60.306 E12.26447
G1 X49.377 Y59.841 E12.27492
G1 X50.025 Y59.121 E12.29214
G1 X50.461 Y58.704 E12.30287
G1 X51.216 Y58.084 E12.32023
G1 X51.698 Y57.745 E12.33071
G1 X52.51 Y57.258 E12.34754
G1 X53.037 Y56.992 E12.35803
G1 X53.935 Y56.62 E12.37531
G1 X54.491 Y56.437 E12.38572
G1 X55.404 Y56.208 E12.40245
G1 X55.987 Y56.106 E12.41297
G1 X56.703 Y56.022 E12.42578
G1 X57.088 Y56.009 E12.43263
G1 X63.014 Y55.99 E12.53797
G1 X139.5 Y55.99 E13.89758
G1 X139.976 Y56.007 E13.90605
G1 X140.562 Y56.05 E13.9165
G1 X141.517 Y56.192 E13.93366
G1 X142.094 Y56.322 E13.94417
G1 X143.008 Y56.6 E13.96115
G1 X143.557 Y56.812 E13.97162
G1 X144.418 Y57.219 E13.98855
G1 X144.927 Y57.507 E13.99894
G1 X145.728 Y58.043 E14.01607
G1 X146.194 Y58.407 E14.02658
G1 X146.897 Y59.043 E14.04344
G1 X147.291 Y59.456 E14.05358
M204 S625
M205 X6 Y6
G0 F4285.7 X146.987 Y59.746
M204 S500
M205 X5 Y5
G1 F1200 X147.549 Y60.428 E14.06929
G1 X147.89 Y60.909 E14.07977
G1 X148.418 Y61.807 E14.09829
G1 X148.757 Y62.517 E14.11228
G1 X149.021 Y63.163 E14.12468
G1 X149.125 Y63.498 E14.13092
G1 X149.283 Y64.062 E14.14133
G1 X149.461 Y64.939 E14.15724
G1 X149.535 Y65.523 E14.1677
G1 X149.583 Y66.288 E14.18133
G1 X149.59 Y142.963 E15.5443
G1 X149.59 Y148.499 E15.64271
G1 X149.575 Y148.925 E15.65028
G1 X149.535 Y149.497 E15.66048
G1 X149.406 Y150.388 E15.67648
G1 X149.279 Y150.962 E15.68693
G1 X149.019 Y151.826 E15.70297
G1 X148.807 Y152.379 E15.7135
G1 X148.433 Y153.178 E15.72918
G1 X148.147 Y153.688 E15.73957
G1 X147.651 Y154.437 E15.75554
G1 X147.291 Y154.902 E15.76599
G1 X146.684 Y155.575 E15.7821
G1 X146.248 Y155.992 E15.79283
G1 X145.542 Y156.572 E15.80907
G1 X145.06 Y156.911 E15.81955
G1 X144.301 Y157.367 E15.83529
G1 X143.774 Y157.633 E15.84578
G1 X142.934 Y157.981 E15.86194
G1 X142.378 Y158.164 E15.87235
G1 X141.524 Y158.378 E15.888
G1 X140.941 Y158.48 E15.89852
G1 X139.911 Y158.571 E15.9169
G1 X133.985 Y158.59 E16.02224
G1 X57.5 Y158.59 E17.38183
G1 X57.054 Y158.574 E17.38977
G1 X56.468 Y158.531 E17.40021
G1 X55.575 Y158.398 E17.41626
G1 X54.998 Y158.268 E17.42678
G1 X54.143 Y158.008 E17.44266
G1 X53.594 Y157.796 E17.45312
G1 X52.785 Y157.413 E17.46903
G1 X52.277 Y157.125 E17.47941
G1 X51.536 Y156.63 E17.49525
G1 X51.069 Y156.266 E17.50578
G1 X50.407 Y155.667 E17.52165
G1 X50.013 Y155.254 E17.5318
G1 X49.45 Y154.571 E17.54753
G1 X49.107 Y154.087 E17.55808
G1 X48.648 Y153.327 E17.57386
G1 X48.382 Y152.804 E17.58429
G1 X48.028 Y151.956 E17.60062
G1 X47.844 Y151.4 E17.61103
G1 X47.631 Y150.556 E17.62651
G1 X47.527 Y149.973 E17.63703
G1 X47.444 Y149.281 E17.64942
G1 X47.432 Y148.906 E17.65609
G1 X47.41 Y72.038 E19.0225
G1 X47.41 Y66.5 E19.12094
G1 X47.425 Y66.075 E19.1285
G1 X47.465 Y65.503 E19.13869
G1 X47.594 Y64.612 E19.15469
G1 X47.721 Y64.038 E19.16515
G1 X47.981 Y63.174 E19.18118
G1 X48.193 Y62.621 E19.19171
G1 X48.567 Y61.822 E19.20739
G1 X48.853 Y61.312 E19.21779
G1 X49.349 Y60.563 E19.23376
G1 X49.709 Y60.098 E19.24421
G1 X50.316 Y59.425 E19.26032
G1 X50.752 Y59.008 E19.27104
G1 X51.458 Y58.428 E19.28729
G1 X51.94 Y58.089 E19.29776
G1 X52.699 Y57.633 E19.3135
G1 X53.226 Y57.367 E19.32399
G1 X54.066 Y57.019 E19.34016
G1 X54.622 Y56.836 E19.35056
G1 X55.476 Y56.622 E19.36621
G1 X56.059 Y56.52 E19.37673
G1 X57.089 Y56.429 E19.39511
G1 X63.015 Y56.41 E19.50045
G1 X139.5 Y56.41 E20.86005
G1 X139.946 Y56.426 E20.86798
G1 X140.532 Y56.469 E20.87843
G1 X141.425 Y56.602 E20.89448
G1 X142.002 Y56.732 E20.90499
G1 X142.857 Y56.992 E20.92088
G1 X143.406 Y57.204 E20.93134
G1 X144.211 Y57.585 E20.94717
G1 X144.72 Y57.873 E20.95757
G1 X145.47 Y58.374 E20.9736
G1 X145.936 Y58.738 E20.98411
G1 X146.593 Y59.333 E20.99987
G1 X146.987 Y59.746 E21.01001
M204 S625
M205 X6 Y6
G0 F4285.7 X146.684 Y60.036
M204 S500
M205 X5 Y5
G1 F1200 X147.207 Y60.671 E21.02464
G1 X147.548 Y61.152 E21.03512
G1 X148.039 Y61.988 E21.05235
G1 X148.378 Y62.698 E21.06634
G1 X148.721 Y63.611 E21.08367
G1 X148.879 Y64.175 E21.09409
G1 X149.044 Y64.992 E21.1089
G1 X149.118 Y65.576 E21.11937
G1 X149.163 Y66.288 E21.13205
G1 X149.17 Y142.963 E22.49502
G1 X149.17 Y148.499 E22.59343
G1 X149.156 Y148.896 E22.60049
G1 X149.116 Y149.468 E22.61068
G1 X148.996 Y150.297 E22.62557
G1 X148.869 Y150.871 E22.63602
G1 X148.627 Y151.676 E22.65096
G1 X148.415 Y152.229 E22.66149
G1 X148.066 Y152.972 E22.67608
G1 X147.78 Y153.482 E22.68648
G1 X147.318 Y154.18 E22.70136
G1 X146.958 Y154.645 E22.71181
G1 X146.394 Y155.272 E22.7268
G1 X145.958 Y155.689 E22.73753
G1 X145.301 Y156.229 E22.75264
G1 X144.819 Y156.568 E22.76312
G1 X144.112 Y156.992 E22.77777
G1 X143.585 Y157.258 E22.78827
G1 X142.803 Y157.582 E22.80331
G1 X142.247 Y157.765 E22.81372
G1 X141.451 Y157.964 E22.8283
G1 X140.868 Y158.066 E22.83882
G1 X139.909 Y158.151 E22.85594
G1 X133.983 Y158.17 E22.96128
G1 X57.5 Y158.17 E24.32084
G1 X57.085 Y158.155 E24.32822
G1 X56.499 Y158.112 E24.33867
G1 X55.668 Y157.988 E24.3536
G1 X55.091 Y157.858 E24.36412
G1 X54.294 Y157.616 E24.37892
G1 X53.745 Y157.404 E24.38938
G1 X52.992 Y157.047 E24.4042
G1 X52.484 Y156.759 E24.41458
G1 X51.794 Y156.299 E24.42932
G1 X51.327 Y155.935 E24.43984
G1 X50.71 Y155.377 E24.45463
G1 X50.316 Y154.964 E24.46478
G1 X49.793 Y154.328 E24.47941
G1 X49.45 Y153.844 E24.48996
G1 X49.022 Y153.136 E24.50467
G1 X48.756 Y152.613 E24.5151
G1 X48.427 Y151.824 E24.53029
G1 X48.243 Y151.268 E24.5407
G1 X48.044 Y150.483 E24.5551
G1 X47.94 Y149.9 E24.56562
G1 X47.852 Y148.906 E24.58336
G1 X47.83 Y72.038 E25.94977
G1 X47.83 Y66.5 E26.04821
G1 X47.844 Y66.104 E26.05525
G1 X47.884 Y65.532 E26.06545
G1 X48.004 Y64.703 E26.08034
G1 X48.131 Y64.129 E26.09079
G1 X48.373 Y63.324 E26.10573
G1 X48.585 Y62.771 E26.11626
G1 X48.934 Y62.028 E26.13085
G1 X49.22 Y61.518 E26.14124
G1 X49.682 Y60.82 E26.15612
G1 X50.042 Y60.355 E26.16658
G1 X50.606 Y59.728 E26.18157
G1 X51.042 Y59.311 E26.19229
G1 X51.699 Y58.771 E26.20741
G1 X52.181 Y58.432 E26.21788
G1 X52.888 Y58.008 E26.23254
G1 X53.415 Y57.742 E26.24303
G1 X54.197 Y57.418 E26.25808
G1 X54.753 Y57.235 E26.26848
G1 X55.549 Y57.036 E26.28307
G1 X56.132 Y56.934 E26.29359
G1 X57.091 Y56.849 E26.3107
G1 X63.017 Y56.83 E26.41604
G1 X139.5 Y56.83 E27.7756
G1 X139.915 Y56.845 E27.78299
G1 X140.501 Y56.888 E27.79343
G1 X141.332 Y57.012 E27.80837
G1 X141.909 Y57.142 E27.81888
G1 X142.706 Y57.384 E27.83369
G1 X143.255 Y57.596 E27.84415
G1 X144.004 Y57.95 E27.85887
G1 X144.513 Y58.238 E27.86927
G1 X145.211 Y58.705 E27.8842
G1 X145.677 Y59.069 E27.89471
G1 X146.29 Y59.623 E27.9094
G1 X146.684 Y60.036 E27.91954
M204 S625
M205 X6 Y6
G0 F4285.7 X146.38 Y60.326
M204 S500
M205 X5 Y5
G1 F1200 X146.864 Y60.914 E27.93308
G1 X147.205 Y61.395 E27.94356
G1 X147.66 Y62.169 E27.95952
G1 X147.999 Y62.879 E27.97351
G1 X148.316 Y63.725 E27.98957
G1 X148.474 Y64.289 E27.99998
G1 X148.627 Y65.045 E28.01369
G1 X148.701 Y65.629 E28.02415
G1 X148.743 Y66.289 E28.03591
G1 X148.75 Y142.964 E29.39888
G1 X148.75 Y148.5 E29.49729
G1 X148.737 Y148.866 E29.5038
G1 X148.697 Y149.438 E29.51399
G1 X148.586 Y150.206 E29.52779
G1 X148.459 Y150.78 E29.53824
G1 X148.235 Y151.525 E29.55207
G1 X148.023 Y152.078 E29.56259
G1 X147.7 Y152.767 E29.57612
G1 X147.414 Y153.277 E29.58651
G1 X146.986 Y153.923 E29.60029
G1 X146.626 Y154.388 E29.61074
G1 X146.104 Y154.968 E29.62461
G1 X145.668 Y155.385 E29.63534
G1 X145.059 Y155.885 E29.64935
G1 X144.577 Y156.224 E29.65982
G1 X143.923 Y156.617 E29.67338
G1 X143.396 Y156.883 E29.68388
G1 X142.671 Y157.183 E29.69782
G1 X142.115 Y157.366 E29.70823
G1 X141.379 Y157.55 E29.72171
G1 X140.796 Y157.652 E29.73224
G1 X139.908 Y157.731 E29.74808
G1 X133.982 Y157.75 E29.85342
G1 X57.5 Y157.75 E31.21297
G1 X57.116 Y157.736 E31.2198
G1 X56.53 Y157.693 E31.23024
G1 X55.76 Y157.579 E31.24408
G1 X55.183 Y157.449 E31.25459
G1 X54.446 Y157.225 E31.26828
G1 X53.897 Y157.013 E31.27875
G1 X53.199 Y156.682 E31.29248
G1 X52.691 Y156.394 E31.30286
G1 X52.053 Y155.968 E31.3165
G1 X51.586 Y155.604 E31.32702
G1 X51.014 Y155.087 E31.34073
G1 X50.62 Y154.674 E31.35087
G1 X50.136 Y154.086 E31.36441
G1 X49.793 Y153.602 E31.37496
G1 X49.396 Y152.946 E31.38859
G1 X49.13 Y152.423 E31.39902
G1 X48.826 Y151.692 E31.41309
G1 X48.642 Y151.136 E31.4235
G1 X48.458 Y150.409 E31.43683
G1 X48.354 Y149.826 E31.44736
G1 X48.272 Y148.906 E31.46378
G1 X48.25 Y72.038 E32.83018
G1 X48.25 Y66.5 E32.92862
G1 X48.263 Y66.134 E32.93513
G1 X48.303 Y65.562 E32.94533
G1 X48.414 Y64.794 E32.95912
G1 X48.541 Y64.22 E32.96957
G1 X48.765 Y63.475 E32.9834
G1 X48.977 Y62.922 E32.99393
G1 X49.3 Y62.233 E33.00745
G1 X49.586 Y61.723 E33.01785
G1 X50.014 Y61.077 E33.03162
G1 X50.374 Y60.612 E33.04208
G1 X50.896 Y60.032 E33.05595
G1 X51.332 Y59.615 E33.06667
G1 X51.941 Y59.115 E33.08068
G1 X52.423 Y58.776 E33.09115
G1 X53.077 Y58.383 E33.10472
G1 X53.604 Y58.117 E33.11521
G1 X54.329 Y57.817 E33.12916
G1 X54.885 Y57.634 E33.13956
G1 X55.621 Y57.45 E33.15305
G1 X56.204 Y57.348 E33.16357
G1 X57.092 Y57.269 E33.17942
G1 X63.018 Y57.25 E33.28476
G1 X139.5 Y57.25 E34.6443
G1 X139.884 Y57.264 E34.65113
G1 X140.47 Y57.307 E34.66157
G1 X141.24 Y57.421 E34.67541
G1 X141.817 Y57.551 E34.68592
G1 X142.554 Y57.775 E34.69962
G1 X143.103 Y57.987 E34.71008
G1 X143.797 Y58.316 E34.72373
G1 X144.306 Y58.604 E34.73413
G1 X144.953 Y59.036 E34.74796
G1 X145.419 Y59.4 E34.75847
G1 X145.986 Y59.913 E34.77206
G1 X146.38 Y60.326 E34.78221
M204 S625
M205 X6 Y6
G0 F4285.7 X146.076 Y60.616
M204 S500
M205 X5 Y5
G1 F1200 X146.521 Y61.157 E34.79466
G1 X146.862 Y61.638 E34.80514
G1 X147.281 Y62.35 E34.81982
G1 X147.62 Y63.06 E34.83381
G1 X147.912 Y63.838 E34.84858
G1 X148.07 Y64.402 E34.85899
G1 X148.211 Y65.098 E34.87162
G1 X148.285 Y65.682 E34.88208
G1 X148.323 Y66.289 E34.89289
G1 X148.33 Y142.964 E36.25586
G1 X148.33 Y148.5 E36.35427
G1 X148.318 Y148.837 E36.36027
G1 X148.278 Y149.409 E36.37046
G1 X148.176 Y150.115 E36.38314
G1 X148.049 Y150.689 E36.39359
G1 X147.843 Y151.375 E36.40632
G1 X147.631 Y151.928 E36.41685
G1 X147.334 Y152.561 E36.42928
G1 X147.048 Y153.071 E36.43967
G1 X146.654 Y153.666 E36.45236
G1 X146.294 Y154.131 E36.46281
G1 X145.813 Y154.665 E36.47559
G1 X145.377 Y155.082 E36.48631
G1 X144.818 Y155.542 E36.49918
G1 X144.336 Y155.881 E36.50966
G1 X143.733 Y156.242 E36.52215
G1 X143.206 Y156.508 E36.53264
