;START_OF_HEADER
;HEADER_VERSION:0.1
;FLAVOR:Griffin
;GENERATOR.NAME:Cura_SteamEngine
;GENERATOR.VERSION:4.1.0
;GENERATOR.BUILD_DATE:2019-05-28
;TARGET_MACHINE.NAME:Ultimaker 3 Extended
;EXTRUDER_TRAIN.0.INITIAL_TEMPERATURE:210
;EXTRUDER_TRAIN.0.MATERIAL.VOLUME_USED:18442
;EXTRUDER_TRAIN.0.MATERIAL.GUID:e509f649-9fe6-4b14-ac45-d441438cb4ef
;EXTRUDER_TRAIN.0.NOZZLE.DIAMETER:0.4
;EXTRUDER_TRAIN.0.NOZZLE.NAME:AA 0.4
;BUILD_PLATE.TYPE:glass
;BUILD_PLATE.INITIAL_TEMPERATURE:60
;BUILD_VOLUME.TEMPERATURE:35
;PRINT.TIME:7599
;PRINT.GROUPS:1
;PRINT.SIZE.MIN.X:9
;PRINT.SIZE.MIN.Y:6
;PRINT.SIZE.MIN.Z:0.27
;PRINT.SIZE.MAX.X:168.43
;PRINT.SIZE.MAX.Y:159.43
;PRINT.SIZE.MAX.Z:10.87
;END_OF_HEADER
;Generated with Cura_SteamEngine 4.1.0
T0
M82 ;absolute extrusion mode

G92 E0
M109 S210
G0 F15000 X9 Y6 Z2
G280
G1 F1500 E-6.5
;LAYER_COUNT:54
;LAYER:0
M107
M204 S625
M205 X6 Y6
G0 F4285.7 X67.735 Y58.818 Z0.27
M204 S500
M205 X5 Y5
;TYPE:SKIRT
G1 F1500 E0
G1 F1200 X68.171 Y58.401 E0.01072
G1 X68.974 Y57.741 E0.0292
G1 X69.456 Y57.402 E0.03968
G1 X70.32 Y56.883 E0.05759
G1 X70.847 Y56.617 E0.06809
G1 X71.803 Y56.221 E0.08648
G1 X72.359 Y56.038 E0.09689
G1 X73.332 Y55.795 E0.11471
G1 X73.915 Y55.693 E0.12523
G1 X74.654 Y55.604 E0.13846
G1 X75.087 Y55.589 E0.14617
G1 X81.013 Y55.57 E0.25151
G1 X157.499 Y55.57 E1.61112
G1 X158.347 Y55.622 E1.62622
G1 X159.32 Y55.742 E1.64365
G1 X160.053 Y55.873 E1.65689
G1 X160.642 Y56.039 E1.66776
G1 X161.2 Y56.223 E1.67821
G1 X162.153 Y56.617 E1.69654
G1 X162.68 Y56.883 E1.70703
G1 X163.531 Y57.393 E1.72467
G1 X164.011 Y57.729 E1.73508
G1 X164.815 Y58.387 E1.75355
G1 X165.231 Y58.783 E1.76376
G1 X165.904 Y59.523 E1.78154
G1 X166.269 Y59.988 E1.79205
G1 X166.836 Y60.831 E1.81011
G1 X167.126 Y61.339 E1.82051
G1 X167.564 Y62.256 E1.83857
G1 X167.779 Y62.807 E1.84909
G1 X168.076 Y63.768 E1.86697
G1 X168.208 Y64.34 E1.8774
G1 X168.366 Y65.38 E1.8961
G1 X168.41 Y65.967 E1.90656
G1 X168.429 Y66.485 E1.91578
G1 X168.43 Y142.964 E3.27527
G1 X168.43 Y148.5 E3.37368
G1 X168.413 Y148.983 E3.38227
G1 X168.373 Y149.555 E3.39246
G1 X168.226 Y150.569 E3.41067
G1 X168.099 Y151.143 E3.42112
G1 X167.804 Y152.127 E3.43938
G1 X167.592 Y152.68 E3.44991
G1 X167.165 Y153.589 E3.46776
G1 X166.879 Y154.099 E3.47816
G1 X166.315 Y154.951 E3.49632
G1 X165.955 Y155.416 E3.50677
G1 X165.265 Y156.182 E3.5251
G1 X164.829 Y156.599 E3.53582
G1 X164.026 Y157.259 E3.5543
G1 X163.544 Y157.598 E3.56478
G1 X162.68 Y158.117 E3.58269
G1 X162.153 Y158.383 E3.59319
G1 X161.197 Y158.779 E3.61158
G1 X160.641 Y158.962 E3.62199
G1 X159.668 Y159.205 E3.63981
G1 X159.085 Y159.307 E3.65033
G1 X158.346 Y159.396 E3.66356
G1 X157.913 Y159.411 E3.67127
G1 X151.987 Y159.43 E3.77661
G1 X75.5 Y159.43 E5.13624
G1 X74.993 Y159.411 E5.14526
G1 X74.407 Y159.368 E5.1557
G1 X73.391 Y159.218 E5.17396
G1 X72.814 Y159.088 E5.18447
G1 X71.841 Y158.792 E5.20255
G1 X71.292 Y158.58 E5.21301
G1 X70.37 Y158.144 E5.23114
G1 X69.862 Y157.856 E5.24152
G1 X69.02 Y157.293 E5.25953
G1 X68.553 Y156.929 E5.27005
G1 X67.799 Y156.247 E5.28812
G1 X67.405 Y155.834 E5.29827
G1 X66.765 Y155.057 E5.31616
G1 X66.422 Y154.573 E5.32671
G1 X65.899 Y153.708 E5.34468
G1 X65.633 Y153.185 E5.35511
G1 X65.231 Y152.22 E5.37369
G1 X65.047 Y151.664 E5.3841
G1 X64.804 Y150.704 E5.4017
G1 X64.7 Y150.121 E5.41223
G1 X64.609 Y149.382 E5.42547
G1 X64.592 Y148.906 E5.43393
G1 X64.57 Y72.038 E6.80034
G1 X64.57 Y66.5 E6.89878
G1 X64.587 Y66.017 E6.90737
G1 X64.627 Y65.445 E6.91757
G1 X64.774 Y64.431 E6.93578
G1 X64.901 Y63.857 E6.94623
G1 X65.196 Y62.873 E6.96449
G1 X65.408 Y62.32 E6.97502
G1 X65.835 Y61.411 E6.99287
G1 X66.121 Y60.901 E7.00326
G1 X66.685 Y60.049 E7.02143
G1 X67.045 Y59.584 E7.03188
G1 X67.735 Y58.818 E7.05021
M204 S625
M205 X6 Y6
G0 F4285.7 X68.025 Y59.121
M204 S500
M205 X5 Y5
G1 F1200 X68.461 Y58.704 E7.06093
G1 X69.216 Y58.084 E7.0783
G1 X69.698 Y57.745 E7.08877
G1 X70.51 Y57.258 E7.1056
G1 X71.037 Y56.992 E7.1161
G1 X71.935 Y56.62 E7.13337
G1 X72.491 Y56.437 E7.14378
G1 X73.404 Y56.208 E7.16051
G1 X73.987 Y56.106 E7.17103
G1 X74.703 Y56.022 E7.18385
G1 X75.088 Y56.009 E7.19069
G1 X81.014 Y55.99 E7.29604
G1 X157.499 Y55.99 E8.65563
G1 X158.296 Y56.039 E8.66983
G1 X159.269 Y56.159 E8.68725
G1 X159.979 Y56.287 E8.70008
G1 X160.511 Y56.437 E8.7099
G1 X161.069 Y56.621 E8.72035
G1 X161.963 Y56.992 E8.73755
G1 X162.49 Y57.258 E8.74805
G1 X163.29 Y57.737 E8.76462
G1 X163.77 Y58.073 E8.77504
G1 X164.526 Y58.691 E8.79239
G1 X164.942 Y59.087 E8.8026
G1 X165.574 Y59.782 E8.8193
G1 X165.939 Y60.247 E8.82981
G1 X166.472 Y61.04 E8.84679
G1 X166.762 Y61.548 E8.85719
G1 X167.173 Y62.409 E8.87415
G1 X167.388 Y62.96 E8.88467
G1 X167.666 Y63.862 E8.90144
G1 X167.798 Y64.434 E8.91188
G1 X167.947 Y65.411 E8.92945
G1 X167.991 Y65.998 E8.93991
G1 X168.009 Y66.485 E8.94857
G1 X168.01 Y142.964 E10.30806
G1 X168.01 Y148.5 E10.40647
G1 X167.994 Y148.954 E10.41455
G1 X167.954 Y149.526 E10.42474
G1 X167.816 Y150.478 E10.44184
G1 X167.689 Y151.052 E10.45229
G1 X167.412 Y151.976 E10.46944
G1 X167.2 Y152.529 E10.47996
G1 X166.799 Y153.383 E10.49673
G1 X166.513 Y153.893 E10.50713
G1 X165.983 Y154.694 E10.5242
G1 X165.623 Y155.159 E10.53465
G1 X164.975 Y155.879 E10.55187
G1 X164.539 Y156.296 E10.5626
G1 X163.784 Y156.916 E10.57996
G1 X163.302 Y157.255 E10.59044
G1 X162.49 Y157.742 E10.60727
G1 X161.963 Y158.008 E10.61776
G1 X161.065 Y158.38 E10.63504
G1 X160.509 Y158.563 E10.64545
G1 X159.596 Y158.792 E10.66218
G1 X159.013 Y158.894 E10.6727
G1 X158.297 Y158.978 E10.68552
G1 X157.912 Y158.991 E10.69236
G1 X151.986 Y159.01 E10.7977
G1 X75.5 Y159.01 E12.15732
G1 X75.024 Y158.993 E12.16578
G1 X74.438 Y158.95 E12.17623
G1 X73.483 Y158.808 E12.19339
G1 X72.906 Y158.678 E12.2039
G1 X71.992 Y158.4 E12.22089
G1 X71.443 Y158.188 E12.23135
G1 X70.577 Y157.778 E12.24838
G1 X70.069 Y157.49 E12.25876
G1 X69.278 Y156.962 E12.27567
G1 X68.811 Y156.598 E12.28619
G1 X68.103 Y155.957 E12.30317
G1 X67.709 Y155.544 E12.31332
G1 X67.108 Y154.814 E12.33012
G1 X66.765 Y154.33 E12.34067
G1 X66.273 Y153.517 E12.35756
G1 X66.007 Y152.994 E12.36799
G1 X65.63 Y152.088 E12.38543
G1 X65.446 Y151.532 E12.39585
G1 X65.217 Y150.63 E12.41239
G1 X65.113 Y150.047 E12.42291
G1 X65.026 Y149.331 E12.43574
G1 X65.012 Y148.906 E12.4433
G1 X64.99 Y72.038 E13.8097
G1 X64.99 Y66.5 E13.90814
G1 X65.006 Y66.046 E13.91622
G1 X65.046 Y65.474 E13.92641
G1 X65.184 Y64.522 E13.94351
G1 X65.311 Y63.948 E13.95396
G1 X65.588 Y63.024 E13.97111
G1 X65.8 Y62.471 E13.98163
G1 X66.201 Y61.617 E13.99841
G1 X66.487 Y61.107 E14.0088
G1 X67.017 Y60.306 E14.02587
G1 X67.377 Y59.841 E14.03633
G1 X68.025 Y59.121 E14.05355
M204 S625
M205 X6 Y6
G0 F4285.7 X68.316 Y59.425
M204 S500
M205 X5 Y5
G1 F1200 X68.752 Y59.008 E14.06427
G1 X69.458 Y58.428 E14.08051
G1 X69.94 Y58.089 E14.09099
G1 X70.699 Y57.633 E14.10673
G1 X71.226 Y57.367 E14.11722
G1 X72.066 Y57.019 E14.13338
G1 X72.622 Y56.836 E14.14379
G1 X73.476 Y56.622 E14.15944
G1 X74.059 Y56.52 E14.16996
G1 X75.089 Y56.429 E14.18834
G1 X81.015 Y56.41 E14.29368
G1 X157.499 Y56.41 E15.65326
G1 X158.244 Y56.456 E15.66653
G1 X159.217 Y56.576 E15.68395
G1 X159.904 Y56.701 E15.69637
G1 X160.379 Y56.836 E15.70514
G1 X160.937 Y57.02 E15.71559
G1 X161.774 Y57.367 E15.73169
G1 X162.301 Y57.633 E15.74219
G1 X163.049 Y58.081 E15.75769
G1 X163.529 Y58.417 E15.7681
G1 X164.236 Y58.995 E15.78434
G1 X164.652 Y59.391 E15.79454
G1 X165.243 Y60.042 E15.81017
G1 X165.608 Y60.507 E15.82068
G1 X166.107 Y61.248 E15.83656
G1 X166.397 Y61.756 E15.84696
G1 X166.781 Y62.561 E15.86281
G1 X166.996 Y63.112 E15.87333
G1 X167.257 Y63.957 E15.88905
G1 X167.389 Y64.529 E15.89948
G1 X167.528 Y65.443 E15.91592
G1 X167.572 Y66.03 E15.92638
G1 X167.589 Y66.485 E15.93448
G1 X167.59 Y142.964 E17.29397
G1 X167.59 Y148.5 E17.39237
G1 X167.575 Y148.925 E17.39993
G1 X167.535 Y149.497 E17.41013
G1 X167.406 Y150.388 E17.42613
G1 X167.279 Y150.962 E17.43658
G1 X167.019 Y151.826 E17.45262
G1 X166.807 Y152.379 E17.46315
G1 X166.433 Y153.178 E17.47883
G1 X166.147 Y153.688 E17.48922
G1 X165.651 Y154.437 E17.50519
G1 X165.291 Y154.902 E17.51564
G1 X164.684 Y155.575 E17.53175
G1 X164.248 Y155.992 E17.54248
G1 X163.542 Y156.572 E17.55872
G1 X163.06 Y156.911 E17.5692
G1 X162.301 Y157.367 E17.58493
G1 X161.774 Y157.633 E17.59543
G1 X160.934 Y157.981 E17.61159
G1 X160.378 Y158.164 E17.622
G1 X159.524 Y158.378 E17.63765
G1 X158.941 Y158.48 E17.64817
G1 X157.911 Y158.571 E17.66655
G1 X151.985 Y158.59 E17.77189
G1 X75.5 Y158.59 E19.13148
G1 X75.054 Y158.574 E19.13942
G1 X74.468 Y158.531 E19.14986
G1 X73.575 Y158.398 E19.16591
G1 X72.998 Y158.268 E19.17642
G1 X72.143 Y158.008 E19.19231
G1 X71.594 Y157.796 E19.20277
G1 X70.785 Y157.413 E19.21868
G1 X70.277 Y157.125 E19.22906
G1 X69.536 Y156.63 E19.2449
G1 X69.069 Y156.266 E19.25543
G1 X68.407 Y155.667 E19.2713
G1 X68.013 Y155.254 E19.28145
G1 X67.45 Y154.571 E19.29718
G1 X67.107 Y154.087 E19.30772
G1 X66.648 Y153.327 E19.32351
G1 X66.382 Y152.804 E19.33394
G1 X66.028 Y151.956 E19.35027
G1 X65.844 Y151.4 E19.36068
G1 X65.631 Y150.556 E19.37616
G1 X65.527 Y149.973 E19.38668
G1 X65.444 Y149.281 E19.39907
G1 X65.432 Y148.906 E19.40574
G1 X65.41 Y72.038 E20.77214
G1 X65.41 Y66.5 E20.87059
G1 X65.425 Y66.075 E20.87815
G1 X65.465 Y65.503 E20.88834
G1 X65.594 Y64.612 E20.90434
G1 X65.721 Y64.038 E20.91479
G1 X65.981 Y63.174 E20.93083
G1 X66.193 Y62.621 E20.94136
G1 X66.567 Y61.822 E20.95704
G1 X66.853 Y61.312 E20.96744
G1 X67.349 Y60.563 E20.98341
G1 X67.709 Y60.098 E20.99386
G1 X68.316 Y59.425 E21.00997
M204 S625
M205 X6 Y6
G0 F4285.7 X68.606 Y59.728
M204 S500
M205 X5 Y5
G1 F1200 X69.042 Y59.311 E21.02069
G1 X69.699 Y58.771 E21.03581
G1 X70.181 Y58.432 E21.04629
G1 X70.888 Y58.008 E21.06094
G1 X71.415 Y57.742 E21.07143
G1 X72.197 Y57.418 E21.08648
G1 X72.753 Y57.235 E21.09689
G1 X73.549 Y57.036 E21.11147
G1 X74.132 Y56.934 E21.12199
G1 X75.091 Y56.849 E21.13911
G1 X81.017 Y56.83 E21.24445
G1 X157.499 Y56.83 E22.60399
G1 X158.193 Y56.873 E22.61635
G1 X159.166 Y56.993 E22.63378
G1 X159.828 Y57.115 E22.64574
G1 X160.248 Y57.235 E22.65351
G1 X160.806 Y57.419 E22.66395
G1 X161.585 Y57.742 E22.67894
G1 X162.112 Y58.008 E22.68944
G1 X162.809 Y58.425 E22.70387
G1 X163.289 Y58.761 E22.71429
G1 X163.946 Y59.299 E22.72938
G1 X164.362 Y59.695 E22.73959
G1 X164.913 Y60.301 E22.75415
G1 X165.278 Y60.766 E22.76466
G1 X165.742 Y61.456 E22.77944
G1 X166.032 Y61.964 E22.78984
G1 X166.39 Y62.714 E22.80461
G1 X166.605 Y63.265 E22.81513
G1 X166.848 Y64.051 E22.82975
G1 X166.98 Y64.623 E22.84019
G1 X167.109 Y65.474 E22.85549
G1 X167.153 Y66.061 E22.86595
G1 X167.169 Y66.485 E22.87349
G1 X167.17 Y142.964 E24.23298
G1 X167.17 Y148.5 E24.33139
G1 X167.156 Y148.896 E24.33843
G1 X167.116 Y149.468 E24.34862
G1 X166.996 Y150.297 E24.36351
G1 X166.869 Y150.871 E24.37396
G1 X166.627 Y151.676 E24.38891
G1 X166.415 Y152.229 E24.39943
G1 X166.066 Y152.972 E24.41403
G1 X165.78 Y153.482 E24.42442
G1 X165.318 Y154.18 E24.4393
G1 X164.958 Y154.645 E24.44975
G1 X164.394 Y155.272 E24.46474
G1 X163.958 Y155.689 E24.47547
G1 X163.301 Y156.229 E24.49059
G1 X162.819 Y156.568 E24.50106
G1 X162.112 Y156.992 E24.51572
G1 X161.585 Y157.258 E24.52621
G1 X160.803 Y157.582 E24.54126
G1 X160.247 Y157.765 E24.55166
G1 X159.451 Y157.964 E24.56625
G1 X158.868 Y158.066 E24.57677
G1 X157.909 Y158.151 E24.59388
G1 X151.983 Y158.17 E24.69922
G1 X75.5 Y158.17 E26.05878
G1 X75.085 Y158.155 E26.06616
G1 X74.499 Y158.112 E26.07661
G1 X73.668 Y157.988 E26.09154
G1 X73.091 Y157.858 E26.10206
G1 X72.294 Y157.616 E26.11686
G1 X71.745 Y157.404 E26.12733
G1 X70.992 Y157.047 E26.14214
G1 X70.484 Y156.759 E26.15252
G1 X69.794 Y156.299 E26.16726
G1 X69.327 Y155.935 E26.17779
G1 X68.71 Y155.377 E26.19257
G1 X68.316 Y154.964 E26.20272
G1 X67.793 Y154.328 E26.21736
G1 X67.45 Y153.844 E26.2279
G1 X67.022 Y153.136 E26.24261
G1 X66.756 Y152.613 E26.25304
G1 X66.427 Y151.824 E26.26823
G1 X66.243 Y151.268 E26.27864
G1 X66.044 Y150.483 E26.29304
G1 X65.94 Y149.9 E26.30357
G1 X65.852 Y148.906 E26.32131
G1 X65.83 Y72.038 E27.68771
G1 X65.83 Y66.5 E27.78615
G1 X65.844 Y66.104 E27.7932
G1 X65.884 Y65.532 E27.80339
G1 X66.004 Y64.703 E27.81828
G1 X66.131 Y64.129 E27.82873
G1 X66.373 Y63.324 E27.84367
G1 X66.585 Y62.771 E27.8542
G1 X66.934 Y62.028 E27.86879
G1 X67.22 Y61.518 E27.87919
G1 X67.682 Y60.82 E27.89406
G1 X68.042 Y60.355 E27.90452
G1 X68.606 Y59.728 E27.91951
M204 S625
M205 X6 Y6
G0 F4285.7 X68.896 Y60.032
M204 S500
M205 X5 Y5
G1 F1200 X69.332 Y59.615 E27.93023
G1 X69.941 Y59.115 E27.94424
G1 X70.423 Y58.776 E27.95472
G1 X71.077 Y58.383 E27.96828
G1 X71.604 Y58.117 E27.97877
G1 X72.329 Y57.817 E27.99272
G1 X72.885 Y57.634 E28.00312
G1 X73.621 Y57.45 E28.01661
G1 X74.204 Y57.348 E28.02713
G1 X75.092 Y57.269 E28.04298
G1 X81.018 Y57.25 E28.14832
G1 X157.499 Y57.25 E29.50784
G1 X158.142 Y57.289 E29.51929
G1 X159.115 Y57.409 E29.53672
G1 X159.751 Y57.528 E29.54822
G1 X160.116 Y57.634 E29.55498
G1 X160.674 Y57.818 E29.56542
G1 X161.396 Y58.117 E29.57932
G1 X161.923 Y58.383 E29.58981
G1 X162.568 Y58.769 E29.60317
G1 X163.048 Y59.105 E29.61359
G1 X163.657 Y59.603 E29.62757
G1 X164.073 Y59.999 E29.63778
G1 X164.583 Y60.56 E29.65126
G1 X164.948 Y61.025 E29.66177
G1 X165.377 Y61.664 E29.67545
G1 X165.667 Y62.172 E29.68584
G1 X165.999 Y62.867 E29.69954
G1 X166.214 Y63.418 E29.71005
G1 X166.439 Y64.145 E29.72358
G1 X166.571 Y64.717 E29.73401
G1 X166.69 Y65.506 E29.7482
G1 X166.734 Y66.093 E29.75866
G1 X166.749 Y66.485 E29.76563
G1 X166.75 Y142.964 E31.12512
G1 X166.75 Y148.5 E31.22353
G1 X166.737 Y148.866 E31.23004
G1 X166.697 Y149.438 E31.24023
G1 X166.586 Y150.206 E31.25403
G1 X166.459 Y150.78 E31.26448
G1 X166.235 Y151.525 E31.27831
G1 X166.023 Y152.078 E31.28883
G1 X165.7 Y152.767 E31.30236
G1 X165.414 Y153.277 E31.31275
G1 X164.986 Y153.923 E31.32653
G1 X164.626 Y154.388 E31.33698
G1 X164.104 Y154.968 E31.35085
G1 X163.668 Y155.385 E31.36158
G1 X163.059 Y155.885 E31.37558
G1 X162.577 Y156.224 E31.38606
G1 X161.923 Y156.617 E31.39962
G1 X161.396 Y156.883 E31.41012
G1 X160.671 Y157.183 E31.42406
G1 X160.115 Y157.366 E31.43447
G1 X159.379 Y157.55 E31.44795
G1 X158.796 Y157.652 E31.45848
G1 X157.908 Y157.731 E31.47432
G1 X151.982 Y157.75 E31.57966
G1 X75.5 Y157.75 E32.93921
G1 X75.116 Y157.736 E32.94604
G1 X74.53 Y157.693 E32.95648
G1 X73.76 Y157.579 E32.97032
G1 X73.183 Y157.449 E32.98083
G1 X72.446 Y157.225 E32.99452
G1 X71.897 Y157.013 E33.00499
G1 X71.199 Y156.682 E33.01872
G1 X70.691 Y156.394 E33.0291
G1 X70.053 Y155.968 E33.04274
G1 X69.586 Y155.604 E33.05326
G1 X69.014 Y155.087 E33.06697
G1 X68.62 Y154.674 E33.07711
G1 X68.136 Y154.086 E33.09065
G1 X67.793 Y153.602 E33.1012
G1 X67.396 Y152.946 E33.11483
G1 X67.13 Y152.423 E33.12526
G1 X66.826 Y151.692 E33.13933
G1 X66.642 Y151.136 E33.14974
G1 X66.458 Y150.409 E33.16307
G1 X66.354 Y149.826 E33.1736
G1 X66.272 Y148.906 E33.19002
G1 X66.25 Y72.038 E34.55642
G1 X66.25 Y66.5 E34.65486
G1 X66.263 Y66.134 E34.66137
G1 X66.303 Y65.562 E34.67157
G1 X66.414 Y64.794 E34.68536
G1 X66.541 Y64.22 E34.69581
G1 X66.765 Y63.475 E34.70964
G1 X66.977 Y62.922 E34.72017
G1 X67.3 Y62.233 E34.73369
G1 X67.586 Y61.723 E34.74409
G1 X68.014 Y61.077 E34.75786
G1 X68.374 Y60.612 E34.76832
G1 X68.896 Y60.032 E34.78219
M204 S625
M205 X6 Y6
G0 F4285.7 X69.187 Y60.335
M204 S500
M205 X5 Y5
G1 F1200 X69.623 Y59.918 E34.79291
G1 X70.182 Y59.458 E34.80578
G1 X70.664 Y59.119 E34.81625
G1 X71.267 Y58.758 E34.82875
G1 X71.794 Y58.492 E34.83924
G1 X72.46 Y58.216 E34.85206
G1 X73.016 Y58.033 E34.86246
G1 X73.694 Y57.863 E34.87489
G1 X74.277 Y57.761 E34.88541
G1 X75.094 Y57.689 E34.89999
G1 X81.02 Y57.67 E35.00533
G1 X157.499 Y57.67 E36.36482
G1 X158.09 Y57.706 E36.37534
G1 X159.063 Y57.826 E36.39277
G1 X159.674 Y57.942 E36.40382
G1 X159.985 Y58.033 E36.40958
G1 X160.543 Y58.217 E36.42003
G1 X161.206 Y58.492 E36.43279
G1 X161.733 Y58.758 E36.44328
G1 X162.327 Y59.113 E36.45558
G1 X162.807 Y59.449 E36.466
G1 X163.367 Y59.908 E36.47887
G1 X163.783 Y60.304 E36.48908
G1 X164.252 Y60.82 E36.50147
G1 X164.617 Y61.285 E36.51198
G1 X165.013 Y61.872 E36.52457
G1 X165.303 Y62.38 E36.53497
G1 X165.608 Y63.019 E36.54755
