;START_OF_HEADER
;HEADER_VERSION:0.1
;FLAVOR:Griffin
;GENERATOR.NAME:Cura_SteamEngine
;GENERATOR.VERSION:4.1.0
;GENERATOR.BUILD_DATE:2019-05-28
;TARGET_MACHINE.NAME:Ultimaker 3 Extended
;EXTRUDER_TRAIN.0.INITIAL_TEMPERATURE:210
;EXTRUDER_TRAIN.0.MATERIAL.VOLUME_USED:2890
;EXTRUDER_TRAIN.0.MATERIAL.GUID:e509f649-9fe6-4b14-ac45-d441438cb4ef
;EXTRUDER_TRAIN.0.NOZZLE.DIAMETER:0.4
;EXTRUDER_TRAIN.0.NOZZLE.NAME:AA 0.4
;BUILD_PLATE.TYPE:glass
;BUILD_PLATE.INITIAL_TEMPERATURE:60
;BUILD_VOLUME.TEMPERATURE:35
;PRINT.TIME:1091
;PRINT.GROUPS:1
;PRINT.SIZE.MIN.X:9
;PRINT.SIZE.MIN.Y:6
;PRINT.SIZE.MIN.Z:0.27
;PRINT.SIZE.MAX.X:133.43
;PRINT.SIZE.MAX.Y:124.43
;PRINT.SIZE.MAX.Z:19.87
;END_OF_HEADER
;Generated with Cura_SteamEngine 4.1.0
T0
M82 ;absolute extrusion mode

G92 E0
M109 S210
G0 F15000 X9 Y6 Z2
G280
G1 F1500 E-6.5
;LAYER_COUNT:99
;LAYER:0
M107
M204 S625
M205 X6 Y6
G0 F4285.7 X101.44 Y92.765 Z0.27
M204 S500
M205 X5 Y5
;TYPE:SKIRT
G1 F1500 E0
G1 F1200 X101.977 Y92.25 E0.01323
G1 X102.566 Y91.795 E0.02646
G1 X103.2 Y91.406 E0.03968
G1 X103.873 Y91.087 E0.05292
G1 X104.576 Y90.842 E0.06615
G1 X105.301 Y90.674 E0.07938
G1 X106.04 Y90.585 E0.09261
G1 X106.5 Y90.57 E0.10079
G1 X109.5 Y90.57 E0.15412
G1 X110.243 Y90.61 E0.16735
G1 X110.978 Y90.729 E0.18058
G1 X111.696 Y90.927 E0.19382
G1 X112.388 Y91.2 E0.20705
G1 X113.047 Y91.546 E0.22028
G1 X113.665 Y91.961 E0.23351
G1 X114.235 Y92.44 E0.24674
G1 X114.75 Y92.977 E0.25997
G1 X115.205 Y93.566 E0.2732
G1 X115.594 Y94.2 E0.28642
G1 X115.913 Y94.873 E0.29966
G1 X116.158 Y95.576 E0.3129
G1 X116.326 Y96.301 E0.32612
G1 X116.415 Y97.04 E0.33936
G1 X116.43 Y97.5 E0.34754
G1 X116.43 Y107.57 E0.52654
G1 X126.5 Y107.57 E0.70555
G1 X127.243 Y107.61 E0.71877
G1 X127.978 Y107.729 E0.73201
G1 X128.696 Y107.927 E0.74525
G1 X129.388 Y108.2 E0.75847
G1 X130.047 Y108.546 E0.7717
G1 X130.665 Y108.961 E0.78493
G1 X131.235 Y109.44 E0.79817
G1 X131.75 Y109.977 E0.8114
G1 X132.205 Y110.566 E0.82463
G1 X132.594 Y111.2 E0.83785
G1 X132.913 Y111.873 E0.85109
G1 X133.158 Y112.576 E0.86432
G1 X133.326 Y113.301 E0.87755
G1 X133.415 Y114.04 E0.89078
G1 X133.43 Y114.5 E0.89896
G1 X133.43 Y117.5 E0.95229
G1 X133.39 Y118.243 E0.96552
G1 X133.271 Y118.978 E0.97875
G1 X133.073 Y119.696 E0.99199
G1 X132.8 Y120.388 E1.00522
G1 X132.454 Y121.047 E1.01845
G1 X132.039 Y121.665 E1.03168
G1 X131.56 Y122.235 E1.04491
G1 X131.023 Y122.75 E1.05814
G1 X130.434 Y123.205 E1.07137
G1 X129.8 Y123.594 E1.08459
G1 X129.127 Y123.913 E1.09783
G1 X128.424 Y124.158 E1.11107
G1 X127.699 Y124.326 E1.12429
G1 X126.96 Y124.415 E1.13753
G1 X126.5 Y124.43 E1.14571
G1 X106.5 Y124.43 E1.50123
G1 X105.757 Y124.39 E1.51445
G1 X105.022 Y124.271 E1.52769
G1 X104.304 Y124.073 E1.54093
G1 X103.612 Y123.8 E1.55415
G1 X102.953 Y123.454 E1.56738
G1 X102.335 Y123.039 E1.58062
G1 X101.765 Y122.56 E1.59385
G1 X101.25 Y122.023 E1.60708
G1 X100.795 Y121.434 E1.62031
G1 X100.406 Y120.8 E1.63353
G1 X100.087 Y120.127 E1.64677
G1 X99.842 Y119.424 E1.66
G1 X99.674 Y118.699 E1.67323
G1 X99.585 Y117.96 E1.68646
G1 X99.57 Y117.5 E1.69464
G1 X99.57 Y97.5 E2.05016
G1 X99.61 Y96.757 E2.06339
G1 X99.729 Y96.022 E2.07663
G1 X99.927 Y95.304 E2.08986
G1 X100.2 Y94.612 E2.10309
G1 X100.546 Y93.953 E2.11632
G1 X100.961 Y93.335 E2.12955
G1 X101.44 Y92.765 E2.14279
M204 S625
M205 X6 Y6
G0 F4285.7 X101.854 Y92.94
M204 S500
M205 X5 Y5
G1 F1200 X102.387 Y92.454 E2.15561
G1 X102.971 Y92.03 E2.16844
G1 X103.598 Y91.673 E2.18126
G1 X104.26 Y91.387 E2.19408
G1 X104.95 Y91.177 E2.2069
G1 X105.659 Y91.045 E2.21972
G1 X106.5 Y90.99 E2.2347
G1 X109.5 Y90.99 E2.28803
G1 X110.22 Y91.03 E2.30085
G1 X110.932 Y91.149 E2.31368
G1 X111.626 Y91.347 E2.32651
G1 X112.293 Y91.62 E2.33932
G1 X112.927 Y91.965 E2.35215
G1 X113.518 Y92.378 E2.36497
G1 X114.06 Y92.854 E2.37779
G1 X114.546 Y93.387 E2.39061
G1 X114.97 Y93.971 E2.40344
G1 X115.327 Y94.598 E2.41627
G1 X115.613 Y95.26 E2.42909
G1 X115.823 Y95.95 E2.44191
G1 X115.955 Y96.659 E2.45473
G1 X116.01 Y97.5 E2.46971
G1 X116.01 Y107.99 E2.65618
G1 X126.5 Y107.99 E2.84265
G1 X127.22 Y108.03 E2.85547
G1 X127.932 Y108.149 E2.8683
G1 X128.626 Y108.347 E2.88113
G1 X129.293 Y108.62 E2.89394
G1 X129.927 Y108.965 E2.90677
G1 X130.518 Y109.378 E2.91959
G1 X131.06 Y109.854 E2.93241
G1 X131.546 Y110.387 E2.94523
G1 X131.97 Y110.971 E2.95806
G1 X132.327 Y111.598 E2.97089
G1 X132.613 Y112.26 E2.9837
G1 X132.823 Y112.95 E2.99653
G1 X132.955 Y113.659 E3.00935
G1 X133.01 Y114.5 E3.02433
G1 X133.01 Y117.5 E3.07765
G1 X132.97 Y118.22 E3.09047
G1 X132.851 Y118.932 E3.10331
G1 X132.653 Y119.626 E3.11613
G1 X132.38 Y120.293 E3.12895
G1 X132.035 Y120.927 E3.14178
G1 X131.622 Y121.518 E3.15459
G1 X131.146 Y122.06 E3.16742
G1 X130.613 Y122.546 E3.18024
G1 X130.029 Y122.97 E3.19307
G1 X129.402 Y123.327 E3.20589
G1 X128.74 Y123.613 E3.21871
G1 X128.05 Y123.823 E3.23153
G1 X127.341 Y123.955 E3.24435
G1 X126.5 Y124.01 E3.25933
G1 X106.5 Y124.01 E3.61485
G1 X105.78 Y123.97 E3.62767
G1 X105.068 Y123.851 E3.6405
G1 X104.374 Y123.653 E3.65333
G1 X103.707 Y123.38 E3.66614
G1 X103.073 Y123.035 E3.67897
G1 X102.482 Y122.622 E3.69179
G1 X101.94 Y122.146 E3.70461
G1 X101.454 Y121.613 E3.71743
G1 X101.03 Y121.029 E3.73026
G1 X100.673 Y120.402 E3.74309
G1 X100.387 Y119.74 E3.75591
G1 X100.177 Y119.05 E3.76873
G1 X100.045 Y118.341 E3.78155
G1 X99.99 Y117.5 E3.79653
G1 X99.99 Y97.5 E4.15205
G1 X100.03 Y96.78 E4.16487
G1 X100.149 Y96.068 E4.1777
G1 X100.347 Y95.374 E4.19053
G1 X100.62 Y94.707 E4.20334
G1 X100.965 Y94.073 E4.21617
G1 X101.378 Y93.482 E4.22899
G1 X101.854 Y92.94 E4.24181
M204 S625
M205 X6 Y6
G0 F4285.7 X102.268 Y93.121
M204 S500
M205 X5 Y5
G1 F1200 X102.796 Y92.666 E4.2542
G1 X103.373 Y92.274 E4.2666
G1 X103.992 Y91.951 E4.27901
G1 X104.643 Y91.7 E4.29141
G1 X105.319 Y91.526 E4.30382
G1 X106.01 Y91.43 E4.31622
G1 X106.5 Y91.41 E4.32494
G1 X109.5 Y91.41 E4.37827
G1 X110.197 Y91.45 E4.39068
G1 X110.884 Y91.569 E4.40307
G1 X111.553 Y91.767 E4.41547
G1 X112.196 Y92.039 E4.42788
G1 X112.802 Y92.383 E4.44027
G1 X113.366 Y92.795 E4.45269
G1 X113.879 Y93.268 E4.46509
G1 X114.334 Y93.796 E4.47748
G1 X114.726 Y94.373 E4.48988
G1 X115.049 Y94.992 E4.50229
G1 X115.3 Y95.643 E4.51469
G1 X115.474 Y96.319 E4.5271
G1 X115.57 Y97.01 E4.5395
G1 X115.59 Y97.5 E4.54822
G1 X115.59 Y108.41 E4.74216
G1 X126.5 Y108.41 E4.93609
G1 X127.197 Y108.45 E4.9485
G1 X127.884 Y108.569 E4.9609
G1 X128.553 Y108.767 E4.9733
G1 X129.196 Y109.039 E4.98571
G1 X129.802 Y109.383 E4.9981
G1 X130.366 Y109.795 E5.01051
G1 X130.879 Y110.268 E5.02292
G1 X131.334 Y110.796 E5.03531
G1 X131.726 Y111.373 E5.04771
G1 X132.049 Y111.992 E5.06012
G1 X132.3 Y112.643 E5.07252
G1 X132.474 Y113.319 E5.08493
G1 X132.57 Y114.01 E5.09733
G1 X132.59 Y114.5 E5.10605
G1 X132.59 Y117.5 E5.15937
G1 X132.55 Y118.197 E5.17178
G1 X132.431 Y118.884 E5.18418
G1 X132.233 Y119.553 E5.19658
G1 X131.961 Y120.196 E5.20899
G1 X131.617 Y120.802 E5.22138
G1 X131.205 Y121.366 E5.23379
G1 X130.732 Y121.879 E5.2462
G1 X130.204 Y122.334 E5.25859
G1 X129.627 Y122.726 E5.27099
G1 X129.008 Y123.049 E5.2834
G1 X128.357 Y123.3 E5.2958
G1 X127.681 Y123.474 E5.30821
G1 X126.99 Y123.57 E5.32061
G1 X126.5 Y123.59 E5.32933
G1 X106.5 Y123.59 E5.68485
G1 X105.803 Y123.55 E5.69726
G1 X105.116 Y123.431 E5.70965
G1 X104.447 Y123.233 E5.72205
G1 X103.804 Y122.961 E5.73446
G1 X103.198 Y122.617 E5.74685
G1 X102.634 Y122.205 E5.75927
G1 X102.121 Y121.732 E5.77167
G1 X101.666 Y121.204 E5.78406
G1 X101.274 Y120.627 E5.79646
G1 X100.951 Y120.008 E5.80887
G1 X100.7 Y119.357 E5.82127
G1 X100.526 Y118.681 E5.83368
G1 X100.43 Y117.99 E5.84608
G1 X100.41 Y117.5 E5.8548
G1 X100.41 Y97.5 E6.21032
G1 X100.45 Y96.803 E6.22273
G1 X100.569 Y96.116 E6.23512
G1 X100.767 Y95.447 E6.24753
G1 X101.039 Y94.804 E6.25994
G1 X101.383 Y94.198 E6.27232
G1 X101.795 Y93.634 E6.28474
G1 X102.268 Y93.121 E6.29714
M204 S625
M205 X6 Y6
G0 F4285.7 X102.21 Y93.792
M204 S500
M205 X5 Y5
G1 F1200 X102.68 Y93.31 E6.30911
G1 X103.204 Y92.887 E6.32108
G1 X103.774 Y92.528 E6.33306
G1 X104.382 Y92.24 E6.34501
G1 X105.02 Y92.026 E6.35698
G1 X105.68 Y91.89 E6.36896
G1 X106.5 Y91.83 E6.38357
G1 X109.5 Y91.83 E6.4369
G1 X110.172 Y91.87 E6.44887
G1 X110.835 Y91.989 E6.46084
G1 X111.478 Y92.186 E6.47279
G1 X112.094 Y92.458 E6.48476
G1 X112.673 Y92.801 E6.49673
G1 X113.208 Y93.21 E6.5087
G1 X113.69 Y93.68 E6.52066
G1 X114.113 Y94.204 E6.53263
G1 X114.472 Y94.774 E6.54461
G1 X114.76 Y95.382 E6.55657
G1 X114.974 Y96.02 E6.56853
G1 X115.11 Y96.68 E6.58051
G1 X115.17 Y97.5 E6.59512
G1 X115.17 Y108.83 E6.79653
G1 X126.5 Y108.83 E6.99793
G1 X127.172 Y108.87 E7.00989
G1 X127.835 Y108.989 E7.02187
G1 X128.478 Y109.186 E7.03382
G1 X129.094 Y109.458 E7.04579
G1 X129.673 Y109.801 E7.05776
G1 X130.208 Y110.21 E7.06973
G1 X130.69 Y110.68 E7.08169
G1 X131.113 Y111.204 E7.09366
G1 X131.472 Y111.774 E7.10564
G1 X131.76 Y112.382 E7.1176
G1 X131.974 Y113.02 E7.12956
G1 X132.11 Y113.68 E7.14154
G1 X132.17 Y114.5 E7.15615
G1 X132.17 Y117.5 E7.20948
G1 X132.13 Y118.172 E7.22145
G1 X132.011 Y118.835 E7.23342
G1 X131.814 Y119.478 E7.24538
G1 X131.542 Y120.094 E7.25735
G1 X131.199 Y120.673 E7.26931
G1 X130.79 Y121.208 E7.28128
G1 X130.32 Y121.69 E7.29325
G1 X129.796 Y122.113 E7.30522
G1 X129.226 Y122.472 E7.31719
G1 X128.618 Y122.76 E7.32915
G1 X127.98 Y122.974 E7.34111
G1 X127.32 Y123.11 E7.35309
G1 X126.5 Y123.17 E7.36771
G1 X106.5 Y123.17 E7.72323
G1 X105.828 Y123.13 E7.73519
G1 X105.165 Y123.011 E7.74717
G1 X104.522 Y122.814 E7.75912
G1 X103.906 Y122.542 E7.77109
G1 X103.327 Y122.199 E7.78305
G1 X102.792 Y121.79 E7.79503
G1 X102.31 Y121.32 E7.80699
G1 X101.887 Y120.796 E7.81896
G1 X101.528 Y120.226 E7.83094
G1 X101.24 Y119.618 E7.8429
G1 X101.026 Y118.98 E7.85486
G1 X100.89 Y118.32 E7.86684
G1 X100.83 Y117.5 E7.88145
G1 X100.83 Y97.5 E8.23697
G1 X100.87 Y96.828 E8.24894
G1 X100.989 Y96.165 E8.26091
G1 X101.186 Y95.522 E8.27287
G1 X101.458 Y94.906 E8.28484
G1 X101.801 Y94.327 E8.2968
G1 X102.21 Y93.792 E8.30877
M204 S625
M205 X6 Y6
G0 F4285.7 X102.626 Y93.957
M204 S500
M205 X5 Y5
G1 F1200 X103.092 Y93.507 E8.32029
G1 X103.609 Y93.118 E8.33179
G1 X104.171 Y92.795 E8.34331
G1 X104.768 Y92.544 E8.35482
G1 X105.392 Y92.368 E8.36635
G1 X106.032 Y92.271 E8.37785
G1 X106.5 Y92.25 E8.38618
G1 X109.5 Y92.25 E8.43951
G1 X110.147 Y92.29 E8.45103
G1 X110.783 Y92.409 E8.46253
G1 X111.4 Y92.606 E8.47405
G1 X111.989 Y92.877 E8.48557
G1 X112.539 Y93.219 E8.49708
G1 X113.043 Y93.626 E8.5086
G1 X113.493 Y94.092 E8.52012
G1 X113.882 Y94.609 E8.53162
G1 X114.205 Y95.171 E8.54314
G1 X114.456 Y95.768 E8.55465
G1 X114.632 Y96.392 E8.56618
G1 X114.729 Y97.032 E8.57768
G1 X114.75 Y97.5 E8.58601
G1 X114.75 Y109.25 E8.79488
G1 X126.5 Y109.25 E9.00375
G1 X127.147 Y109.29 E9.01527
G1 X127.783 Y109.409 E9.02677
G1 X128.4 Y109.606 E9.03828
G1 X128.989 Y109.877 E9.04981
G1 X129.539 Y110.219 E9.06132
G1 X130.043 Y110.626 E9.07284
G1 X130.493 Y111.092 E9.08435
G1 X130.882 Y111.609 E9.09585
G1 X131.205 Y112.171 E9.10738
G1 X131.456 Y112.768 E9.11889
G1 X131.632 Y113.392 E9.13041
G1 X131.729 Y114.032 E9.14192
G1 X131.75 Y114.5 E9.15025
G1 X131.75 Y117.5 E9.20357
G1 X131.71 Y118.147 E9.2151
G1 X131.591 Y118.783 E9.2266
G1 X131.394 Y119.4 E9.23811
G1 X131.123 Y119.989 E9.24964
G1 X130.781 Y120.539 E9.26115
G1 X130.374 Y121.043 E9.27267
G1 X129.908 Y121.493 E9.28418
G1 X129.391 Y121.882 E9.29568
G1 X128.829 Y122.205 E9.30721
G1 X128.232 Y122.456 E9.31872
G1 X127.608 Y122.632 E9.33024
G1 X126.968 Y122.729 E9.34175
G1 X126.5 Y122.75 E9.35008
G1 X106.5 Y122.75 E9.7056
G1 X105.853 Y122.71 E9.71712
G1 X105.217 Y122.591 E9.72862
G1 X104.6 Y122.394 E9.74013
G1 X104.011 Y122.123 E9.75166
G1 X103.461 Y121.781 E9.76317
G1 X102.957 Y121.374 E9.77469
G1 X102.507 Y120.908 E9.7862
G1 X102.118 Y120.391 E9.7977
G1 X101.795 Y119.829 E9.80923
G1 X101.544 Y119.232 E9.82074
G1 X101.368 Y118.608 E9.83226
G1 X101.271 Y117.968 E9.84377
G1 X101.25 Y117.5 E9.8521
G1 X101.25 Y97.5 E10.20762
G1 X101.29 Y96.853 E10.21914
G1 X101.409 Y96.217 E10.23064
G1 X101.606 Y95.6 E10.24216
G1 X101.877 Y95.011 E10.25368
G1 X102.219 Y94.461 E10.26519
G1 X102.626 Y93.957 E10.27671
M204 S625
M205 X6 Y6
G0 F4285.7 X103.04 Y94.13
M204 S500
M205 X5 Y5
G1 F1200 X103.502 Y93.713 E10.28777
G1 X104.012 Y93.36 E10.2988
G1 X104.564 Y93.075 E10.30984
G1 X105.149 Y92.863 E10.3209
G1 X105.755 Y92.728 E10.33194
G1 X106.5 Y92.67 E10.34522
G1 X109.5 Y92.67 E10.39855
G1 X110.12 Y92.71 E10.40959
G1 X110.73 Y92.829 E10.42064
G1 X111.319 Y93.026 E10.43168
G1 X111.878 Y93.296 E10.44272
G1 X112.398 Y93.636 E10.45376
G1 X112.87 Y94.04 E10.4648
G1 X113.287 Y94.502 E10.47587
G1 X113.64 Y95.012 E10.48689
G1 X113.925 Y95.564 E10.49794
G1 X114.137 Y96.149 E10.509
G1 X114.272 Y96.755 E10.52003
G1 X114.33 Y97.5 E10.53332
G1 X114.33 Y109.67 E10.74965
G1 X126.5 Y109.67 E10.96598
G1 X127.12 Y109.71 E10.97703
G1 X127.73 Y109.829 E10.98807
G1 X128.319 Y110.026 E10.99911
G1 X128.878 Y110.296 E11.01015
G1 X129.398 Y110.636 E11.02119
G1 X129.87 Y111.04 E11.03224
G1 X130.287 Y111.502 E11.0433
G1 X130.64 Y112.012 E11.05433
G1 X130.925 Y112.564 E11.06537
G1 X131.137 Y113.149 E11.07643
G1 X131.272 Y113.755 E11.08747
G1 X131.33 Y114.5 E11.10075
G1 X131.33 Y117.5 E11.15408
G1 X131.29 Y118.12 E11.16512
G1 X131.171 Y118.73 E11.17617
G1 X130.974 Y119.319 E11.18721
G1 X130.704 Y119.878 E11.19824
G1 X130.364 Y120.398 E11.20929
G1 X129.96 Y120.87 E11.22033
G1 X129.498 Y121.287 E11.2314
G1 X128.988 Y121.64 E11.24242
G1 X128.436 Y121.925 E11.25346
G1 X127.851 Y122.137 E11.26452
G1 X127.245 Y122.272 E11.27556
G1 X126.5 Y122.33 E11.28884
G1 X106.5 Y122.33 E11.64436
G1 X105.88 Y122.29 E11.65541
G1 X105.27 Y122.171 E11.66646
G1 X104.681 Y121.974 E11.6775
G1 X104.122 Y121.704 E11.68853
G1 X103.602 Y121.364 E11.69958
G1 X103.13 Y120.96 E11.71062
G1 X102.713 Y120.498 E11.72168
G1 X102.36 Y119.988 E11.73271
G1 X102.075 Y119.436 E11.74375
G1 X101.863 Y118.851 E11.75481
G1 X101.728 Y118.245 E11.76585
G1 X101.67 Y117.5 E11.77913
G1 X101.67 Y97.5 E12.13465
G1 X101.71 Y96.88 E12.14569
G1 X101.829 Y96.27 E12.15674
G1 X102.026 Y95.681 E12.16778
G1 X102.296 Y95.122 E12.17882
G1 X102.636 Y94.602 E12.18986
G1 X103.04 Y94.13 E12.20091
M204 S625
M205 X6 Y6
G0 F4285.7 X103.454 Y94.311
M204 S500
M205 X5 Y5
G1 F1200 X103.91 Y93.931 E12.21146
G1 X104.413 Y93.615 E12.22202
G1 X104.953 Y93.37 E12.23256
G1 X105.522 Y93.2 E12.24311
G1 X106.108 Y93.107 E12.25366
G1 X106.5 Y93.09 E12.26064
G1 X109.5 Y93.09 E12.31396
G1 X110.092 Y93.13 E12.32451
G1 X110.674 Y93.249 E12.33507
G1 X111.234 Y93.445 E12.34562
G1 X111.763 Y93.715 E12.35617
G1 X112.251 Y94.053 E12.36673
G1 X112.689 Y94.454 E12.37728
G1 X113.069 Y94.91 E12.38783
G1 X113.385 Y95.413 E12.39839
G1 X113.63 Y95.953 E12.40893
G1 X113.8 Y96.522 E12.41949
G1 X113.893 Y97.108 E12.43004
G1 X113.91 Y97.5 E12.43701
G1 X113.91 Y110.09 E12.66081
G1 X126.5 Y110.09 E12.88461
G1 X127.092 Y110.13 E12.89516
G1 X127.674 Y110.249 E12.90572
G1 X128.234 Y110.445 E12.91627
G1 X128.763 Y110.715 E12.92682
G1 X129.251 Y111.053 E12.93737
G1 X129.689 Y111.454 E12.94793
G1 X130.069 Y111.91 E12.95848
G1 X130.385 Y112.413 E12.96904
G1 X130.63 Y112.953 E12.97958
G1 X130.8 Y113.522 E12.99014
G1 X130.893 Y114.108 E13.00069
G1 X130.91 Y114.5 E13.00766
G1 X130.91 Y117.5 E13.06099
G1 X130.87 Y118.092 E13.07154
G1 X130.751 Y118.674 E13.0821
G1 X130.555 Y119.234 E13.09264
G1 X130.285 Y119.763 E13.1032
G1 X129.947 Y120.251 E13.11375
G1 X129.546 Y120.689 E13.12431
G1 X129.09 Y121.069 E13.13486
G1 X128.587 Y121.385 E13.14542
G1 X128.047 Y121.63 E13.15596
G1 X127.478 Y121.8 E13.16652
G1 X126.892 Y121.893 E13.17706
G1 X126.5 Y121.91 E13.18404
G1 X106.5 Y121.91 E13.53956
G1 X105.908 Y121.87 E13.5501
G1 X105.326 Y121.751 E13.56066
G1 X104.766 Y121.555 E13.57121
G1 X104.237 Y121.285 E13.58177
G1 X103.749 Y120.947 E13.59232
G1 X103.311 Y120.546 E13.60288
G1 X102.931 Y120.09 E13.61343
G1 X102.615 Y119.587 E13.62399
G1 X102.37 Y119.047 E13.63453
G1 X102.2 Y118.478 E13.64508
G1 X102.107 Y117.892 E13.65563
G1 X102.09 Y117.5 E13.66261
G1 X102.09 Y97.5 E14.01813
G1 X102.13 Y96.908 E14.02867
G1 X102.249 Y96.326 E14.03923
G1 X102.445 Y95.766 E14.04978
